; generated by PrusaSlicer 2.7.1 on 2024-01-26 at 15:00:21 UTC

; 

; external perimeters extrusion width = 0.40mm
; perimeters extrusion width = 0.40mm
; infill extrusion width = 0.40mm
; solid infill extrusion width = 0.40mm
; top infill extrusion width = 0.40mm
; first layer extrusion width = 0.40mm

M201 X500 Y500 Z100 E5000 ; sets maximum accelerations, mm/sec^2
M203 X500 Y500 Z10 E60 ; sets maximum feedrates, mm / sec
M204 P500 R1000 T500 ; sets acceleration (P, T) and retract acceleration (R), mm/sec^2
M205 X8.00 Y8.00 Z0.40 E5.00 ; sets the jerk limits, mm/sec
M205 S0 T0 ; sets the minimum extruding and travel feed rate, mm/sec

; printing object cube.stl id:0 copy 0
; stop printing object cube.stl id:0 copy 0

;TYPE:Custom
G90 ; use absolute coordinates
M83 ; extruder relative mode
M104 S150 ; set temporary nozzle temp to prevent oozing during homing
M140 S60 ; set final bed temp
G4 S30 ; allow partial nozzle warmup
G28 ; home all axis
G1 Z50 F240
G1 X2.0 Y10 F3000
M104 S200 ; set final nozzle temp
M190 S60 ; wait for bed temp to stabilize
M109 S200 ; wait for nozzle temp to stabilize
G1 Z0.28 F240
G92 E0
G1 X2.0 Y140 E10 F1500 ; prime the nozzle
G1 X2.3 Y140 F5000
G92 E0
G1 X2.3 Y10 E10 F1200 ; prime the nozzle
G92 E0
G21 ; set units to millimeters
G90 ; use absolute coordinates
M83 ; use relative distances for extrusion
; Filament gcode
M107
;LAYER_CHANGE
;Z:0.2
;HEIGHT:0.2
;BEFORE_LAYER_CHANGE
G92 E0
;0.2


G1 Z.2 F9000
;AFTER_LAYER_CHANGE
;0.2
G1 E-5 F3600
G1 X98.628 Y97.716 F9000
G1 Z.2
G1 E5 F2400
M204 P500
;TYPE:Skirt/Brim
;WIDTH:0.4
G1 F1200
G1 X100.501 Y97.144 E.05815
G1 X130.499 Y97.144 E.89068
G1 X132.077 Y97.538 E.04829
G1 X133.284 Y98.628 E.04829
G1 X133.856 Y100.501 E.05815
G1 X133.856 Y130.499 E.89068
G1 X133.462 Y132.077 E.04829
G1 X132.372 Y133.284 E.04829
G1 X130.499 Y133.856 E.05815
G1 X100.501 Y133.856 E.89068
G1 X98.923 Y133.462 E.04829
G1 X97.716 Y132.372 E.04829
G1 X97.144 Y130.499 E.05815
G1 X97.144 Y100.501 E.89068
G1 X97.538 Y98.923 E.04829
G1 X98.588 Y97.76 E.04652
; printing object cube.stl id:0 copy 0
G1 E-3.5 F3600
;WIPE_START
G1 F7200
G1 X98.628 Y97.716 E-.02825
G1 X100.501 Y97.144 E-.93024
G1 X101.641 Y97.144 E-.54151
;WIPE_END
G1 X100.801 Y100.801 F9000
G1 E5 F2400
;TYPE:External perimeter
;WIDTH:0.399999
G1 F1200
G1 X130.199 Y100.801 E.87286
G1 X130.199 Y115.5 E.43643
G1 X130.199 Y130.199 E.43643
G1 X100.801 Y130.199 E.87286
G1 X100.801 Y100.861 E.87108
G1 E-3.5 F3600
;WIPE_START
G1 F7200
G1 X100.801 Y100.801 E-.0285
G1 X103.899 Y100.801 E-1.4715
;WIPE_END
G1 X129.358 Y100.916 F9000
G1 E5 F2400
;TYPE:Solid infill
;WIDTH:0.402061
G1 F1200
G1 X129.924 Y101.481 E.02388
G1 X129.924 Y101.989 E.01517
G1 X129.011 Y101.076 E.03856
G1 X128.503 Y101.076 E.01517
G1 X129.924 Y102.497 E.06001
G1 X129.924 Y103.005 E.01517
G1 X127.995 Y101.076 E.08147
G1 X127.487 Y101.076 E.01517
G1 X129.924 Y103.513 E.10292
G1 X129.924 Y104.021 E.01517
G1 X126.979 Y101.076 E.12437
G1 X126.471 Y101.076 E.01517
G1 X129.924 Y104.529 E.14583
G1 X129.924 Y105.037 E.01517
G1 X125.963 Y101.076 E.16728
G1 X125.456 Y101.076 E.01514
G1 X129.924 Y105.544 E.18869
G1 X129.924 Y106.052 E.01517
G1 X124.948 Y101.076 E.21015
G1 X124.44 Y101.076 E.01517
G1 X129.924 Y106.56 E.2316
G1 X129.924 Y107.068 E.01517
G1 X123.932 Y101.076 E.25306
G1 X123.424 Y101.076 E.01517
G1 X129.924 Y107.576 E.27451
G1 X129.924 Y108.084 E.01517
G1 X122.916 Y101.076 E.29596
G1 X122.408 Y101.076 E.01517
G1 X129.924 Y108.592 E.31742
G1 X129.924 Y109.1 E.01517
G1 X121.9 Y101.076 E.33887
G1 X121.392 Y101.076 E.01517
G1 X129.924 Y109.608 E.36033
G1 X129.924 Y110.116 E.01517
G1 X120.884 Y101.076 E.38178
G1 X120.377 Y101.076 E.01514
G1 X129.924 Y110.623 E.40319
G1 X129.924 Y111.131 E.01517
G1 X119.869 Y101.076 E.42465
G1 X119.361 Y101.076 E.01517
G1 X129.924 Y111.639 E.4461
G1 X129.924 Y112.147 E.01517
G1 X118.853 Y101.076 E.46755
G1 X118.345 Y101.076 E.01517
G1 X129.924 Y112.655 E.48901
G1 X129.924 Y113.163 E.01517
G1 X117.837 Y101.076 E.51046
G1 X117.329 Y101.076 E.01517
G1 X129.924 Y113.671 E.53191
G1 X129.924 Y114.179 E.01517
G1 X116.821 Y101.076 E.55337
G1 X116.313 Y101.076 E.01517
G1 X129.924 Y114.687 E.57482
G1 X129.924 Y115.195 E.01517
G1 X115.805 Y101.076 E.59628
G1 X115.298 Y101.076 E.01514
G1 X129.924 Y115.702 E.61769
G1 X129.924 Y116.21 E.01517
G1 X114.79 Y101.076 E.63914
G1 X114.282 Y101.076 E.01517
G1 X129.924 Y116.718 E.6606
G1 X129.924 Y117.226 E.01517
G1 X113.774 Y101.076 E.68205
G1 X113.266 Y101.076 E.01517
G1 X129.924 Y117.734 E.7035
G1 X129.924 Y118.242 E.01517
G1 X112.758 Y101.076 E.72496
G1 X112.25 Y101.076 E.01517
G1 X129.924 Y118.75 E.74641
G1 X129.924 Y119.258 E.01517
G1 X111.742 Y101.076 E.76787
G1 X111.234 Y101.076 E.01517
G1 X129.924 Y119.766 E.78932
G1 X129.924 Y120.274 E.01517
G1 X110.726 Y101.076 E.81077
G1 X110.219 Y101.076 E.01514
G1 X129.924 Y120.781 E.83219
G1 X129.924 Y121.289 E.01517
G1 X109.711 Y101.076 E.85364
G1 X109.203 Y101.076 E.01517
G1 X129.924 Y121.797 E.87509
G1 X129.924 Y122.305 E.01517
G1 X108.695 Y101.076 E.89655
G1 X108.187 Y101.076 E.01517
G1 X129.924 Y122.813 E.918
G1 X129.924 Y123.321 E.01517
G1 X107.679 Y101.076 E.93946
G1 X107.171 Y101.076 E.01517
G1 X129.924 Y123.829 E.96091
G1 X129.924 Y124.337 E.01517
G1 X106.663 Y101.076 E.98236
G1 X106.155 Y101.076 E.01517
G1 X129.924 Y124.845 E1.00382
G1 X129.924 Y125.353 E.01517
G1 X105.647 Y101.076 E1.02527
G1 X105.14 Y101.076 E.01514
G1 X129.924 Y125.861 E1.0467
G1 X129.924 Y126.368 E.01514
G1 X104.632 Y101.076 E1.06814
G1 X104.124 Y101.076 E.01517
G1 X129.924 Y126.876 E1.08959
G1 X129.924 Y127.384 E.01517
G1 X103.616 Y101.076 E1.11105
G1 X103.108 Y101.076 E.01517
G1 X129.924 Y127.892 E1.1325
G1 X129.924 Y128.4 E.01517
G1 X102.6 Y101.076 E1.15395
G1 X102.092 Y101.076 E.01517
G1 X129.924 Y128.908 E1.17541
G1 X129.924 Y129.416 E.01517
G1 X101.584 Y101.076 E1.19686
G1 X101.076 Y101.076 E.01517
G1 X129.924 Y129.924 E1.21832
G1 X129.416 Y129.924 E.01517
G1 X101.076 Y101.584 E1.19686
G1 X101.076 Y102.092 E.01517
G1 X128.908 Y129.924 E1.17541
G1 X128.4 Y129.924 E.01517
G1 X101.076 Y102.6 E1.15395
G1 X101.076 Y103.108 E.01517
G1 X127.892 Y129.924 E1.1325
G1 X127.384 Y129.924 E.01517
G1 X101.076 Y103.616 E1.11105
G1 X101.076 Y104.124 E.01517
G1 X126.876 Y129.924 E1.08959
G1 X126.368 Y129.924 E.01517
G1 X101.076 Y104.632 E1.06814
G1 X101.076 Y105.14 E.01517
G1 X125.86 Y129.924 E1.04668
G1 X125.352 Y129.924 E.01517
G1 X101.076 Y105.648 E1.02523
G1 X101.076 Y106.155 E.01514
G1 X124.845 Y129.924 E1.00382
G1 X124.337 Y129.924 E.01517
G1 X101.076 Y106.663 E.98236
G1 X101.076 Y107.171 E.01517
G1 X123.829 Y129.924 E.96091
G1 X123.321 Y129.924 E.01517
G1 X101.076 Y107.679 E.93946
G1 X101.076 Y108.187 E.01517
G1 X122.813 Y129.924 E.918
G1 X122.305 Y129.924 E.01517
G1 X101.076 Y108.695 E.89655
G1 X101.076 Y109.203 E.01517
G1 X121.797 Y129.924 E.87509
G1 X121.289 Y129.924 E.01517
G1 X101.076 Y109.711 E.85364
G1 X101.076 Y110.219 E.01517
G1 X120.781 Y129.924 E.83219
G1 X120.273 Y129.924 E.01517
G1 X101.076 Y110.727 E.81073
G1 X101.076 Y111.234 E.01514
G1 X119.766 Y129.924 E.78932
G1 X119.258 Y129.924 E.01517
G1 X101.076 Y111.742 E.76787
G1 X101.076 Y112.25 E.01517
G1 X118.75 Y129.924 E.74641
G1 X118.242 Y129.924 E.01517
G1 X101.076 Y112.758 E.72496
G1 X101.076 Y113.266 E.01517
G1 X117.734 Y129.924 E.7035
G1 X117.226 Y129.924 E.01517
G1 X101.076 Y113.774 E.68205
G1 X101.076 Y114.282 E.01517
G1 X116.718 Y129.924 E.6606
G1 X116.21 Y129.924 E.01517
G1 X101.076 Y114.79 E.63914
G1 X101.076 Y115.298 E.01517
G1 X115.702 Y129.924 E.61769
G1 X115.194 Y129.924 E.01517
G1 X101.076 Y115.806 E.59623
G1 X101.076 Y116.313 E.01514
G1 X114.687 Y129.924 E.57482
G1 X114.179 Y129.924 E.01517
G1 X101.076 Y116.821 E.55337
G1 X101.076 Y117.329 E.01517
G1 X113.671 Y129.924 E.53191
G1 X113.163 Y129.924 E.01517
G1 X101.076 Y117.837 E.51046
G1 X101.076 Y118.345 E.01517
G1 X112.655 Y129.924 E.48901
G1 X112.147 Y129.924 E.01517
G1 X101.076 Y118.853 E.46755
G1 X101.076 Y119.361 E.01517
G1 X111.639 Y129.924 E.4461
G1 X111.131 Y129.924 E.01517
G1 X101.076 Y119.869 E.42465
G1 X101.076 Y120.377 E.01517
G1 X110.623 Y129.924 E.40319
G1 X110.115 Y129.924 E.01517
G1 X101.076 Y120.885 E.38174
G1 X101.076 Y121.393 E.01517
G1 X109.607 Y129.924 E.36028
G1 X109.1 Y129.924 E.01514
G1 X101.076 Y121.9 E.33887
G1 X101.076 Y122.408 E.01517
G1 X108.592 Y129.924 E.31742
G1 X108.084 Y129.924 E.01517
G1 X101.076 Y122.916 E.29596
G1 X101.076 Y123.424 E.01517
G1 X107.576 Y129.924 E.27451
G1 X107.068 Y129.924 E.01517
G1 X101.076 Y123.932 E.25306
G1 X101.076 Y124.44 E.01517
G1 X106.56 Y129.924 E.2316
G1 X106.052 Y129.924 E.01517
G1 X101.076 Y124.948 E.21015
G1 X101.076 Y125.456 E.01517
G1 X105.544 Y129.924 E.18869
G1 X105.036 Y129.924 E.01517
G1 X101.076 Y125.964 E.16724
G1 X101.076 Y126.472 E.01517
G1 X104.528 Y129.924 E.14579
G1 X104.021 Y129.924 E.01514
G1 X101.076 Y126.979 E.12437
G1 X101.076 Y127.487 E.01517
G1 X103.513 Y129.924 E.10292
G1 X103.005 Y129.924 E.01517
G1 X101.076 Y127.995 E.08147
G1 X101.076 Y128.503 E.01517
G1 X102.497 Y129.924 E.06001
G1 X101.989 Y129.924 E.01517
G1 X101.076 Y129.011 E.03856
G1 X101.076 Y129.519 E.01517
G1 X101.642 Y130.084 E.02388
; stop printing object cube.stl id:0 copy 0
M106 S255
;LAYER_CHANGE
;Z:0.4
;HEIGHT:0.2
;BEFORE_LAYER_CHANGE
G92 E0
;0.4


G1 Z.4 F9000
;AFTER_LAYER_CHANGE
;0.4
G1 E-5 F3600
G1 X101.642 Y130.084 F9000
G1 X101.642 Y133.856
G1 E5 F2400
;TYPE:Skirt/Brim
;WIDTH:0.4
G1 X100.501 Y133.856 E.03388
G1 X98.923 Y133.462 E.04829
G1 X97.716 Y132.372 E.04829
G1 X97.144 Y130.499 E.05815
G1 X97.144 Y100.501 E.89068
G1 X97.538 Y98.923 E.04829
G1 X98.628 Y97.716 E.04829
G1 X100.501 Y97.144 E.05815
G1 X130.499 Y97.144 E.89068
G1 X132.077 Y97.538 E.04829
G1 X133.284 Y98.628 E.04829
G1 X133.856 Y100.501 E.05815
G1 X133.856 Y130.499 E.89068
G1 X133.462 Y132.077 E.04829
G1 X132.372 Y133.284 E.04829
G1 X130.499 Y133.856 E.05815
G1 X101.702 Y133.856 E.85502
; printing object cube.stl id:0 copy 0
G1 E-3.5 F3600
;WIPE_START
G1 F7200
G1 X101.642 Y133.856 E-.0285
G1 X100.501 Y133.856 E-.54197
G1 X98.923 Y133.462 E-.77256
G1 X98.678 Y133.241 E-.15697
;WIPE_END
G1 X101.702 Y130.299 F9000
G1 E5 F2400
;TYPE:External perimeter
;WIDTH:0.399999
G1 F1500
G1 X100.701 Y130.299 E.02972
G1 X100.701 Y100.701 E.8788
G1 X130.299 Y100.701 E.8788
G1 X130.299 Y115.5 E.4394
G1 X130.299 Y130.299 E.4394
G1 X101.762 Y130.299 E.8473
G1 E-3.5 F3600
;WIPE_START
G1 F7200
G1 X101.702 Y130.299 E-.0285
G1 X100.701 Y130.299 E-.47547
G1 X100.701 Y128.202 E-.99603
;WIPE_END
G1 X101.073 Y101.005 F9000
G1 E5 F2400
;TYPE:Solid infill
;WIDTH:0.486634
G1 X101.034 Y100.966 E.00203
G1 X100.98 Y100.98 E.00206
G1 X100.966 Y101.034 E.00206
G1 X101.005 Y101.073 E.00203
G1 X101.059 Y101.059 E.00206
;WIDTH:0.399999
G1 X100.976 Y101.629 E.0171
G1 X101.629 Y100.976 E.02742
G1 X102.134 Y100.976 E.01499
G1 X100.976 Y102.134 E.04862
G1 X100.976 Y102.639 E.01499
G1 X102.639 Y100.976 E.06983
G1 X103.144 Y100.976 E.01499
G1 X100.976 Y103.144 E.09103
G1 X100.976 Y103.649 E.01499
G1 X103.649 Y100.976 E.11224
G1 X104.154 Y100.976 E.01499
G1 X100.976 Y104.154 E.13344
G1 X100.976 Y104.659 E.01499
G1 X104.659 Y100.976 E.15465
G1 X105.164 Y100.976 E.01499
G1 X100.976 Y105.164 E.17585
G1 X100.976 Y105.669 E.01499
G1 X105.669 Y100.976 E.19706
G1 X106.174 Y100.976 E.01499
G1 X100.976 Y106.174 E.21826
G1 X100.976 Y106.679 E.01499
G1 X106.679 Y100.976 E.23947
G1 X107.184 Y100.976 E.01499
G1 X100.976 Y107.184 E.26067
G1 X100.976 Y107.689 E.01499
G1 X107.689 Y100.976 E.28188
G1 X108.194 Y100.976 E.01499
G1 X100.976 Y108.194 E.30308
G1 X100.976 Y108.699 E.01499
G1 X108.699 Y100.976 E.32429
G1 X109.204 Y100.976 E.01499
G1 X100.976 Y109.204 E.34549
G1 X100.976 Y109.709 E.01499
G1 X109.709 Y100.976 E.3667
G1 X110.214 Y100.976 E.01499
G1 X100.976 Y110.214 E.3879
G1 X100.976 Y110.719 E.01499
G1 X110.719 Y100.976 E.40911
G1 X111.224 Y100.976 E.01499
G1 X100.976 Y111.224 E.43031
G1 X100.976 Y111.729 E.01499
G1 X111.729 Y100.976 E.45152
G1 X112.234 Y100.976 E.01499
G1 X100.976 Y112.234 E.47272
G1 X100.976 Y112.739 E.01499
G1 X112.739 Y100.976 E.49393
G1 X113.244 Y100.976 E.01499
G1 X100.976 Y113.244 E.51513
G1 X100.976 Y113.749 E.01499
G1 X113.749 Y100.976 E.53634
G1 X114.254 Y100.976 E.01499
G1 X100.976 Y114.254 E.55754
G1 X100.976 Y114.759 E.01499
G1 X114.759 Y100.976 E.57874
G1 X115.264 Y100.976 E.01499
G1 X100.976 Y115.264 E.59995
G1 X100.976 Y115.769 E.01499
G1 X115.769 Y100.976 E.62115
G1 X116.274 Y100.976 E.01499
G1 X100.976 Y116.274 E.64236
G1 X100.976 Y116.779 E.01499
G1 X116.779 Y100.976 E.66356
G1 X117.284 Y100.976 E.01499
G1 X100.976 Y117.284 E.68477
G1 X100.976 Y117.789 E.01499
G1 X117.789 Y100.976 E.70597
G1 X118.294 Y100.976 E.01499
G1 X100.976 Y118.294 E.72718
G1 X100.976 Y118.799 E.01499
G1 X118.799 Y100.976 E.74838
G1 X119.304 Y100.976 E.01499
G1 X100.976 Y119.304 E.76959
G1 X100.976 Y119.809 E.01499
G1 X119.809 Y100.976 E.79079
G1 X120.314 Y100.976 E.01499
G1 X100.976 Y120.314 E.812
G1 X100.976 Y120.819 E.01499
G1 X120.819 Y100.976 E.8332
G1 X121.324 Y100.976 E.01499
G1 X100.976 Y121.324 E.85441
G1 X100.976 Y121.829 E.01499
G1 X121.829 Y100.976 E.87561
G1 X122.334 Y100.976 E.01499
G1 X100.976 Y122.334 E.89682
G1 X100.976 Y122.839 E.01499
G1 X122.839 Y100.976 E.91802
G1 X123.344 Y100.976 E.01499
G1 X100.976 Y123.344 E.93923
G1 X100.976 Y123.849 E.01499
G1 X123.849 Y100.976 E.96043
G1 X124.354 Y100.976 E.01499
G1 X100.976 Y124.354 E.98164
G1 X100.976 Y124.859 E.01499
G1 X124.859 Y100.976 E1.00284
G1 X125.364 Y100.976 E.01499
G1 X100.976 Y125.364 E1.02405
G1 X100.976 Y125.869 E.01499
G1 X125.869 Y100.976 E1.04525
G1 X126.374 Y100.976 E.01499
G1 X100.976 Y126.374 E1.06646
G1 X100.976 Y126.879 E.01499
G1 X126.879 Y100.976 E1.08766
G1 X127.384 Y100.976 E.01499
G1 X100.976 Y127.384 E1.10887
G1 X100.976 Y127.889 E.01499
G1 X127.889 Y100.976 E1.13007
G1 X128.394 Y100.976 E.01499
G1 X100.976 Y128.394 E1.15128
G1 X100.976 Y128.898 E.01496
G1 X128.898 Y100.976 E1.17244
G1 X129.403 Y100.976 E.01499
G1 X100.976 Y129.403 E1.19364
G1 X100.917 Y130.113 E.02115
;WIDTH:0.38292
G1 X100.846 Y130.094 E.00208
G1 X100.865 Y130.165 E.00208
G1 X100.906 Y130.154 E.0012
;WIDTH:0.399999
G1 X100.976 Y129.908 E.00759
G1 X129.908 Y100.976 E1.21485
G1 X130.024 Y101.366 E.01208
G1 X101.366 Y130.024 E1.20334
G1 X101.871 Y130.024 E.01499
G1 X130.024 Y101.871 E1.18214
G1 X130.024 Y102.376 E.01499
G1 X102.376 Y130.024 E1.16093
G1 X102.881 Y130.024 E.01499
G1 X130.024 Y102.881 E1.13973
G1 X130.024 Y103.386 E.01499
G1 X103.386 Y130.024 E1.11852
G1 X103.891 Y130.024 E.01499
G1 X130.024 Y103.891 E1.09732
G1 X130.024 Y104.396 E.01499
G1 X104.396 Y130.024 E1.07611
G1 X104.901 Y130.024 E.01499
G1 X130.024 Y104.901 E1.05491
G1 X130.024 Y105.406 E.01499
G1 X105.406 Y130.024 E1.0337
G1 X105.911 Y130.024 E.01499
G1 X130.024 Y105.911 E1.0125
G1 X130.024 Y106.416 E.01499
G1 X106.416 Y130.024 E.99129
G1 X106.921 Y130.024 E.01499
G1 X130.024 Y106.921 E.97009
G1 X130.024 Y107.426 E.01499
G1 X107.426 Y130.024 E.94888
G1 X107.931 Y130.024 E.01499
G1 X130.024 Y107.931 E.92768
G1 X130.024 Y108.436 E.01499
G1 X108.436 Y130.024 E.90647
G1 X108.941 Y130.024 E.01499
G1 X130.024 Y108.941 E.88527
G1 X130.024 Y109.446 E.01499
G1 X109.446 Y130.024 E.86407
G1 X109.951 Y130.024 E.01499
G1 X130.024 Y109.951 E.84286
G1 X130.024 Y110.456 E.01499
G1 X110.456 Y130.024 E.82166
G1 X110.961 Y130.024 E.01499
G1 X130.024 Y110.961 E.80045
G1 X130.024 Y111.466 E.01499
G1 X111.466 Y130.024 E.77925
G1 X111.971 Y130.024 E.01499
G1 X130.024 Y111.971 E.75804
G1 X130.024 Y112.476 E.01499
G1 X112.476 Y130.024 E.73684
G1 X112.981 Y130.024 E.01499
G1 X130.024 Y112.981 E.71563
G1 X130.024 Y113.486 E.01499
G1 X113.486 Y130.024 E.69443
G1 X113.991 Y130.024 E.01499
G1 X130.024 Y113.991 E.67322
G1 X130.024 Y114.496 E.01499
G1 X114.496 Y130.024 E.65202
G1 X115.001 Y130.024 E.01499
G1 X130.024 Y115.001 E.63081
G1 X130.024 Y115.506 E.01499
G1 X115.506 Y130.024 E.60961
G1 X116.011 Y130.024 E.01499
G1 X130.024 Y116.011 E.5884
G1 X130.024 Y116.516 E.01499
G1 X116.516 Y130.024 E.5672
G1 X117.021 Y130.024 E.01499
