; ### Marlin IS Calibration Damping Frequency Pattern ###
; -------------------------------------------
;
; Printer: Ender-3
; Created: Fri Jan 26 2024 16:16:04 GMT+0100 (Central European Standard Time)
;
; Settings Printer:
; Filament Diameter = 1.75 mm
; Nozzle Temperature = 200 °C
; Bed Temperature = 60 °C
; Nozzle Diameter = 0.4 mm
; Layer Height = 0.2 mm
; Fan Speed = 100 %
; Z-axis Offset = 0 mm
; Retraction = 5 mm
;
; Settings Print Bed:
; Bed Size X = 220 mm
; Bed Size Y = 220 mm
;
; Settings Speed:
; Printing Speed = 40 mm/s
; Movement Speed = 100 mm/s
; Retraction Speed = 50 mm/s
; Printing Deceleration = 500 mm/s^2
; Jerk =  pattern default
; Junction Deviation =  pattern default
;
; Settings Pattern:
; Max X Frequency = 60 Hz
; Max Y Frequency = 60 Hz
;
; Settings Advance:
; Bed leveling = 0
; Extrusion Multiplier = 1
;
; prepare printing
;
M501 ; Load settings from EEPROM
M205 S0 T0 ; minimum extruding and travel feed rate
G21 ; Millimeter units
G90 ; Absolute XYZ
G28 ; Home all axes

G1 Z10 F100 ; Z raise
M104 S200 ; Set nozzle temperature (no wait)
M190 S60 ; Set bed temperature (wait)
M109 S200 ; Wait for nozzle temp

G92 E0 ; Reset extruder distance
M900 K0 ; Linear advance off
M106 S255 ; Fan speed
M593 F0 ; input shaping off
; draw anchor lines
G0 X181.20 Y181.20 Z2.00 E0.00 F6000.0
G0 X181.20 Y181.20 Z0.20 E0.00 F600.0
; unretract
G1 E5.00 F3000.0
G1 X38.80 Y181.20 Z0.20 E9.74 F2400.0
G1 X38.80 Y38.80 Z0.20 E14.47 F2400.0

M203 X500 Y500 ; maximum feedrates
M204 P10000 ; print acceleration
M201 X10000 Y10000 ; max acceleration
M205 X500.00 Y500.00 ; jerk limits very high
M205 J0.3 ; junction deviation maximum
G1 X39.80 Y39.30 Z0.20 E14.51 F67.1
G1 X40.80 Y38.80 Z0.20 E14.55 F134.2
G1 X41.80 Y39.30 Z0.20 E14.58 F201.2
G1 X42.80 Y38.80 Z0.20 E14.62 F268.3
G1 X43.80 Y39.30 Z0.20 E14.66 F335.4
G1 X44.80 Y38.80 Z0.20 E14.70 F402.5
G1 X45.80 Y39.30 Z0.20 E14.73 F469.6
G1 X46.80 Y38.80 Z0.20 E14.77 F536.7
G1 X47.80 Y39.30 Z0.20 E14.81 F603.7
G1 X48.80 Y38.80 Z0.20 E14.84 F670.8
G1 X49.80 Y39.30 Z0.20 E14.88 F737.9
G1 X50.80 Y38.80 Z0.20 E14.92 F805.0
G1 X51.80 Y39.30 Z0.20 E14.96 F872.1
G1 X52.80 Y38.80 Z0.20 E14.99 F939.1
G1 X53.80 Y39.30 Z0.20 E15.03 F1006.2
G1 X54.80 Y38.80 Z0.20 E15.07 F1073.3
G1 X55.80 Y39.30 Z0.20 E15.10 F1140.4
G1 X56.80 Y38.80 Z0.20 E15.14 F1207.5
G1 X57.80 Y39.30 Z0.20 E15.18 F1274.6
G1 X58.80 Y38.80 Z0.20 E15.22 F1341.6
G1 X59.80 Y39.30 Z0.20 E15.25 F1408.7
G1 X60.80 Y38.80 Z0.20 E15.29 F1475.8
G1 X61.80 Y39.30 Z0.20 E15.33 F1542.9
G1 X62.80 Y38.80 Z0.20 E15.36 F1610.0
G1 X63.80 Y39.30 Z0.20 E15.40 F1677.1
G1 X64.80 Y38.80 Z0.20 E15.44 F1744.1
G1 X65.80 Y39.30 Z0.20 E15.48 F1811.2
G1 X66.80 Y38.80 Z0.20 E15.51 F1878.3
G1 X67.80 Y39.30 Z0.20 E15.55 F1945.4
G1 X68.80 Y38.80 Z0.20 E15.59 F2012.5
G1 X69.80 Y39.30 Z0.20 E15.63 F2079.5
G1 X70.80 Y38.80 Z0.20 E15.66 F2146.6
G1 X71.80 Y39.30 Z0.20 E15.70 F2213.7
G1 X72.80 Y38.80 Z0.20 E15.74 F2280.8
G1 X73.80 Y39.30 Z0.20 E15.77 F2347.9
G1 X74.80 Y38.80 Z0.20 E15.81 F2415.0
G1 X75.80 Y39.30 Z0.20 E15.85 F2482.0
G1 X76.80 Y38.80 Z0.20 E15.89 F2549.1
G1 X77.80 Y39.30 Z0.20 E15.92 F2616.2
G1 X78.80 Y38.80 Z0.20 E15.96 F2683.3
G1 X79.80 Y39.30 Z0.20 E16.00 F2750.4
G1 X80.80 Y38.80 Z0.20 E16.03 F2817.4
G1 X81.80 Y39.30 Z0.20 E16.07 F2884.5
G1 X82.80 Y38.80 Z0.20 E16.11 F2951.6
G1 X83.80 Y39.30 Z0.20 E16.15 F3018.7
G1 X84.80 Y38.80 Z0.20 E16.18 F3085.8
G1 X85.80 Y39.30 Z0.20 E16.22 F3152.9
G1 X86.80 Y38.80 Z0.20 E16.26 F3219.9
G1 X87.80 Y39.30 Z0.20 E16.29 F3287.0
G1 X88.80 Y38.80 Z0.20 E16.33 F3354.1
G1 X89.80 Y39.30 Z0.20 E16.37 F3421.2
G1 X90.80 Y38.80 Z0.20 E16.41 F3488.3
G1 X91.80 Y39.30 Z0.20 E16.44 F3555.3
G1 X92.80 Y38.80 Z0.20 E16.48 F3622.4
G1 X93.80 Y39.30 Z0.20 E16.52 F3689.5
G1 X94.80 Y38.80 Z0.20 E16.55 F3756.6
G1 X95.80 Y39.30 Z0.20 E16.59 F3823.7
G1 X96.80 Y38.80 Z0.20 E16.63 F3890.8
G1 X97.80 Y39.30 Z0.20 E16.67 F3957.8
G1 X98.80 Y38.80 Z0.20 E16.70 F4024.9
G1 X99.80 Y39.30 Z0.20 E16.74 F4092.0
G1 X100.80 Y38.80 Z0.20 E16.78 F4159.1
G1 X101.80 Y39.30 Z0.20 E16.82 F4226.2
G1 X102.80 Y38.80 Z0.20 E16.85 F4293.3
G1 X103.80 Y39.30 Z0.20 E16.89 F4360.3
G1 X104.80 Y38.80 Z0.20 E16.93 F4427.4
G1 X105.80 Y39.30 Z0.20 E16.96 F4494.5
G1 X106.80 Y38.80 Z0.20 E17.00 F4561.6
G1 X107.80 Y39.30 Z0.20 E17.04 F4628.7
G1 X108.80 Y38.80 Z0.20 E17.08 F4695.7
G1 X109.80 Y39.30 Z0.20 E17.11 F4762.8
G1 X110.80 Y38.80 Z0.20 E17.15 F4829.9
G1 X111.80 Y39.30 Z0.20 E17.19 F4897.0
G1 X112.80 Y38.80 Z0.20 E17.22 F4964.1
G1 X113.80 Y39.30 Z0.20 E17.26 F5031.2
G1 X114.80 Y38.80 Z0.20 E17.30 F5098.2
G1 X115.80 Y39.30 Z0.20 E17.34 F5165.3
G1 X116.80 Y38.80 Z0.20 E17.37 F5232.4
G1 X117.80 Y39.30 Z0.20 E17.41 F5299.5
G1 X118.80 Y38.80 Z0.20 E17.45 F5366.6
G1 X119.80 Y39.30 Z0.20 E17.48 F5433.6
G1 X120.80 Y38.80 Z0.20 E17.52 F5500.7
G1 X121.80 Y39.30 Z0.20 E17.56 F5567.8
G1 X122.80 Y38.80 Z0.20 E17.60 F5634.9
G1 X123.80 Y39.30 Z0.20 E17.63 F5702.0
G1 X124.80 Y38.80 Z0.20 E17.67 F5769.1
G1 X125.80 Y39.30 Z0.20 E17.71 F5836.1
G1 X126.80 Y38.80 Z0.20 E17.74 F5903.2
G1 X127.80 Y39.30 Z0.20 E17.78 F5970.3
G1 X128.80 Y38.80 Z0.20 E17.82 F6037.4
G1 X129.80 Y39.30 Z0.20 E17.86 F6104.5
G1 X130.80 Y38.80 Z0.20 E17.89 F6171.5
G1 X131.80 Y39.30 Z0.20 E17.93 F6238.6
G1 X132.80 Y38.80 Z0.20 E17.97 F6305.7
G1 X133.80 Y39.30 Z0.20 E18.01 F6372.8
G1 X134.80 Y38.80 Z0.20 E18.04 F6439.9
G1 X135.80 Y39.30 Z0.20 E18.08 F6507.0
G1 X136.80 Y38.80 Z0.20 E18.12 F6574.0
G1 X137.80 Y39.30 Z0.20 E18.15 F6641.1
G1 X138.80 Y38.80 Z0.20 E18.19 F6708.2
G1 X139.80 Y39.30 Z0.20 E18.23 F6775.3
G1 X140.80 Y38.80 Z0.20 E18.27 F6842.4
G1 X141.80 Y39.30 Z0.20 E18.30 F6909.5
G1 X142.80 Y38.80 Z0.20 E18.34 F6976.5
G1 X143.80 Y39.30 Z0.20 E18.38 F7043.6
G1 X144.80 Y38.80 Z0.20 E18.41 F7110.7
G1 X145.80 Y39.30 Z0.20 E18.45 F7177.8
G1 X146.80 Y38.80 Z0.20 E18.49 F7244.9
G1 X147.80 Y39.30 Z0.20 E18.53 F7311.9
G1 X148.80 Y38.80 Z0.20 E18.56 F7379.0
G1 X149.80 Y39.30 Z0.20 E18.60 F7446.1
G1 X150.80 Y38.80 Z0.20 E18.64 F7513.2
G1 X151.80 Y39.30 Z0.20 E18.67 F7580.3
G1 X152.80 Y38.80 Z0.20 E18.71 F7647.4
G1 X153.80 Y39.30 Z0.20 E18.75 F7714.4
G1 X154.80 Y38.80 Z0.20 E18.79 F7781.5
G1 X155.80 Y39.30 Z0.20 E18.82 F7848.6
G1 X156.80 Y38.80 Z0.20 E18.86 F7915.7
G1 X157.80 Y39.30 Z0.20 E18.90 F7982.8
G1 X158.80 Y38.80 Z0.20 E18.93 F8049.8
M201 X500 Y500
G1 X173.20 Y38.80 Z0.20 E19.41

M203 X500 Y500 ; maximum feedrates
M204 P10000 ; print acceleration
M201 X10000 Y10000 ; max acceleration
M205 X500.00 Y500.00 ; jerk limits very high
M205 J0.3 ; junction deviation maximum
G1 X173.70 Y39.80 Z0.20 E19.45 F67.1
G1 X173.20 Y40.80 Z0.20 E19.49 F134.2
G1 X173.70 Y41.80 Z0.20 E19.53 F201.2
G1 X173.20 Y42.80 Z0.20 E19.56 F268.3
G1 X173.70 Y43.80 Z0.20 E19.60 F335.4
G1 X173.20 Y44.80 Z0.20 E19.64 F402.5
G1 X173.70 Y45.80 Z0.20 E19.67 F469.6
G1 X173.20 Y46.80 Z0.20 E19.71 F536.7
G1 X173.70 Y47.80 Z0.20 E19.75 F603.7
G1 X173.20 Y48.80 Z0.20 E19.79 F670.8
G1 X173.70 Y49.80 Z0.20 E19.82 F737.9
G1 X173.20 Y50.80 Z0.20 E19.86 F805.0
G1 X173.70 Y51.80 Z0.20 E19.90 F872.1
G1 X173.20 Y52.80 Z0.20 E19.93 F939.1
G1 X173.70 Y53.80 Z0.20 E19.97 F1006.2
G1 X173.20 Y54.80 Z0.20 E20.01 F1073.3
G1 X173.70 Y55.80 Z0.20 E20.05 F1140.4
G1 X173.20 Y56.80 Z0.20 E20.08 F1207.5
G1 X173.70 Y57.80 Z0.20 E20.12 F1274.6
G1 X173.20 Y58.80 Z0.20 E20.16 F1341.6
G1 X173.70 Y59.80 Z0.20 E20.19 F1408.7
G1 X173.20 Y60.80 Z0.20 E20.23 F1475.8
G1 X173.70 Y61.80 Z0.20 E20.27 F1542.9
G1 X173.20 Y62.80 Z0.20 E20.31 F1610.0
G1 X173.70 Y63.80 Z0.20 E20.34 F1677.1
G1 X173.20 Y64.80 Z0.20 E20.38 F1744.1
G1 X173.70 Y65.80 Z0.20 E20.42 F1811.2
G1 X173.20 Y66.80 Z0.20 E20.45 F1878.3
G1 X173.70 Y67.80 Z0.20 E20.49 F1945.4
G1 X173.20 Y68.80 Z0.20 E20.53 F2012.5
G1 X173.70 Y69.80 Z0.20 E20.57 F2079.5
G1 X173.20 Y70.80 Z0.20 E20.60 F2146.6
G1 X173.70 Y71.80 Z0.20 E20.64 F2213.7
G1 X173.20 Y72.80 Z0.20 E20.68 F2280.8
G1 X173.70 Y73.80 Z0.20 E20.72 F2347.9
G1 X173.20 Y74.80 Z0.20 E20.75 F2415.0
G1 X173.70 Y75.80 Z0.20 E20.79 F2482.0
G1 X173.20 Y76.80 Z0.20 E20.83 F2549.1
G1 X173.70 Y77.80 Z0.20 E20.86 F2616.2
G1 X173.20 Y78.80 Z0.20 E20.90 F2683.3
G1 X173.70 Y79.80 Z0.20 E20.94 F2750.4
G1 X173.20 Y80.80 Z0.20 E20.98 F2817.4
G1 X173.70 Y81.80 Z0.20 E21.01 F2884.5
G1 X173.20 Y82.80 Z0.20 E21.05 F2951.6
G1 X173.70 Y83.80 Z0.20 E21.09 F3018.7
G1 X173.20 Y84.80 Z0.20 E21.12 F3085.8
G1 X173.70 Y85.80 Z0.20 E21.16 F3152.9
G1 X173.20 Y86.80 Z0.20 E21.20 F3219.9
G1 X173.70 Y87.80 Z0.20 E21.24 F3287.0
G1 X173.20 Y88.80 Z0.20 E21.27 F3354.1
G1 X173.70 Y89.80 Z0.20 E21.31 F3421.2
G1 X173.20 Y90.80 Z0.20 E21.35 F3488.3
G1 X173.70 Y91.80 Z0.20 E21.38 F3555.3
G1 X173.20 Y92.80 Z0.20 E21.42 F3622.4
G1 X173.70 Y93.80 Z0.20 E21.46 F3689.5
G1 X173.20 Y94.80 Z0.20 E21.50 F3756.6
G1 X173.70 Y95.80 Z0.20 E21.53 F3823.7
G1 X173.20 Y96.80 Z0.20 E21.57 F3890.8
G1 X173.70 Y97.80 Z0.20 E21.61 F3957.8
G1 X173.20 Y98.80 Z0.20 E21.64 F4024.9
G1 X173.70 Y99.80 Z0.20 E21.68 F4092.0
G1 X173.20 Y100.80 Z0.20 E21.72 F4159.1
G1 X173.70 Y101.80 Z0.20 E21.76 F4226.2
G1 X173.20 Y102.80 Z0.20 E21.79 F4293.3
G1 X173.70 Y103.80 Z0.20 E21.83 F4360.3
G1 X173.20 Y104.80 Z0.20 E21.87 F4427.4
G1 X173.70 Y105.80 Z0.20 E21.91 F4494.5
G1 X173.20 Y106.80 Z0.20 E21.94 F4561.6
G1 X173.70 Y107.80 Z0.20 E21.98 F4628.7
G1 X173.20 Y108.80 Z0.20 E22.02 F4695.7
G1 X173.70 Y109.80 Z0.20 E22.05 F4762.8
G1 X173.20 Y110.80 Z0.20 E22.09 F4829.9
G1 X173.70 Y111.80 Z0.20 E22.13 F4897.0
G1 X173.20 Y112.80 Z0.20 E22.17 F4964.1
G1 X173.70 Y113.80 Z0.20 E22.20 F5031.2
G1 X173.20 Y114.80 Z0.20 E22.24 F5098.2
G1 X173.70 Y115.80 Z0.20 E22.28 F5165.3
G1 X173.20 Y116.80 Z0.20 E22.31 F5232.4
G1 X173.70 Y117.80 Z0.20 E22.35 F5299.5
G1 X173.20 Y118.80 Z0.20 E22.39 F5366.6
G1 X173.70 Y119.80 Z0.20 E22.43 F5433.6
G1 X173.20 Y120.80 Z0.20 E22.46 F5500.7
G1 X173.70 Y121.80 Z0.20 E22.50 F5567.8
G1 X173.20 Y122.80 Z0.20 E22.54 F5634.9
G1 X173.70 Y123.80 Z0.20 E22.57 F5702.0
G1 X173.20 Y124.80 Z0.20 E22.61 F5769.1
G1 X173.70 Y125.80 Z0.20 E22.65 F5836.1
G1 X173.20 Y126.80 Z0.20 E22.69 F5903.2
G1 X173.70 Y127.80 Z0.20 E22.72 F5970.3
G1 X173.20 Y128.80 Z0.20 E22.76 F6037.4
G1 X173.70 Y129.80 Z0.20 E22.80 F6104.5
G1 X173.20 Y130.80 Z0.20 E22.83 F6171.5
G1 X173.70 Y131.80 Z0.20 E22.87 F6238.6
G1 X173.20 Y132.80 Z0.20 E22.91 F6305.7
G1 X173.70 Y133.80 Z0.20 E22.95 F6372.8
G1 X173.20 Y134.80 Z0.20 E22.98 F6439.9
G1 X173.70 Y135.80 Z0.20 E23.02 F6507.0
G1 X173.20 Y136.80 Z0.20 E23.06 F6574.0
G1 X173.70 Y137.80 Z0.20 E23.10 F6641.1
G1 X173.20 Y138.80 Z0.20 E23.13 F6708.2
G1 X173.70 Y139.80 Z0.20 E23.17 F6775.3
G1 X173.20 Y140.80 Z0.20 E23.21 F6842.4
G1 X173.70 Y141.80 Z0.20 E23.24 F6909.5
G1 X173.20 Y142.80 Z0.20 E23.28 F6976.5
G1 X173.70 Y143.80 Z0.20 E23.32 F7043.6
G1 X173.20 Y144.80 Z0.20 E23.36 F7110.7
G1 X173.70 Y145.80 Z0.20 E23.39 F7177.8
G1 X173.20 Y146.80 Z0.20 E23.43 F7244.9
G1 X173.70 Y147.80 Z0.20 E23.47 F7311.9
G1 X173.20 Y148.80 Z0.20 E23.50 F7379.0
G1 X173.70 Y149.80 Z0.20 E23.54 F7446.1
G1 X173.20 Y150.80 Z0.20 E23.58 F7513.2
G1 X173.70 Y151.80 Z0.20 E23.62 F7580.3
G1 X173.20 Y152.80 Z0.20 E23.65 F7647.4
G1 X173.70 Y153.80 Z0.20 E23.69 F7714.4
G1 X173.20 Y154.80 Z0.20 E23.73 F7781.5
G1 X173.70 Y155.80 Z0.20 E23.76 F7848.6
G1 X173.20 Y156.80 Z0.20 E23.80 F7915.7
G1 X173.70 Y157.80 Z0.20 E23.84 F7982.8
G1 X173.20 Y158.80 Z0.20 E23.88 F8049.8
M201 X500 Y500
G1 X173.20 Y173.20 Z0.20 E24.36

; retract
G1 E19.36
; -------------------------------------------
; FINISH
;
M107 ; Turn off fan
M400 ; Finish moving
M104 S0 ; Turn off hotend
M140 S0 ; Turn off bed
G1 Z30 X0 Y220 F6000 ; Move away from the print
M84 ; Disable motors
G92 E0 ; Reset extruder distance
M501 ; Load settings from EEPROM
