; ### Marlin IS Calibration Zeta/Damping Factor X Pattern ###
; -------------------------------------------
;
; Printer: Ender-3
; Created: Fri Jan 26 2024 16:16:04 GMT+0100 (Central European Standard Time)
;
; Settings Printer:
; Filament Diameter = 1.75 mm
; Nozzle Temperature = 200 °C
; Bed Temperature = 60 °C
; Nozzle Diameter = 0.4 mm
; Layer Height = 0.2 mm
; Fan Speed = 100 %
; Z-axis Offset = 0 mm
; Retraction = 5 mm
;
; Settings Print Bed:
; Bed Size X = 220 mm
; Bed Size Y = 220 mm
;
; Settings Speed:
; Printing Speed = 40 mm/s
; Movement Speed = 100 mm/s
; Retraction Speed = 50 mm/s
; Printing Deceleration = 500 mm/s^2
; Jerk =  pattern default
; Junction Deviation =  pattern default
;
; Settings Pattern:
; Max X Frequency = 60 Hz
; Max Y Frequency = 60 Hz
;
; Settings Advance:
; Bed leveling = 0
; Extrusion Multiplier = 1
;
; prepare printing
;
M501 ; Load settings from EEPROM
M205 S0 T0 ; minimum extruding and travel feed rate
G21 ; Millimeter units
G90 ; Absolute XYZ
G28 ; Home all axes

G1 Z10 F100 ; Z raise
M104 S200 ; Set nozzle temperature (no wait)
M190 S60 ; Set bed temperature (wait)
M109 S200 ; Wait for nozzle temp

G92 E0 ; Reset extruder distance
M900 K0 ; Linear advance off
M106 S255 ; Fan speed
; draw anchor lines
G0 X181.20 Y181.20 Z2.00 E0.00 F6000.0
G0 X181.20 Y181.20 Z0.20 E0.00 F600.0
; unretract
G1 E5.00 F3000.0
G1 X38.80 Y181.20 Z0.20 E9.74 F2400.0
G1 X38.80 Y38.80 Z0.20 E14.47 F2400.0

G1 X43.80 Y38.80 Z0.20 E14.64
M593 X D0.05
M203 X500 Y500 ; maximum feedrates
M204 P10000 ; print acceleration
M201 X10000 Y10000 ; max acceleration
M205 X500.00 Y500.00 ; jerk limits very high
M205 J0.3 ; junction deviation maximum
G1 X44.30 Y39.80 Z0.20 E14.68 F67.1
G1 X43.80 Y40.80 Z0.20 E14.71 F134.2
G1 X44.30 Y41.80 Z0.20 E14.75 F201.2
G1 X43.80 Y42.80 Z0.20 E14.79 F268.3
G1 X44.30 Y43.80 Z0.20 E14.82 F335.4
G1 X43.80 Y44.80 Z0.20 E14.86 F402.5
G1 X44.30 Y45.80 Z0.20 E14.90 F469.6
G1 X43.80 Y46.80 Z0.20 E14.94 F536.7
G1 X44.30 Y47.80 Z0.20 E14.97 F603.7
G1 X43.80 Y48.80 Z0.20 E15.01 F670.8
G1 X44.30 Y49.80 Z0.20 E15.05 F737.9
G1 X43.80 Y50.80 Z0.20 E15.09 F805.0
G1 X44.30 Y51.80 Z0.20 E15.12 F872.1
G1 X43.80 Y52.80 Z0.20 E15.16 F939.1
G1 X44.30 Y53.80 Z0.20 E15.20 F1006.2
G1 X43.80 Y54.80 Z0.20 E15.23 F1073.3
G1 X44.30 Y55.80 Z0.20 E15.27 F1140.4
G1 X43.80 Y56.80 Z0.20 E15.31 F1207.5
G1 X44.30 Y57.80 Z0.20 E15.35 F1274.6
G1 X43.80 Y58.80 Z0.20 E15.38 F1341.6
G1 X44.30 Y59.80 Z0.20 E15.42 F1408.7
G1 X43.80 Y60.80 Z0.20 E15.46 F1475.8
G1 X44.30 Y61.80 Z0.20 E15.49 F1542.9
G1 X43.80 Y62.80 Z0.20 E15.53 F1610.0
G1 X44.30 Y63.80 Z0.20 E15.57 F1677.1
G1 X43.80 Y64.80 Z0.20 E15.61 F1744.1
G1 X44.30 Y65.80 Z0.20 E15.64 F1811.2
G1 X43.80 Y66.80 Z0.20 E15.68 F1878.3
G1 X44.30 Y67.80 Z0.20 E15.72 F1945.4
G1 X43.80 Y68.80 Z0.20 E15.75 F2012.5
G1 X44.30 Y69.80 Z0.20 E15.79 F2079.5
G1 X43.80 Y70.80 Z0.20 E15.83 F2146.6
G1 X44.30 Y71.80 Z0.20 E15.87 F2213.7
G1 X43.80 Y72.80 Z0.20 E15.90 F2280.8
G1 X44.30 Y73.80 Z0.20 E15.94 F2347.9
G1 X43.80 Y74.80 Z0.20 E15.98 F2415.0
G1 X44.30 Y75.80 Z0.20 E16.01 F2482.0
G1 X43.80 Y76.80 Z0.20 E16.05 F2549.1
G1 X44.30 Y77.80 Z0.20 E16.09 F2616.2
G1 X43.80 Y78.80 Z0.20 E16.13 F2683.3
G1 X44.30 Y79.80 Z0.20 E16.16 F2750.4
G1 X43.80 Y80.80 Z0.20 E16.20 F2817.4
G1 X44.30 Y81.80 Z0.20 E16.24 F2884.5
G1 X43.80 Y82.80 Z0.20 E16.27 F2951.6
G1 X44.30 Y83.80 Z0.20 E16.31 F3018.7
G1 X43.80 Y84.80 Z0.20 E16.35 F3085.8
G1 X44.30 Y85.80 Z0.20 E16.39 F3152.9
G1 X43.80 Y86.80 Z0.20 E16.42 F3219.9
G1 X44.30 Y87.80 Z0.20 E16.46 F3287.0
G1 X43.80 Y88.80 Z0.20 E16.50 F3354.1
G1 X44.30 Y89.80 Z0.20 E16.54 F3421.2
G1 X43.80 Y90.80 Z0.20 E16.57 F3488.3
G1 X44.30 Y91.80 Z0.20 E16.61 F3555.3
G1 X43.80 Y92.80 Z0.20 E16.65 F3622.4
G1 X44.30 Y93.80 Z0.20 E16.68 F3689.5
G1 X43.80 Y94.80 Z0.20 E16.72 F3756.6
G1 X44.30 Y95.80 Z0.20 E16.76 F3823.7
G1 X43.80 Y96.80 Z0.20 E16.80 F3890.8
G1 X44.30 Y97.80 Z0.20 E16.83 F3957.8
G1 X43.80 Y98.80 Z0.20 E16.87 F4024.9
G1 X44.30 Y99.80 Z0.20 E16.91 F4092.0
G1 X43.80 Y100.80 Z0.20 E16.94 F4159.1
G1 X44.30 Y101.80 Z0.20 E16.98 F4226.2
G1 X43.80 Y102.80 Z0.20 E17.02 F4293.3
G1 X44.30 Y103.80 Z0.20 E17.06 F4360.3
G1 X43.80 Y104.80 Z0.20 E17.09 F4427.4
G1 X44.30 Y105.80 Z0.20 E17.13 F4494.5
G1 X43.80 Y106.80 Z0.20 E17.17 F4561.6
G1 X44.30 Y107.80 Z0.20 E17.20 F4628.7
G1 X43.80 Y108.80 Z0.20 E17.24 F4695.7
G1 X44.30 Y109.80 Z0.20 E17.28 F4762.8
G1 X43.80 Y110.80 Z0.20 E17.32 F4829.9
G1 X44.30 Y111.80 Z0.20 E17.35 F4897.0
G1 X43.80 Y112.80 Z0.20 E17.39 F4964.1
G1 X44.30 Y113.80 Z0.20 E17.43 F5031.2
G1 X43.80 Y114.80 Z0.20 E17.46 F5098.2
G1 X44.30 Y115.80 Z0.20 E17.50 F5165.3
G1 X43.80 Y116.80 Z0.20 E17.54 F5232.4
G1 X44.30 Y117.80 Z0.20 E17.58 F5299.5
G1 X43.80 Y118.80 Z0.20 E17.61 F5366.6
G1 X44.30 Y119.80 Z0.20 E17.65 F5433.6
G1 X43.80 Y120.80 Z0.20 E17.69 F5500.7
G1 X44.30 Y121.80 Z0.20 E17.73 F5567.8
G1 X43.80 Y122.80 Z0.20 E17.76 F5634.9
G1 X44.30 Y123.80 Z0.20 E17.80 F5702.0
G1 X43.80 Y124.80 Z0.20 E17.84 F5769.1
G1 X44.30 Y125.80 Z0.20 E17.87 F5836.1
G1 X43.80 Y126.80 Z0.20 E17.91 F5903.2
G1 X44.30 Y127.80 Z0.20 E17.95 F5970.3
G1 X43.80 Y128.80 Z0.20 E17.99 F6037.4
G1 X44.30 Y129.80 Z0.20 E18.02 F6104.5
G1 X43.80 Y130.80 Z0.20 E18.06 F6171.5
G1 X44.30 Y131.80 Z0.20 E18.10 F6238.6
G1 X43.80 Y132.80 Z0.20 E18.13 F6305.7
G1 X44.30 Y133.80 Z0.20 E18.17 F6372.8
G1 X43.80 Y134.80 Z0.20 E18.21 F6439.9
G1 X44.30 Y135.80 Z0.20 E18.25 F6507.0
G1 X43.80 Y136.80 Z0.20 E18.28 F6574.0
G1 X44.30 Y137.80 Z0.20 E18.32 F6641.1
G1 X43.80 Y138.80 Z0.20 E18.36 F6708.2
G1 X44.30 Y139.80 Z0.20 E18.39 F6775.3
G1 X43.80 Y140.80 Z0.20 E18.43 F6842.4
G1 X44.30 Y141.80 Z0.20 E18.47 F6909.5
G1 X43.80 Y142.80 Z0.20 E18.51 F6976.5
G1 X44.30 Y143.80 Z0.20 E18.54 F7043.6
G1 X43.80 Y144.80 Z0.20 E18.58 F7110.7
G1 X44.30 Y145.80 Z0.20 E18.62 F7177.8
G1 X43.80 Y146.80 Z0.20 E18.65 F7244.9
G1 X44.30 Y147.80 Z0.20 E18.69 F7311.9
G1 X43.80 Y148.80 Z0.20 E18.73 F7379.0
G1 X44.30 Y149.80 Z0.20 E18.77 F7446.1
G1 X43.80 Y150.80 Z0.20 E18.80 F7513.2
G1 X44.30 Y151.80 Z0.20 E18.84 F7580.3
G1 X43.80 Y152.80 Z0.20 E18.88 F7647.4
G1 X44.30 Y153.80 Z0.20 E18.92 F7714.4
G1 X43.80 Y154.80 Z0.20 E18.95 F7781.5
G1 X44.30 Y155.80 Z0.20 E18.99 F7848.6
G1 X43.80 Y156.80 Z0.20 E19.03 F7915.7
G1 X44.30 Y157.80 Z0.20 E19.06 F7982.8
G1 X43.80 Y158.80 Z0.20 E19.10 F8049.8
M201 X500 Y500
G1 X43.80 Y173.20 Z0.20 E19.58

G0 X48.80 Y173.20 Z0.20 E19.58 F6000.0
M593 X D0.10
G1 X48.80 Y158.80 Z0.20 E20.06 F8049.8
M203 X500 Y500 ; maximum feedrates
M204 P10000 ; print acceleration
M201 X10000 Y10000 ; max acceleration
M205 X500.00 Y500.00 ; jerk limits very high
M205 J0.3 ; junction deviation maximum
G1 X49.30 Y157.80 Z0.20 E20.10 F8049.8
G1 X48.80 Y156.80 Z0.20 E20.13 F7982.8
G1 X49.30 Y155.80 Z0.20 E20.17 F7915.7
G1 X48.80 Y154.80 Z0.20 E20.21 F7848.6
G1 X49.30 Y153.80 Z0.20 E20.24 F7781.5
G1 X48.80 Y152.80 Z0.20 E20.28 F7714.4
G1 X49.30 Y151.80 Z0.20 E20.32 F7647.4
G1 X48.80 Y150.80 Z0.20 E20.36 F7580.3
G1 X49.30 Y149.80 Z0.20 E20.39 F7513.2
G1 X48.80 Y148.80 Z0.20 E20.43 F7446.1
G1 X49.30 Y147.80 Z0.20 E20.47 F7379.0
G1 X48.80 Y146.80 Z0.20 E20.51 F7311.9
G1 X49.30 Y145.80 Z0.20 E20.54 F7244.9
G1 X48.80 Y144.80 Z0.20 E20.58 F7177.8
G1 X49.30 Y143.80 Z0.20 E20.62 F7110.7
G1 X48.80 Y142.80 Z0.20 E20.65 F7043.6
G1 X49.30 Y141.80 Z0.20 E20.69 F6976.5
G1 X48.80 Y140.80 Z0.20 E20.73 F6909.5
G1 X49.30 Y139.80 Z0.20 E20.77 F6842.4
G1 X48.80 Y138.80 Z0.20 E20.80 F6775.3
G1 X49.30 Y137.80 Z0.20 E20.84 F6708.2
G1 X48.80 Y136.80 Z0.20 E20.88 F6641.1
G1 X49.30 Y135.80 Z0.20 E20.91 F6574.0
G1 X48.80 Y134.80 Z0.20 E20.95 F6507.0
G1 X49.30 Y133.80 Z0.20 E20.99 F6439.9
G1 X48.80 Y132.80 Z0.20 E21.03 F6372.8
G1 X49.30 Y131.80 Z0.20 E21.06 F6305.7
G1 X48.80 Y130.80 Z0.20 E21.10 F6238.6
G1 X49.30 Y129.80 Z0.20 E21.14 F6171.5
G1 X48.80 Y128.80 Z0.20 E21.17 F6104.5
G1 X49.30 Y127.80 Z0.20 E21.21 F6037.4
G1 X48.80 Y126.80 Z0.20 E21.25 F5970.3
G1 X49.30 Y125.80 Z0.20 E21.29 F5903.2
G1 X48.80 Y124.80 Z0.20 E21.32 F5836.1
G1 X49.30 Y123.80 Z0.20 E21.36 F5769.1
G1 X48.80 Y122.80 Z0.20 E21.40 F5702.0
G1 X49.30 Y121.80 Z0.20 E21.43 F5634.9
G1 X48.80 Y120.80 Z0.20 E21.47 F5567.8
G1 X49.30 Y119.80 Z0.20 E21.51 F5500.7
G1 X48.80 Y118.80 Z0.20 E21.55 F5433.6
G1 X49.30 Y117.80 Z0.20 E21.58 F5366.6
G1 X48.80 Y116.80 Z0.20 E21.62 F5299.5
G1 X49.30 Y115.80 Z0.20 E21.66 F5232.4
G1 X48.80 Y114.80 Z0.20 E21.70 F5165.3
G1 X49.30 Y113.80 Z0.20 E21.73 F5098.2
G1 X48.80 Y112.80 Z0.20 E21.77 F5031.2
G1 X49.30 Y111.80 Z0.20 E21.81 F4964.1
G1 X48.80 Y110.80 Z0.20 E21.84 F4897.0
G1 X49.30 Y109.80 Z0.20 E21.88 F4829.9
G1 X48.80 Y108.80 Z0.20 E21.92 F4762.8
G1 X49.30 Y107.80 Z0.20 E21.96 F4695.7
G1 X48.80 Y106.80 Z0.20 E21.99 F4628.7
G1 X49.30 Y105.80 Z0.20 E22.03 F4561.6
G1 X48.80 Y104.80 Z0.20 E22.07 F4494.5
G1 X49.30 Y103.80 Z0.20 E22.10 F4427.4
G1 X48.80 Y102.80 Z0.20 E22.14 F4360.3
G1 X49.30 Y101.80 Z0.20 E22.18 F4293.3
G1 X48.80 Y100.80 Z0.20 E22.22 F4226.2
G1 X49.30 Y99.80 Z0.20 E22.25 F4159.1
G1 X48.80 Y98.80 Z0.20 E22.29 F4092.0
G1 X49.30 Y97.80 Z0.20 E22.33 F4024.9
G1 X48.80 Y96.80 Z0.20 E22.36 F3957.8
G1 X49.30 Y95.80 Z0.20 E22.40 F3890.8
G1 X48.80 Y94.80 Z0.20 E22.44 F3823.7
G1 X49.30 Y93.80 Z0.20 E22.48 F3756.6
G1 X48.80 Y92.80 Z0.20 E22.51 F3689.5
G1 X49.30 Y91.80 Z0.20 E22.55 F3622.4
G1 X48.80 Y90.80 Z0.20 E22.59 F3555.3
G1 X49.30 Y89.80 Z0.20 E22.62 F3488.3
G1 X48.80 Y88.80 Z0.20 E22.66 F3421.2
G1 X49.30 Y87.80 Z0.20 E22.70 F3354.1
G1 X48.80 Y86.80 Z0.20 E22.74 F3287.0
G1 X49.30 Y85.80 Z0.20 E22.77 F3219.9
G1 X48.80 Y84.80 Z0.20 E22.81 F3152.9
G1 X49.30 Y83.80 Z0.20 E22.85 F3085.8
G1 X48.80 Y82.80 Z0.20 E22.89 F3018.7
G1 X49.30 Y81.80 Z0.20 E22.92 F2951.6
G1 X48.80 Y80.80 Z0.20 E22.96 F2884.5
G1 X49.30 Y79.80 Z0.20 E23.00 F2817.4
G1 X48.80 Y78.80 Z0.20 E23.03 F2750.4
G1 X49.30 Y77.80 Z0.20 E23.07 F2683.3
G1 X48.80 Y76.80 Z0.20 E23.11 F2616.2
G1 X49.30 Y75.80 Z0.20 E23.15 F2549.1
G1 X48.80 Y74.80 Z0.20 E23.18 F2482.0
G1 X49.30 Y73.80 Z0.20 E23.22 F2415.0
G1 X48.80 Y72.80 Z0.20 E23.26 F2347.9
G1 X49.30 Y71.80 Z0.20 E23.29 F2280.8
G1 X48.80 Y70.80 Z0.20 E23.33 F2213.7
G1 X49.30 Y69.80 Z0.20 E23.37 F2146.6
G1 X48.80 Y68.80 Z0.20 E23.41 F2079.5
G1 X49.30 Y67.80 Z0.20 E23.44 F2012.5
G1 X48.80 Y66.80 Z0.20 E23.48 F1945.4
G1 X49.30 Y65.80 Z0.20 E23.52 F1878.3
G1 X48.80 Y64.80 Z0.20 E23.55 F1811.2
G1 X49.30 Y63.80 Z0.20 E23.59 F1744.1
G1 X48.80 Y62.80 Z0.20 E23.63 F1677.1
G1 X49.30 Y61.80 Z0.20 E23.67 F1610.0
G1 X48.80 Y60.80 Z0.20 E23.70 F1542.9
G1 X49.30 Y59.80 Z0.20 E23.74 F1475.8
G1 X48.80 Y58.80 Z0.20 E23.78 F1408.7
G1 X49.30 Y57.80 Z0.20 E23.81 F1341.6
G1 X48.80 Y56.80 Z0.20 E23.85 F1274.6
G1 X49.30 Y55.80 Z0.20 E23.89 F1207.5
G1 X48.80 Y54.80 Z0.20 E23.93 F1140.4
G1 X49.30 Y53.80 Z0.20 E23.96 F1073.3
G1 X48.80 Y52.80 Z0.20 E24.00 F1006.2
G1 X49.30 Y51.80 Z0.20 E24.04 F939.1
G1 X48.80 Y50.80 Z0.20 E24.08 F872.1
G1 X49.30 Y49.80 Z0.20 E24.11 F805.0
G1 X48.80 Y48.80 Z0.20 E24.15 F737.9
G1 X49.30 Y47.80 Z0.20 E24.19 F670.8
G1 X48.80 Y46.80 Z0.20 E24.22 F603.7
G1 X49.30 Y45.80 Z0.20 E24.26 F536.7
G1 X48.80 Y44.80 Z0.20 E24.30 F469.6
G1 X49.30 Y43.80 Z0.20 E24.34 F402.5
G1 X48.80 Y42.80 Z0.20 E24.37 F335.4
G1 X49.30 Y41.80 Z0.20 E24.41 F268.3
G1 X48.80 Y40.80 Z0.20 E24.45 F201.2
G1 X49.30 Y39.80 Z0.20 E24.48 F134.2
G1 X48.80 Y38.80 Z0.20 E24.52 F67.1
M201 X500 Y500
G0 X53.80 Y38.80 Z0.20 E24.52 F6000.0
M593 X D0.15
M203 X500 Y500 ; maximum feedrates
M204 P10000 ; print acceleration
M201 X10000 Y10000 ; max acceleration
M205 X500.00 Y500.00 ; jerk limits very high
M205 J0.3 ; junction deviation maximum
G1 X54.30 Y39.80 Z0.20 E24.56 F67.1
G1 X53.80 Y40.80 Z0.20 E24.60 F134.2
G1 X54.30 Y41.80 Z0.20 E24.63 F201.2
G1 X53.80 Y42.80 Z0.20 E24.67 F268.3
G1 X54.30 Y43.80 Z0.20 E24.71 F335.4
G1 X53.80 Y44.80 Z0.20 E24.74 F402.5
G1 X54.30 Y45.80 Z0.20 E24.78 F469.6
G1 X53.80 Y46.80 Z0.20 E24.82 F536.7
G1 X54.30 Y47.80 Z0.20 E24.86 F603.7
G1 X53.80 Y48.80 Z0.20 E24.89 F670.8
G1 X54.30 Y49.80 Z0.20 E24.93 F737.9
G1 X53.80 Y50.80 Z0.20 E24.97 F805.0
G1 X54.30 Y51.80 Z0.20 E25.00 F872.1
G1 X53.80 Y52.80 Z0.20 E25.04 F939.1
G1 X54.30 Y53.80 Z0.20 E25.08 F1006.2
G1 X53.80 Y54.80 Z0.20 E25.12 F1073.3
G1 X54.30 Y55.80 Z0.20 E25.15 F1140.4
G1 X53.80 Y56.80 Z0.20 E25.19 F1207.5
G1 X54.30 Y57.80 Z0.20 E25.23 F1274.6
G1 X53.80 Y58.80 Z0.20 E25.27 F1341.6
G1 X54.30 Y59.80 Z0.20 E25.30 F1408.7
G1 X53.80 Y60.80 Z0.20 E25.34 F1475.8
G1 X54.30 Y61.80 Z0.20 E25.38 F1542.9
G1 X53.80 Y62.80 Z0.20 E25.41 F1610.0
G1 X54.30 Y63.80 Z0.20 E25.45 F1677.1
G1 X53.80 Y64.80 Z0.20 E25.49 F1744.1
G1 X54.30 Y65.80 Z0.20 E25.53 F1811.2
G1 X53.80 Y66.80 Z0.20 E25.56 F1878.3
G1 X54.30 Y67.80 Z0.20 E25.60 F1945.4
G1 X53.80 Y68.80 Z0.20 E25.64 F2012.5
G1 X54.30 Y69.80 Z0.20 E25.67 F2079.5
G1 X53.80 Y70.80 Z0.20 E25.71 F2146.6
G1 X54.30 Y71.80 Z0.20 E25.75 F2213.7
G1 X53.80 Y72.80 Z0.20 E25.79 F2280.8
G1 X54.30 Y73.80 Z0.20 E25.82 F2347.9
G1 X53.80 Y74.80 Z0.20 E25.86 F2415.0
G1 X54.30 Y75.80 Z0.20 E25.90 F2482.0
G1 X53.80 Y76.80 Z0.20 E25.93 F2549.1
G1 X54.30 Y77.80 Z0.20 E25.97 F2616.2
G1 X53.80 Y78.80 Z0.20 E26.01 F2683.3
G1 X54.30 Y79.80 Z0.20 E26.05 F2750.4
G1 X53.80 Y80.80 Z0.20 E26.08 F2817.4
G1 X54.30 Y81.80 Z0.20 E26.12 F2884.5
G1 X53.80 Y82.80 Z0.20 E26.16 F2951.6
G1 X54.30 Y83.80 Z0.20 E26.19 F3018.7
G1 X53.80 Y84.80 Z0.20 E26.23 F3085.8
G1 X54.30 Y85.80 Z0.20 E26.27 F3152.9
G1 X53.80 Y86.80 Z0.20 E26.31 F3219.9
G1 X54.30 Y87.80 Z0.20 E26.34 F3287.0
G1 X53.80 Y88.80 Z0.20 E26.38 F3354.1
G1 X54.30 Y89.80 Z0.20 E26.42 F3421.2
G1 X53.80 Y90.80 Z0.20 E26.45 F3488.3
G1 X54.30 Y91.80 Z0.20 E26.49 F3555.3
G1 X53.80 Y92.80 Z0.20 E26.53 F3622.4
G1 X54.30 Y93.80 Z0.20 E26.57 F3689.5
G1 X53.80 Y94.80 Z0.20 E26.60 F3756.6
G1 X54.30 Y95.80 Z0.20 E26.64 F3823.7
G1 X53.80 Y96.80 Z0.20 E26.68 F3890.8
G1 X54.30 Y97.80 Z0.20 E26.72 F3957.8
G1 X53.80 Y98.80 Z0.20 E26.75 F4024.9
G1 X54.30 Y99.80 Z0.20 E26.79 F4092.0
G1 X53.80 Y100.80 Z0.20 E26.83 F4159.1
G1 X54.30 Y101.80 Z0.20 E26.86 F4226.2
G1 X53.80 Y102.80 Z0.20 E26.90 F4293.3
G1 X54.30 Y103.80 Z0.20 E26.94 F4360.3
G1 X53.80 Y104.80 Z0.20 E26.98 F4427.4
G1 X54.30 Y105.80 Z0.20 E27.01 F4494.5
G1 X53.80 Y106.80 Z0.20 E27.05 F4561.6
G1 X54.30 Y107.80 Z0.20 E27.09 F4628.7
G1 X53.80 Y108.80 Z0.20 E27.12 F4695.7
G1 X54.30 Y109.80 Z0.20 E27.16 F4762.8
G1 X53.80 Y110.80 Z0.20 E27.20 F4829.9
G1 X54.30 Y111.80 Z0.20 E27.24 F4897.0
G1 X53.80 Y112.80 Z0.20 E27.27 F4964.1
G1 X54.30 Y113.80 Z0.20 E27.31 F5031.2
G1 X53.80 Y114.80 Z0.20 E27.35 F5098.2
G1 X54.30 Y115.80 Z0.20 E27.38 F5165.3
G1 X53.80 Y116.80 Z0.20 E27.42 F5232.4
G1 X54.30 Y117.80 Z0.20 E27.46 F5299.5
G1 X53.80 Y118.80 Z0.20 E27.50 F5366.6
G1 X54.30 Y119.80 Z0.20 E27.53 F5433.6
G1 X53.80 Y120.80 Z0.20 E27.57 F5500.7
G1 X54.30 Y121.80 Z0.20 E27.61 F5567.8
G1 X53.80 Y122.80 Z0.20 E27.64 F5634.9
G1 X54.30 Y123.80 Z0.20 E27.68 F5702.0
G1 X53.80 Y124.80 Z0.20 E27.72 F5769.1
G1 X54.30 Y125.80 Z0.20 E27.76 F5836.1
G1 X53.80 Y126.80 Z0.20 E27.79 F5903.2
G1 X54.30 Y127.80 Z0.20 E27.83 F5970.3
G1 X53.80 Y128.80 Z0.20 E27.87 F6037.4
G1 X54.30 Y129.80 Z0.20 E27.91 F6104.5
G1 X53.80 Y130.80 Z0.20 E27.94 F6171.5
G1 X54.30 Y131.80 Z0.20 E27.98 F6238.6
G1 X53.80 Y132.80 Z0.20 E28.02 F6305.7
G1 X54.30 Y133.80 Z0.20 E28.05 F6372.8
G1 X53.80 Y134.80 Z0.20 E28.09 F6439.9
G1 X54.30 Y135.80 Z0.20 E28.13 F6507.0
G1 X53.80 Y136.80 Z0.20 E28.17 F6574.0
G1 X54.30 Y137.80 Z0.20 E28.20 F6641.1
G1 X53.80 Y138.80 Z0.20 E28.24 F6708.2
G1 X54.30 Y139.80 Z0.20 E28.28 F6775.3
G1 X53.80 Y140.80 Z0.20 E28.31 F6842.4
G1 X54.30 Y141.80 Z0.20 E28.35 F6909.5
G1 X53.80 Y142.80 Z0.20 E28.39 F6976.5
G1 X54.30 Y143.80 Z0.20 E28.43 F7043.6
G1 X53.80 Y144.80 Z0.20 E28.46 F7110.7
G1 X54.30 Y145.80 Z0.20 E28.50 F7177.8
G1 X53.80 Y146.80 Z0.20 E28.54 F7244.9
G1 X54.30 Y147.80 Z0.20 E28.57 F7311.9
G1 X53.80 Y148.80 Z0.20 E28.61 F7379.0
G1 X54.30 Y149.80 Z0.20 E28.65 F7446.1
G1 X53.80 Y150.80 Z0.20 E28.69 F7513.2
G1 X54.30 Y151.80 Z0.20 E28.72 F7580.3
G1 X53.80 Y152.80 Z0.20 E28.76 F7647.4
G1 X54.30 Y153.80 Z0.20 E28.80 F7714.4
G1 X53.80 Y154.80 Z0.20 E28.83 F7781.5
G1 X54.30 Y155.80 Z0.20 E28.87 F7848.6
G1 X53.80 Y156.80 Z0.20 E28.91 F7915.7
G1 X54.30 Y157.80 Z0.20 E28.95 F7982.8
G1 X53.80 Y158.80 Z0.20 E28.98 F8049.8
M201 X500 Y500
G1 X53.80 Y173.20 Z0.20 E29.46

G0 X58.80 Y173.20 Z0.20 E29.46 F6000.0
M593 X D0.20
G1 X58.80 Y158.80 Z0.20 E29.94 F8049.8
M203 X500 Y500 ; maximum feedrates
M204 P10000 ; print acceleration
M201 X10000 Y10000 ; max acceleration
M205 X500.00 Y500.00 ; jerk limits very high
M205 J0.3 ; junction deviation maximum
G1 X59.30 Y157.80 Z0.20 E29.98 F8049.8
G1 X58.80 Y156.80 Z0.20 E30.02 F7982.8
G1 X59.30 Y155.80 Z0.20 E30.05 F7915.7
G1 X58.80 Y154.80 Z0.20 E30.09 F7848.6
G1 X59.30 Y153.80 Z0.20 E30.13 F7781.5
G1 X58.80 Y152.80 Z0.20 E30.16 F7714.4
G1 X59.30 Y151.80 Z0.20 E30.20 F7647.4
G1 X58.80 Y150.80 Z0.20 E30.24 F7580.3
G1 X59.30 Y149.80 Z0.20 E30.28 F7513.2
G1 X58.80 Y148.80 Z0.20 E30.31 F7446.1
G1 X59.30 Y147.80 Z0.20 E30.35 F7379.0
G1 X58.80 Y146.80 Z0.20 E30.39 F7311.9
G1 X59.30 Y145.80 Z0.20 E30.42 F7244.9
G1 X58.80 Y144.80 Z0.20 E30.46 F7177.8
G1 X59.30 Y143.80 Z0.20 E30.50 F7110.7
G1 X58.80 Y142.80 Z0.20 E30.54 F7043.6
G1 X59.30 Y141.80 Z0.20 E30.57 F6976.5
G1 X58.80 Y140.80 Z0.20 E30.61 F6909.5
G1 X59.30 Y139.80 Z0.20 E30.65 F6842.4
G1 X58.80 Y138.80 Z0.20 E30.69 F6775.3
G1 X59.30 Y137.80 Z0.20 E30.72 F6708.2
G1 X58.80 Y136.80 Z0.20 E30.76 F6641.1
G1 X59.30 Y135.80 Z0.20 E30.80 F6574.0
G1 X58.80 Y134.80 Z0.20 E30.83 F6507.0
G1 X59.30 Y133.80 Z0.20 E30.87 F6439.9
G1 X58.80 Y132.80 Z0.20 E30.91 F6372.8
G1 X59.30 Y131.80 Z0.20 E30.95 F6305.7
G1 X58.80 Y130.80 Z0.20 E30.98 F6238.6
G1 X59.30 Y129.80 Z0.20 E31.02 F6171.5
G1 X58.80 Y128.80 Z0.20 E31.06 F6104.5
G1 X59.30 Y127.80 Z0.20 E31.09 F6037.4
G1 X58.80 Y126.80 Z0.20 E31.13 F5970.3
G1 X59.30 Y125.80 Z0.20 E31.17 F5903.2
G1 X58.80 Y124.80 Z0.20 E31.21 F5836.1
G1 X59.30 Y123.80 Z0.20 E31.24 F5769.1
G1 X58.80 Y122.80 Z0.20 E31.28 F5702.0
G1 X59.30 Y121.80 Z0.20 E31.32 F5634.9
G1 X58.80 Y120.80 Z0.20 E31.35 F5567.8
G1 X59.30 Y119.80 Z0.20 E31.39 F5500.7
G1 X58.80 Y118.80 Z0.20 E31.43 F5433.6
G1 X59.30 Y117.80 Z0.20 E31.47 F5366.6
G1 X58.80 Y116.80 Z0.20 E31.50 F5299.5
G1 X59.30 Y115.80 Z0.20 E31.54 F5232.4
G1 X58.80 Y114.80 Z0.20 E31.58 F5165.3
G1 X59.30 Y113.80 Z0.20 E31.61 F5098.2
G1 X58.80 Y112.80 Z0.20 E31.65 F5031.2
G1 X59.30 Y111.80 Z0.20 E31.69 F4964.1
G1 X58.80 Y110.80 Z0.20 E31.73 F4897.0
G1 X59.30 Y109.80 Z0.20 E31.76 F4829.9
G1 X58.80 Y108.80 Z0.20 E31.80 F4762.8
G1 X59.30 Y107.80 Z0.20 E31.84 F4695.7
G1 X58.80 Y106.80 Z0.20 E31.88 F4628.7
G1 X59.30 Y105.80 Z0.20 E31.91 F4561.6
G1 X58.80 Y104.80 Z0.20 E31.95 F4494.5
G1 X59.30 Y103.80 Z0.20 E31.99 F4427.4
G1 X58.80 Y102.80 Z0.20 E32.02 F4360.3
G1 X59.30 Y101.80 Z0.20 E32.06 F4293.3
G1 X58.80 Y100.80 Z0.20 E32.10 F4226.2
G1 X59.30 Y99.80 Z0.20 E32.14 F4159.1
G1 X58.80 Y98.80 Z0.20 E32.17 F4092.0
G1 X59.30 Y97.80 Z0.20 E32.21 F4024.9
G1 X58.80 Y96.80 Z0.20 E32.25 F3957.8
G1 X59.30 Y95.80 Z0.20 E32.28 F3890.8
G1 X58.80 Y94.80 Z0.20 E32.32 F3823.7
G1 X59.30 Y93.80 Z0.20 E32.36 F3756.6
G1 X58.80 Y92.80 Z0.20 E32.40 F3689.5
G1 X59.30 Y91.80 Z0.20 E32.43 F3622.4
G1 X58.80 Y90.80 Z0.20 E32.47 F3555.3
G1 X59.30 Y89.80 Z0.20 E32.51 F3488.3
G1 X58.80 Y88.80 Z0.20 E32.54 F3421.2
G1 X59.30 Y87.80 Z0.20 E32.58 F3354.1
G1 X58.80 Y86.80 Z0.20 E32.62 F3287.0
G1 X59.30 Y85.80 Z0.20 E32.66 F3219.9
G1 X58.80 Y84.80 Z0.20 E32.69 F3152.9
G1 X59.30 Y83.80 Z0.20 E32.73 F3085.8
G1 X58.80 Y82.80 Z0.20 E32.77 F3018.7
G1 X59.30 Y81.80 Z0.20 E32.80 F2951.6
G1 X58.80 Y80.80 Z0.20 E32.84 F2884.5
G1 X59.30 Y79.80 Z0.20 E32.88 F2817.4
G1 X58.80 Y78.80 Z0.20 E32.92 F2750.4
G1 X59.30 Y77.80 Z0.20 E32.95 F2683.3
G1 X58.80 Y76.80 Z0.20 E32.99 F2616.2
G1 X59.30 Y75.80 Z0.20 E33.03 F2549.1
G1 X58.80 Y74.80 Z0.20 E33.07 F2482.0
G1 X59.30 Y73.80 Z0.20 E33.10 F2415.0
G1 X58.80 Y72.80 Z0.20 E33.14 F2347.9
G1 X59.30 Y71.80 Z0.20 E33.18 F2280.8
G1 X58.80 Y70.80 Z0.20 E33.21 F2213.7
G1 X59.30 Y69.80 Z0.20 E33.25 F2146.6
G1 X58.80 Y68.80 Z0.20 E33.29 F2079.5
G1 X59.30 Y67.80 Z0.20 E33.33 F2012.5
G1 X58.80 Y66.80 Z0.20 E33.36 F1945.4
G1 X59.30 Y65.80 Z0.20 E33.40 F1878.3
G1 X58.80 Y64.80 Z0.20 E33.44 F1811.2
G1 X59.30 Y63.80 Z0.20 E33.47 F1744.1
G1 X58.80 Y62.80 Z0.20 E33.51 F1677.1
G1 X59.30 Y61.80 Z0.20 E33.55 F1610.0
G1 X58.80 Y60.80 Z0.20 E33.59 F1542.9
G1 X59.30 Y59.80 Z0.20 E33.62 F1475.8
G1 X58.80 Y58.80 Z0.20 E33.66 F1408.7
G1 X59.30 Y57.80 Z0.20 E33.70 F1341.6
G1 X58.80 Y56.80 Z0.20 E33.73 F1274.6
G1 X59.30 Y55.80 Z0.20 E33.77 F1207.5
G1 X58.80 Y54.80 Z0.20 E33.81 F1140.4
G1 X59.30 Y53.80 Z0.20 E33.85 F1073.3
G1 X58.80 Y52.80 Z0.20 E33.88 F1006.2
G1 X59.30 Y51.80 Z0.20 E33.92 F939.1
G1 X58.80 Y50.80 Z0.20 E33.96 F872.1
G1 X59.30 Y49.80 Z0.20 E33.99 F805.0
G1 X58.80 Y48.80 Z0.20 E34.03 F737.9
G1 X59.30 Y47.80 Z0.20 E34.07 F670.8
G1 X58.80 Y46.80 Z0.20 E34.11 F603.7
G1 X59.30 Y45.80 Z0.20 E34.14 F536.7
G1 X58.80 Y44.80 Z0.20 E34.18 F469.6
G1 X59.30 Y43.80 Z0.20 E34.22 F402.5
G1 X58.80 Y42.80 Z0.20 E34.26 F335.4
G1 X59.30 Y41.80 Z0.20 E34.29 F268.3
G1 X58.80 Y40.80 Z0.20 E34.33 F201.2
G1 X59.30 Y39.80 Z0.20 E34.37 F134.2
G1 X58.80 Y38.80 Z0.20 E34.40 F67.1
M201 X500 Y500
G0 X63.80 Y38.80 Z0.20 E34.40 F6000.0
M593 X D0.25
M203 X500 Y500 ; maximum feedrates
M204 P10000 ; print acceleration
M201 X10000 Y10000 ; max acceleration
M205 X500.00 Y500.00 ; jerk limits very high
M205 J0.3 ; junction deviation maximum
G1 X64.30 Y39.80 Z0.20 E34.44 F67.1
G1 X63.80 Y40.80 Z0.20 E34.48 F134.2
G1 X64.30 Y41.80 Z0.20 E34.52 F201.2
G1 X63.80 Y42.80 Z0.20 E34.55 F268.3
G1 X64.30 Y43.80 Z0.20 E34.59 F335.4
G1 X63.80 Y44.80 Z0.20 E34.63 F402.5
G1 X64.30 Y45.80 Z0.20 E34.66 F469.6
G1 X63.80 Y46.80 Z0.20 E34.70 F536.7
G1 X64.30 Y47.80 Z0.20 E34.74 F603.7
G1 X63.80 Y48.80 Z0.20 E34.78 F670.8
G1 X64.30 Y49.80 Z0.20 E34.81 F737.9
G1 X63.80 Y50.80 Z0.20 E34.85 F805.0
G1 X64.30 Y51.80 Z0.20 E34.89 F872.1
G1 X63.80 Y52.80 Z0.20 E34.92 F939.1
G1 X64.30 Y53.80 Z0.20 E34.96 F1006.2
G1 X63.80 Y54.80 Z0.20 E35.00 F1073.3
G1 X64.30 Y55.80 Z0.20 E35.04 F1140.4
G1 X63.80 Y56.80 Z0.20 E35.07 F1207.5
G1 X64.30 Y57.80 Z0.20 E35.11 F1274.6
G1 X63.80 Y58.80 Z0.20 E35.15 F1341.6
G1 X64.30 Y59.80 Z0.20 E35.18 F1408.7
G1 X63.80 Y60.80 Z0.20 E35.22 F1475.8
G1 X64.30 Y61.80 Z0.20 E35.26 F1542.9
G1 X63.80 Y62.80 Z0.20 E35.30 F1610.0
G1 X64.30 Y63.80 Z0.20 E35.33 F1677.1
G1 X63.80 Y64.80 Z0.20 E35.37 F1744.1
G1 X64.30 Y65.80 Z0.20 E35.41 F1811.2
G1 X63.80 Y66.80 Z0.20 E35.45 F1878.3
G1 X64.30 Y67.80 Z0.20 E35.48 F1945.4
G1 X63.80 Y68.80 Z0.20 E35.52 F2012.5
G1 X64.30 Y69.80 Z0.20 E35.56 F2079.5
G1 X63.80 Y70.80 Z0.20 E35.59 F2146.6
G1 X64.30 Y71.80 Z0.20 E35.63 F2213.7
G1 X63.80 Y72.80 Z0.20 E35.67 F2280.8
G1 X64.30 Y73.80 Z0.20 E35.71 F2347.9
G1 X63.80 Y74.80 Z0.20 E35.74 F2415.0
G1 X64.30 Y75.80 Z0.20 E35.78 F2482.0
G1 X63.80 Y76.80 Z0.20 E35.82 F2549.1
G1 X64.30 Y77.80 Z0.20 E35.85 F2616.2
G1 X63.80 Y78.80 Z0.20 E35.89 F2683.3
G1 X64.30 Y79.80 Z0.20 E35.93 F2750.4
G1 X63.80 Y80.80 Z0.20 E35.97 F2817.4
G1 X64.30 Y81.80 Z0.20 E36.00 F2884.5
G1 X63.80 Y82.80 Z0.20 E36.04 F2951.6
G1 X64.30 Y83.80 Z0.20 E36.08 F3018.7
G1 X63.80 Y84.80 Z0.20 E36.11 F3085.8
G1 X64.30 Y85.80 Z0.20 E36.15 F3152.9
G1 X63.80 Y86.80 Z0.20 E36.19 F3219.9
G1 X64.30 Y87.80 Z0.20 E36.23 F3287.0
G1 X63.80 Y88.80 Z0.20 E36.26 F3354.1
G1 X64.30 Y89.80 Z0.20 E36.30 F3421.2
G1 X63.80 Y90.80 Z0.20 E36.34 F3488.3
G1 X64.30 Y91.80 Z0.20 E36.37 F3555.3
G1 X63.80 Y92.80 Z0.20 E36.41 F3622.4
G1 X64.30 Y93.80 Z0.20 E36.45 F3689.5
G1 X63.80 Y94.80 Z0.20 E36.49 F3756.6
G1 X64.30 Y95.80 Z0.20 E36.52 F3823.7
G1 X63.80 Y96.80 Z0.20 E36.56 F3890.8
G1 X64.30 Y97.80 Z0.20 E36.60 F3957.8
G1 X63.80 Y98.80 Z0.20 E36.63 F4024.9
G1 X64.30 Y99.80 Z0.20 E36.67 F4092.0
G1 X63.80 Y100.80 Z0.20 E36.71 F4159.1
G1 X64.30 Y101.80 Z0.20 E36.75 F4226.2
G1 X63.80 Y102.80 Z0.20 E36.78 F4293.3
G1 X64.30 Y103.80 Z0.20 E36.82 F4360.3
G1 X63.80 Y104.80 Z0.20 E36.86 F4427.4
G1 X64.30 Y105.80 Z0.20 E36.90 F4494.5
G1 X63.80 Y106.80 Z0.20 E36.93 F4561.6
G1 X64.30 Y107.80 Z0.20 E36.97 F4628.7
G1 X63.80 Y108.80 Z0.20 E37.01 F4695.7
G1 X64.30 Y109.80 Z0.20 E37.04 F4762.8
G1 X63.80 Y110.80 Z0.20 E37.08 F4829.9
G1 X64.30 Y111.80 Z0.20 E37.12 F4897.0
G1 X63.80 Y112.80 Z0.20 E37.16 F4964.1
G1 X64.30 Y113.80 Z0.20 E37.19 F5031.2
G1 X63.80 Y114.80 Z0.20 E37.23 F5098.2
G1 X64.30 Y115.80 Z0.20 E37.27 F5165.3
G1 X63.80 Y116.80 Z0.20 E37.30 F5232.4
G1 X64.30 Y117.80 Z0.20 E37.34 F5299.5
G1 X63.80 Y118.80 Z0.20 E37.38 F5366.6
G1 X64.30 Y119.80 Z0.20 E37.42 F5433.6
G1 X63.80 Y120.80 Z0.20 E37.45 F5500.7
G1 X64.30 Y121.80 Z0.20 E37.49 F5567.8
G1 X63.80 Y122.80 Z0.20 E37.53 F5634.9
G1 X64.30 Y123.80 Z0.20 E37.56 F5702.0
G1 X63.80 Y124.80 Z0.20 E37.60 F5769.1
G1 X64.30 Y125.80 Z0.20 E37.64 F5836.1
G1 X63.80 Y126.80 Z0.20 E37.68 F5903.2
G1 X64.30 Y127.80 Z0.20 E37.71 F5970.3
G1 X63.80 Y128.80 Z0.20 E37.75 F6037.4
G1 X64.30 Y129.80 Z0.20 E37.79 F6104.5
G1 X63.80 Y130.80 Z0.20 E37.82 F6171.5
G1 X64.30 Y131.80 Z0.20 E37.86 F6238.6
G1 X63.80 Y132.80 Z0.20 E37.90 F6305.7
G1 X64.30 Y133.80 Z0.20 E37.94 F6372.8
G1 X63.80 Y134.80 Z0.20 E37.97 F6439.9
G1 X64.30 Y135.80 Z0.20 E38.01 F6507.0
G1 X63.80 Y136.80 Z0.20 E38.05 F6574.0
G1 X64.30 Y137.80 Z0.20 E38.09 F6641.1
G1 X63.80 Y138.80 Z0.20 E38.12 F6708.2
G1 X64.30 Y139.80 Z0.20 E38.16 F6775.3
G1 X63.80 Y140.80 Z0.20 E38.20 F6842.4
G1 X64.30 Y141.80 Z0.20 E38.23 F6909.5
G1 X63.80 Y142.80 Z0.20 E38.27 F6976.5
G1 X64.30 Y143.80 Z0.20 E38.31 F7043.6
G1 X63.80 Y144.80 Z0.20 E38.35 F7110.7
G1 X64.30 Y145.80 Z0.20 E38.38 F7177.8
G1 X63.80 Y146.80 Z0.20 E38.42 F7244.9
G1 X64.30 Y147.80 Z0.20 E38.46 F7311.9
G1 X63.80 Y148.80 Z0.20 E38.49 F7379.0
G1 X64.30 Y149.80 Z0.20 E38.53 F7446.1
G1 X63.80 Y150.80 Z0.20 E38.57 F7513.2
G1 X64.30 Y151.80 Z0.20 E38.61 F7580.3
G1 X63.80 Y152.80 Z0.20 E38.64 F7647.4
G1 X64.30 Y153.80 Z0.20 E38.68 F7714.4
G1 X63.80 Y154.80 Z0.20 E38.72 F7781.5
G1 X64.30 Y155.80 Z0.20 E38.75 F7848.6
G1 X63.80 Y156.80 Z0.20 E38.79 F7915.7
G1 X64.30 Y157.80 Z0.20 E38.83 F7982.8
G1 X63.80 Y158.80 Z0.20 E38.87 F8049.8
M201 X500 Y500
G1 X63.80 Y173.20 Z0.20 E39.35

G0 X68.80 Y173.20 Z0.20 E39.35 F6000.0
M593 X D0.30
G1 X68.80 Y158.80 Z0.20 E39.82 F8049.8
M203 X500 Y500 ; maximum feedrates
M204 P10000 ; print acceleration
M201 X10000 Y10000 ; max acceleration
M205 X500.00 Y500.00 ; jerk limits very high
M205 J0.3 ; junction deviation maximum
G1 X69.30 Y157.80 Z0.20 E39.86 F8049.8
G1 X68.80 Y156.80 Z0.20 E39.90 F7982.8
G1 X69.30 Y155.80 Z0.20 E39.94 F7915.7
G1 X68.80 Y154.80 Z0.20 E39.97 F7848.6
G1 X69.30 Y153.80 Z0.20 E40.01 F7781.5
G1 X68.80 Y152.80 Z0.20 E40.05 F7714.4
G1 X69.30 Y151.80 Z0.20 E40.08 F7647.4
G1 X68.80 Y150.80 Z0.20 E40.12 F7580.3
G1 X69.30 Y149.80 Z0.20 E40.16 F7513.2
G1 X68.80 Y148.80 Z0.20 E40.20 F7446.1
G1 X69.30 Y147.80 Z0.20 E40.23 F7379.0
G1 X68.80 Y146.80 Z0.20 E40.27 F7311.9
G1 X69.30 Y145.80 Z0.20 E40.31 F7244.9
G1 X68.80 Y144.80 Z0.20 E40.34 F7177.8
G1 X69.30 Y143.80 Z0.20 E40.38 F7110.7
G1 X68.80 Y142.80 Z0.20 E40.42 F7043.6
G1 X69.30 Y141.80 Z0.20 E40.46 F6976.5
G1 X68.80 Y140.80 Z0.20 E40.49 F6909.5
G1 X69.30 Y139.80 Z0.20 E40.53 F6842.4
G1 X68.80 Y138.80 Z0.20 E40.57 F6775.3
G1 X69.30 Y137.80 Z0.20 E40.60 F6708.2
G1 X68.80 Y136.80 Z0.20 E40.64 F6641.1
G1 X69.30 Y135.80 Z0.20 E40.68 F6574.0
G1 X68.80 Y134.80 Z0.20 E40.72 F6507.0
G1 X69.30 Y133.80 Z0.20 E40.75 F6439.9
G1 X68.80 Y132.80 Z0.20 E40.79 F6372.8
G1 X69.30 Y131.80 Z0.20 E40.83 F6305.7
G1 X68.80 Y130.80 Z0.20 E40.87 F6238.6
G1 X69.30 Y129.80 Z0.20 E40.90 F6171.5
G1 X68.80 Y128.80 Z0.20 E40.94 F6104.5
G1 X69.30 Y127.80 Z0.20 E40.98 F6037.4
G1 X68.80 Y126.80 Z0.20 E41.01 F5970.3
G1 X69.30 Y125.80 Z0.20 E41.05 F5903.2
G1 X68.80 Y124.80 Z0.20 E41.09 F5836.1
G1 X69.30 Y123.80 Z0.20 E41.13 F5769.1
G1 X68.80 Y122.80 Z0.20 E41.16 F5702.0
G1 X69.30 Y121.80 Z0.20 E41.20 F5634.9
G1 X68.80 Y120.80 Z0.20 E41.24 F5567.8
G1 X69.30 Y119.80 Z0.20 E41.27 F5500.7
G1 X68.80 Y118.80 Z0.20 E41.31 F5433.6
G1 X69.30 Y117.80 Z0.20 E41.35 F5366.6
G1 X68.80 Y116.80 Z0.20 E41.39 F5299.5
G1 X69.30 Y115.80 Z0.20 E41.42 F5232.4
G1 X68.80 Y114.80 Z0.20 E41.46 F5165.3
G1 X69.30 Y113.80 Z0.20 E41.50 F5098.2
G1 X68.80 Y112.80 Z0.20 E41.53 F5031.2
G1 X69.30 Y111.80 Z0.20 E41.57 F4964.1
G1 X68.80 Y110.80 Z0.20 E41.61 F4897.0
G1 X69.30 Y109.80 Z0.20 E41.65 F4829.9
G1 X68.80 Y108.80 Z0.20 E41.68 F4762.8
G1 X69.30 Y107.80 Z0.20 E41.72 F4695.7
G1 X68.80 Y106.80 Z0.20 E41.76 F4628.7
G1 X69.30 Y105.80 Z0.20 E41.79 F4561.6
G1 X68.80 Y104.80 Z0.20 E41.83 F4494.5
G1 X69.30 Y103.80 Z0.20 E41.87 F4427.4
G1 X68.80 Y102.80 Z0.20 E41.91 F4360.3
G1 X69.30 Y101.80 Z0.20 E41.94 F4293.3
G1 X68.80 Y100.80 Z0.20 E41.98 F4226.2
G1 X69.30 Y99.80 Z0.20 E42.02 F4159.1
G1 X68.80 Y98.80 Z0.20 E42.06 F4092.0
G1 X69.30 Y97.80 Z0.20 E42.09 F4024.9
G1 X68.80 Y96.80 Z0.20 E42.13 F3957.8
G1 X69.30 Y95.80 Z0.20 E42.17 F3890.8
G1 X68.80 Y94.80 Z0.20 E42.20 F3823.7
G1 X69.30 Y93.80 Z0.20 E42.24 F3756.6
G1 X68.80 Y92.80 Z0.20 E42.28 F3689.5
G1 X69.30 Y91.80 Z0.20 E42.32 F3622.4
G1 X68.80 Y90.80 Z0.20 E42.35 F3555.3
G1 X69.30 Y89.80 Z0.20 E42.39 F3488.3
G1 X68.80 Y88.80 Z0.20 E42.43 F3421.2
G1 X69.30 Y87.80 Z0.20 E42.46 F3354.1
G1 X68.80 Y86.80 Z0.20 E42.50 F3287.0
G1 X69.30 Y85.80 Z0.20 E42.54 F3219.9
G1 X68.80 Y84.80 Z0.20 E42.58 F3152.9
G1 X69.30 Y83.80 Z0.20 E42.61 F3085.8
G1 X68.80 Y82.80 Z0.20 E42.65 F3018.7
G1 X69.30 Y81.80 Z0.20 E42.69 F2951.6
G1 X68.80 Y80.80 Z0.20 E42.72 F2884.5
G1 X69.30 Y79.80 Z0.20 E42.76 F2817.4
G1 X68.80 Y78.80 Z0.20 E42.80 F2750.4
G1 X69.30 Y77.80 Z0.20 E42.84 F2683.3
G1 X68.80 Y76.80 Z0.20 E42.87 F2616.2
G1 X69.30 Y75.80 Z0.20 E42.91 F2549.1
G1 X68.80 Y74.80 Z0.20 E42.95 F2482.0
G1 X69.30 Y73.80 Z0.20 E42.98 F2415.0
G1 X68.80 Y72.80 Z0.20 E43.02 F2347.9
G1 X69.30 Y71.80 Z0.20 E43.06 F2280.8
G1 X68.80 Y70.80 Z0.20 E43.10 F2213.7
G1 X69.30 Y69.80 Z0.20 E43.13 F2146.6
G1 X68.80 Y68.80 Z0.20 E43.17 F2079.5
G1 X69.30 Y67.80 Z0.20 E43.21 F2012.5
G1 X68.80 Y66.80 Z0.20 E43.25 F1945.4
G1 X69.30 Y65.80 Z0.20 E43.28 F1878.3
G1 X68.80 Y64.80 Z0.20 E43.32 F1811.2
G1 X69.30 Y63.80 Z0.20 E43.36 F1744.1
G1 X68.80 Y62.80 Z0.20 E43.39 F1677.1
G1 X69.30 Y61.80 Z0.20 E43.43 F1610.0
G1 X68.80 Y60.80 Z0.20 E43.47 F1542.9
G1 X69.30 Y59.80 Z0.20 E43.51 F1475.8
G1 X68.80 Y58.80 Z0.20 E43.54 F1408.7
G1 X69.30 Y57.80 Z0.20 E43.58 F1341.6
G1 X68.80 Y56.80 Z0.20 E43.62 F1274.6
G1 X69.30 Y55.80 Z0.20 E43.65 F1207.5
G1 X68.80 Y54.80 Z0.20 E43.69 F1140.4
G1 X69.30 Y53.80 Z0.20 E43.73 F1073.3
G1 X68.80 Y52.80 Z0.20 E43.77 F1006.2
G1 X69.30 Y51.80 Z0.20 E43.80 F939.1
G1 X68.80 Y50.80 Z0.20 E43.84 F872.1
G1 X69.30 Y49.80 Z0.20 E43.88 F805.0
G1 X68.80 Y48.80 Z0.20 E43.91 F737.9
G1 X69.30 Y47.80 Z0.20 E43.95 F670.8
G1 X68.80 Y46.80 Z0.20 E43.99 F603.7
G1 X69.30 Y45.80 Z0.20 E44.03 F536.7
G1 X68.80 Y44.80 Z0.20 E44.06 F469.6
G1 X69.30 Y43.80 Z0.20 E44.10 F402.5
G1 X68.80 Y42.80 Z0.20 E44.14 F335.4
G1 X69.30 Y41.80 Z0.20 E44.17 F268.3
G1 X68.80 Y40.80 Z0.20 E44.21 F201.2
G1 X69.30 Y39.80 Z0.20 E44.25 F134.2
G1 X68.80 Y38.80 Z0.20 E44.29 F67.1
M201 X500 Y500
G0 X73.80 Y38.80 Z0.20 E44.29 F6000.0
M593 X D0.35
M203 X500 Y500 ; maximum feedrates
M204 P10000 ; print acceleration
M201 X10000 Y10000 ; max acceleration
M205 X500.00 Y500.00 ; jerk limits very high
M205 J0.3 ; junction deviation maximum
G1 X74.30 Y39.80 Z0.20 E44.32 F67.1
G1 X73.80 Y40.80 Z0.20 E44.36 F134.2
G1 X74.30 Y41.80 Z0.20 E44.40 F201.2
G1 X73.80 Y42.80 Z0.20 E44.44 F268.3
G1 X74.30 Y43.80 Z0.20 E44.47 F335.4
G1 X73.80 Y44.80 Z0.20 E44.51 F402.5
G1 X74.30 Y45.80 Z0.20 E44.55 F469.6
G1 X73.80 Y46.80 Z0.20 E44.58 F536.7
G1 X74.30 Y47.80 Z0.20 E44.62 F603.7
G1 X73.80 Y48.80 Z0.20 E44.66 F670.8
G1 X74.30 Y49.80 Z0.20 E44.70 F737.9
G1 X73.80 Y50.80 Z0.20 E44.73 F805.0
G1 X74.30 Y51.80 Z0.20 E44.77 F872.1
G1 X73.80 Y52.80 Z0.20 E44.81 F939.1
G1 X74.30 Y53.80 Z0.20 E44.84 F1006.2
G1 X73.80 Y54.80 Z0.20 E44.88 F1073.3
G1 X74.30 Y55.80 Z0.20 E44.92 F1140.4
G1 X73.80 Y56.80 Z0.20 E44.96 F1207.5
G1 X74.30 Y57.80 Z0.20 E44.99 F1274.6
G1 X73.80 Y58.80 Z0.20 E45.03 F1341.6
G1 X74.30 Y59.80 Z0.20 E45.07 F1408.7
G1 X73.80 Y60.80 Z0.20 E45.10 F1475.8
G1 X74.30 Y61.80 Z0.20 E45.14 F1542.9
G1 X73.80 Y62.80 Z0.20 E45.18 F1610.0
G1 X74.30 Y63.80 Z0.20 E45.22 F1677.1
G1 X73.80 Y64.80 Z0.20 E45.25 F1744.1
G1 X74.30 Y65.80 Z0.20 E45.29 F1811.2
G1 X73.80 Y66.80 Z0.20 E45.33 F1878.3
G1 X74.30 Y67.80 Z0.20 E45.36 F1945.4
G1 X73.80 Y68.80 Z0.20 E45.40 F2012.5
G1 X74.30 Y69.80 Z0.20 E45.44 F2079.5
G1 X73.80 Y70.80 Z0.20 E45.48 F2146.6
G1 X74.30 Y71.80 Z0.20 E45.51 F2213.7
G1 X73.80 Y72.80 Z0.20 E45.55 F2280.8
G1 X74.30 Y73.80 Z0.20 E45.59 F2347.9
G1 X73.80 Y74.80 Z0.20 E45.63 F2415.0
G1 X74.30 Y75.80 Z0.20 E45.66 F2482.0
G1 X73.80 Y76.80 Z0.20 E45.70 F2549.1
G1 X74.30 Y77.80 Z0.20 E45.74 F2616.2
G1 X73.80 Y78.80 Z0.20 E45.77 F2683.3
G1 X74.30 Y79.80 Z0.20 E45.81 F2750.4
G1 X73.80 Y80.80 Z0.20 E45.85 F2817.4
G1 X74.30 Y81.80 Z0.20 E45.89 F2884.5
G1 X73.80 Y82.80 Z0.20 E45.92 F2951.6
G1 X74.30 Y83.80 Z0.20 E45.96 F3018.7
G1 X73.80 Y84.80 Z0.20 E46.00 F3085.8
G1 X74.30 Y85.80 Z0.20 E46.03 F3152.9
G1 X73.80 Y86.80 Z0.20 E46.07 F3219.9
G1 X74.30 Y87.80 Z0.20 E46.11 F3287.0
G1 X73.80 Y88.80 Z0.20 E46.15 F3354.1
G1 X74.30 Y89.80 Z0.20 E46.18 F3421.2
G1 X73.80 Y90.80 Z0.20 E46.22 F3488.3
G1 X74.30 Y91.80 Z0.20 E46.26 F3555.3
G1 X73.80 Y92.80 Z0.20 E46.29 F3622.4
G1 X74.30 Y93.80 Z0.20 E46.33 F3689.5
G1 X73.80 Y94.80 Z0.20 E46.37 F3756.6
G1 X74.30 Y95.80 Z0.20 E46.41 F3823.7
G1 X73.80 Y96.80 Z0.20 E46.44 F3890.8
G1 X74.30 Y97.80 Z0.20 E46.48 F3957.8
G1 X73.80 Y98.80 Z0.20 E46.52 F4024.9
G1 X74.30 Y99.80 Z0.20 E46.55 F4092.0
G1 X73.80 Y100.80 Z0.20 E46.59 F4159.1
G1 X74.30 Y101.80 Z0.20 E46.63 F4226.2
G1 X73.80 Y102.80 Z0.20 E46.67 F4293.3
G1 X74.30 Y103.80 Z0.20 E46.70 F4360.3
G1 X73.80 Y104.80 Z0.20 E46.74 F4427.4
G1 X74.30 Y105.80 Z0.20 E46.78 F4494.5
G1 X73.80 Y106.80 Z0.20 E46.82 F4561.6
G1 X74.30 Y107.80 Z0.20 E46.85 F4628.7
G1 X73.80 Y108.80 Z0.20 E46.89 F4695.7
G1 X74.30 Y109.80 Z0.20 E46.93 F4762.8
G1 X73.80 Y110.80 Z0.20 E46.96 F4829.9
G1 X74.30 Y111.80 Z0.20 E47.00 F4897.0
G1 X73.80 Y112.80 Z0.20 E47.04 F4964.1
G1 X74.30 Y113.80 Z0.20 E47.08 F5031.2
G1 X73.80 Y114.80 Z0.20 E47.11 F5098.2
G1 X74.30 Y115.80 Z0.20 E47.15 F5165.3
G1 X73.80 Y116.80 Z0.20 E47.19 F5232.4
G1 X74.30 Y117.80 Z0.20 E47.22 F5299.5
G1 X73.80 Y118.80 Z0.20 E47.26 F5366.6
G1 X74.30 Y119.80 Z0.20 E47.30 F5433.6
G1 X73.80 Y120.80 Z0.20 E47.34 F5500.7
G1 X74.30 Y121.80 Z0.20 E47.37 F5567.8
G1 X73.80 Y122.80 Z0.20 E47.41 F5634.9
G1 X74.30 Y123.80 Z0.20 E47.45 F5702.0
G1 X73.80 Y124.80 Z0.20 E47.48 F5769.1
G1 X74.30 Y125.80 Z0.20 E47.52 F5836.1
G1 X73.80 Y126.80 Z0.20 E47.56 F5903.2
G1 X74.30 Y127.80 Z0.20 E47.60 F5970.3
G1 X73.80 Y128.80 Z0.20 E47.63 F6037.4
G1 X74.30 Y129.80 Z0.20 E47.67 F6104.5
G1 X73.80 Y130.80 Z0.20 E47.71 F6171.5
G1 X74.30 Y131.80 Z0.20 E47.74 F6238.6
G1 X73.80 Y132.80 Z0.20 E47.78 F6305.7
G1 X74.30 Y133.80 Z0.20 E47.82 F6372.8
G1 X73.80 Y134.80 Z0.20 E47.86 F6439.9
G1 X74.30 Y135.80 Z0.20 E47.89 F6507.0
G1 X73.80 Y136.80 Z0.20 E47.93 F6574.0
G1 X74.30 Y137.80 Z0.20 E47.97 F6641.1
G1 X73.80 Y138.80 Z0.20 E48.00 F6708.2
G1 X74.30 Y139.80 Z0.20 E48.04 F6775.3
G1 X73.80 Y140.80 Z0.20 E48.08 F6842.4
G1 X74.30 Y141.80 Z0.20 E48.12 F6909.5
G1 X73.80 Y142.80 Z0.20 E48.15 F6976.5
G1 X74.30 Y143.80 Z0.20 E48.19 F7043.6
G1 X73.80 Y144.80 Z0.20 E48.23 F7110.7
G1 X74.30 Y145.80 Z0.20 E48.27 F7177.8
G1 X73.80 Y146.80 Z0.20 E48.30 F7244.9
G1 X74.30 Y147.80 Z0.20 E48.34 F7311.9
G1 X73.80 Y148.80 Z0.20 E48.38 F7379.0
G1 X74.30 Y149.80 Z0.20 E48.41 F7446.1
G1 X73.80 Y150.80 Z0.20 E48.45 F7513.2
G1 X74.30 Y151.80 Z0.20 E48.49 F7580.3
G1 X73.80 Y152.80 Z0.20 E48.53 F7647.4
G1 X74.30 Y153.80 Z0.20 E48.56 F7714.4
G1 X73.80 Y154.80 Z0.20 E48.60 F7781.5
G1 X74.30 Y155.80 Z0.20 E48.64 F7848.6
G1 X73.80 Y156.80 Z0.20 E48.67 F7915.7
G1 X74.30 Y157.80 Z0.20 E48.71 F7982.8
G1 X73.80 Y158.80 Z0.20 E48.75 F8049.8
M201 X500 Y500
G1 X73.80 Y173.20 Z0.20 E49.23

G0 X78.80 Y173.20 Z0.20 E49.23 F6000.0
M593 X D0.40
G1 X78.80 Y158.80 Z0.20 E49.71 F8049.8
M203 X500 Y500 ; maximum feedrates
M204 P10000 ; print acceleration
M201 X10000 Y10000 ; max acceleration
M205 X500.00 Y500.00 ; jerk limits very high
M205 J0.3 ; junction deviation maximum
G1 X79.30 Y157.80 Z0.20 E49.74 F8049.8
G1 X78.80 Y156.80 Z0.20 E49.78 F7982.8
G1 X79.30 Y155.80 Z0.20 E49.82 F7915.7
G1 X78.80 Y154.80 Z0.20 E49.86 F7848.6
G1 X79.30 Y153.80 Z0.20 E49.89 F7781.5
G1 X78.80 Y152.80 Z0.20 E49.93 F7714.4
G1 X79.30 Y151.80 Z0.20 E49.97 F7647.4
G1 X78.80 Y150.80 Z0.20 E50.00 F7580.3
G1 X79.30 Y149.80 Z0.20 E50.04 F7513.2
G1 X78.80 Y148.80 Z0.20 E50.08 F7446.1
G1 X79.30 Y147.80 Z0.20 E50.12 F7379.0
G1 X78.80 Y146.80 Z0.20 E50.15 F7311.9
G1 X79.30 Y145.80 Z0.20 E50.19 F7244.9
G1 X78.80 Y144.80 Z0.20 E50.23 F7177.8
G1 X79.30 Y143.80 Z0.20 E50.26 F7110.7
G1 X78.80 Y142.80 Z0.20 E50.30 F7043.6
G1 X79.30 Y141.80 Z0.20 E50.34 F6976.5
G1 X78.80 Y140.80 Z0.20 E50.38 F6909.5
G1 X79.30 Y139.80 Z0.20 E50.41 F6842.4
G1 X78.80 Y138.80 Z0.20 E50.45 F6775.3
G1 X79.30 Y137.80 Z0.20 E50.49 F6708.2
G1 X78.80 Y136.80 Z0.20 E50.52 F6641.1
G1 X79.30 Y135.80 Z0.20 E50.56 F6574.0
G1 X78.80 Y134.80 Z0.20 E50.60 F6507.0
G1 X79.30 Y133.80 Z0.20 E50.64 F6439.9
G1 X78.80 Y132.80 Z0.20 E50.67 F6372.8
G1 X79.30 Y131.80 Z0.20 E50.71 F6305.7
G1 X78.80 Y130.80 Z0.20 E50.75 F6238.6
G1 X79.30 Y129.80 Z0.20 E50.78 F6171.5
G1 X78.80 Y128.80 Z0.20 E50.82 F6104.5
G1 X79.30 Y127.80 Z0.20 E50.86 F6037.4
G1 X78.80 Y126.80 Z0.20 E50.90 F5970.3
G1 X79.30 Y125.80 Z0.20 E50.93 F5903.2
G1 X78.80 Y124.80 Z0.20 E50.97 F5836.1
G1 X79.30 Y123.80 Z0.20 E51.01 F5769.1
G1 X78.80 Y122.80 Z0.20 E51.05 F5702.0
G1 X79.30 Y121.80 Z0.20 E51.08 F5634.9
G1 X78.80 Y120.80 Z0.20 E51.12 F5567.8
G1 X79.30 Y119.80 Z0.20 E51.16 F5500.7
G1 X78.80 Y118.80 Z0.20 E51.19 F5433.6
G1 X79.30 Y117.80 Z0.20 E51.23 F5366.6
G1 X78.80 Y116.80 Z0.20 E51.27 F5299.5
G1 X79.30 Y115.80 Z0.20 E51.31 F5232.4
G1 X78.80 Y114.80 Z0.20 E51.34 F5165.3
G1 X79.30 Y113.80 Z0.20 E51.38 F5098.2
G1 X78.80 Y112.80 Z0.20 E51.42 F5031.2
G1 X79.30 Y111.80 Z0.20 E51.45 F4964.1
G1 X78.80 Y110.80 Z0.20 E51.49 F4897.0
G1 X79.30 Y109.80 Z0.20 E51.53 F4829.9
G1 X78.80 Y108.80 Z0.20 E51.57 F4762.8
G1 X79.30 Y107.80 Z0.20 E51.60 F4695.7
G1 X78.80 Y106.80 Z0.20 E51.64 F4628.7
G1 X79.30 Y105.80 Z0.20 E51.68 F4561.6
G1 X78.80 Y104.80 Z0.20 E51.71 F4494.5
G1 X79.30 Y103.80 Z0.20 E51.75 F4427.4
G1 X78.80 Y102.80 Z0.20 E51.79 F4360.3
G1 X79.30 Y101.80 Z0.20 E51.83 F4293.3
G1 X78.80 Y100.80 Z0.20 E51.86 F4226.2
G1 X79.30 Y99.80 Z0.20 E51.90 F4159.1
G1 X78.80 Y98.80 Z0.20 E51.94 F4092.0
G1 X79.30 Y97.80 Z0.20 E51.97 F4024.9
G1 X78.80 Y96.80 Z0.20 E52.01 F3957.8
G1 X79.30 Y95.80 Z0.20 E52.05 F3890.8
G1 X78.80 Y94.80 Z0.20 E52.09 F3823.7
G1 X79.30 Y93.80 Z0.20 E52.12 F3756.6
G1 X78.80 Y92.80 Z0.20 E52.16 F3689.5
G1 X79.30 Y91.80 Z0.20 E52.20 F3622.4
G1 X78.80 Y90.80 Z0.20 E52.24 F3555.3
G1 X79.30 Y89.80 Z0.20 E52.27 F3488.3
G1 X78.80 Y88.80 Z0.20 E52.31 F3421.2
G1 X79.30 Y87.80 Z0.20 E52.35 F3354.1
G1 X78.80 Y86.80 Z0.20 E52.38 F3287.0
G1 X79.30 Y85.80 Z0.20 E52.42 F3219.9
G1 X78.80 Y84.80 Z0.20 E52.46 F3152.9
G1 X79.30 Y83.80 Z0.20 E52.50 F3085.8
G1 X78.80 Y82.80 Z0.20 E52.53 F3018.7
G1 X79.30 Y81.80 Z0.20 E52.57 F2951.6
G1 X78.80 Y80.80 Z0.20 E52.61 F2884.5
G1 X79.30 Y79.80 Z0.20 E52.64 F2817.4
G1 X78.80 Y78.80 Z0.20 E52.68 F2750.4
G1 X79.30 Y77.80 Z0.20 E52.72 F2683.3
G1 X78.80 Y76.80 Z0.20 E52.76 F2616.2
G1 X79.30 Y75.80 Z0.20 E52.79 F2549.1
G1 X78.80 Y74.80 Z0.20 E52.83 F2482.0
G1 X79.30 Y73.80 Z0.20 E52.87 F2415.0
G1 X78.80 Y72.80 Z0.20 E52.90 F2347.9
G1 X79.30 Y71.80 Z0.20 E52.94 F2280.8
G1 X78.80 Y70.80 Z0.20 E52.98 F2213.7
G1 X79.30 Y69.80 Z0.20 E53.02 F2146.6
G1 X78.80 Y68.80 Z0.20 E53.05 F2079.5
G1 X79.30 Y67.80 Z0.20 E53.09 F2012.5
G1 X78.80 Y66.80 Z0.20 E53.13 F1945.4
G1 X79.30 Y65.80 Z0.20 E53.16 F1878.3
G1 X78.80 Y64.80 Z0.20 E53.20 F1811.2
G1 X79.30 Y63.80 Z0.20 E53.24 F1744.1
G1 X78.80 Y62.80 Z0.20 E53.28 F1677.1
G1 X79.30 Y61.80 Z0.20 E53.31 F1610.0
G1 X78.80 Y60.80 Z0.20 E53.35 F1542.9
G1 X79.30 Y59.80 Z0.20 E53.39 F1475.8
G1 X78.80 Y58.80 Z0.20 E53.43 F1408.7
G1 X79.30 Y57.80 Z0.20 E53.46 F1341.6
G1 X78.80 Y56.80 Z0.20 E53.50 F1274.6
G1 X79.30 Y55.80 Z0.20 E53.54 F1207.5
G1 X78.80 Y54.80 Z0.20 E53.57 F1140.4
G1 X79.30 Y53.80 Z0.20 E53.61 F1073.3
G1 X78.80 Y52.80 Z0.20 E53.65 F1006.2
G1 X79.30 Y51.80 Z0.20 E53.69 F939.1
G1 X78.80 Y50.80 Z0.20 E53.72 F872.1
G1 X79.30 Y49.80 Z0.20 E53.76 F805.0
G1 X78.80 Y48.80 Z0.20 E53.80 F737.9
G1 X79.30 Y47.80 Z0.20 E53.83 F670.8
G1 X78.80 Y46.80 Z0.20 E53.87 F603.7
G1 X79.30 Y45.80 Z0.20 E53.91 F536.7
G1 X78.80 Y44.80 Z0.20 E53.95 F469.6
G1 X79.30 Y43.80 Z0.20 E53.98 F402.5
G1 X78.80 Y42.80 Z0.20 E54.02 F335.4
G1 X79.30 Y41.80 Z0.20 E54.06 F268.3
G1 X78.80 Y40.80 Z0.20 E54.09 F201.2
G1 X79.30 Y39.80 Z0.20 E54.13 F134.2
G1 X78.80 Y38.80 Z0.20 E54.17 F67.1
M201 X500 Y500
G0 X83.80 Y38.80 Z0.20 E54.17 F6000.0
M593 X D0.45
M203 X500 Y500 ; maximum feedrates
M204 P10000 ; print acceleration
M201 X10000 Y10000 ; max acceleration
M205 X500.00 Y500.00 ; jerk limits very high
M205 J0.3 ; junction deviation maximum
G1 X84.30 Y39.80 Z0.20 E54.21 F67.1
G1 X83.80 Y40.80 Z0.20 E54.24 F134.2
G1 X84.30 Y41.80 Z0.20 E54.28 F201.2
G1 X83.80 Y42.80 Z0.20 E54.32 F268.3
G1 X84.30 Y43.80 Z0.20 E54.35 F335.4
G1 X83.80 Y44.80 Z0.20 E54.39 F402.5
G1 X84.30 Y45.80 Z0.20 E54.43 F469.6
G1 X83.80 Y46.80 Z0.20 E54.47 F536.7
G1 X84.30 Y47.80 Z0.20 E54.50 F603.7
G1 X83.80 Y48.80 Z0.20 E54.54 F670.8
G1 X84.30 Y49.80 Z0.20 E54.58 F737.9
G1 X83.80 Y50.80 Z0.20 E54.62 F805.0
G1 X84.30 Y51.80 Z0.20 E54.65 F872.1
G1 X83.80 Y52.80 Z0.20 E54.69 F939.1
G1 X84.30 Y53.80 Z0.20 E54.73 F1006.2
G1 X83.80 Y54.80 Z0.20 E54.76 F1073.3
G1 X84.30 Y55.80 Z0.20 E54.80 F1140.4
G1 X83.80 Y56.80 Z0.20 E54.84 F1207.5
G1 X84.30 Y57.80 Z0.20 E54.88 F1274.6
G1 X83.80 Y58.80 Z0.20 E54.91 F1341.6
G1 X84.30 Y59.80 Z0.20 E54.95 F1408.7
G1 X83.80 Y60.80 Z0.20 E54.99 F1475.8
G1 X84.30 Y61.80 Z0.20 E55.02 F1542.9
G1 X83.80 Y62.80 Z0.20 E55.06 F1610.0
G1 X84.30 Y63.80 Z0.20 E55.10 F1677.1
G1 X83.80 Y64.80 Z0.20 E55.14 F1744.1
G1 X84.30 Y65.80 Z0.20 E55.17 F1811.2
G1 X83.80 Y66.80 Z0.20 E55.21 F1878.3
G1 X84.30 Y67.80 Z0.20 E55.25 F1945.4
G1 X83.80 Y68.80 Z0.20 E55.28 F2012.5
G1 X84.30 Y69.80 Z0.20 E55.32 F2079.5
G1 X83.80 Y70.80 Z0.20 E55.36 F2146.6
G1 X84.30 Y71.80 Z0.20 E55.40 F2213.7
G1 X83.80 Y72.80 Z0.20 E55.43 F2280.8
G1 X84.30 Y73.80 Z0.20 E55.47 F2347.9
G1 X83.80 Y74.80 Z0.20 E55.51 F2415.0
G1 X84.30 Y75.80 Z0.20 E55.54 F2482.0
G1 X83.80 Y76.80 Z0.20 E55.58 F2549.1
G1 X84.30 Y77.80 Z0.20 E55.62 F2616.2
G1 X83.80 Y78.80 Z0.20 E55.66 F2683.3
G1 X84.30 Y79.80 Z0.20 E55.69 F2750.4
G1 X83.80 Y80.80 Z0.20 E55.73 F2817.4
G1 X84.30 Y81.80 Z0.20 E55.77 F2884.5
G1 X83.80 Y82.80 Z0.20 E55.81 F2951.6
G1 X84.30 Y83.80 Z0.20 E55.84 F3018.7
G1 X83.80 Y84.80 Z0.20 E55.88 F3085.8
G1 X84.30 Y85.80 Z0.20 E55.92 F3152.9
G1 X83.80 Y86.80 Z0.20 E55.95 F3219.9
G1 X84.30 Y87.80 Z0.20 E55.99 F3287.0
G1 X83.80 Y88.80 Z0.20 E56.03 F3354.1
G1 X84.30 Y89.80 Z0.20 E56.07 F3421.2
G1 X83.80 Y90.80 Z0.20 E56.10 F3488.3
G1 X84.30 Y91.80 Z0.20 E56.14 F3555.3
G1 X83.80 Y92.80 Z0.20 E56.18 F3622.4
G1 X84.30 Y93.80 Z0.20 E56.21 F3689.5
G1 X83.80 Y94.80 Z0.20 E56.25 F3756.6
G1 X84.30 Y95.80 Z0.20 E56.29 F3823.7
G1 X83.80 Y96.80 Z0.20 E56.33 F3890.8
G1 X84.30 Y97.80 Z0.20 E56.36 F3957.8
G1 X83.80 Y98.80 Z0.20 E56.40 F4024.9
G1 X84.30 Y99.80 Z0.20 E56.44 F4092.0
G1 X83.80 Y100.80 Z0.20 E56.47 F4159.1
G1 X84.30 Y101.80 Z0.20 E56.51 F4226.2
G1 X83.80 Y102.80 Z0.20 E56.55 F4293.3
G1 X84.30 Y103.80 Z0.20 E56.59 F4360.3
G1 X83.80 Y104.80 Z0.20 E56.62 F4427.4
G1 X84.30 Y105.80 Z0.20 E56.66 F4494.5
G1 X83.80 Y106.80 Z0.20 E56.70 F4561.6
G1 X84.30 Y107.80 Z0.20 E56.73 F4628.7
G1 X83.80 Y108.80 Z0.20 E56.77 F4695.7
G1 X84.30 Y109.80 Z0.20 E56.81 F4762.8
G1 X83.80 Y110.80 Z0.20 E56.85 F4829.9
G1 X84.30 Y111.80 Z0.20 E56.88 F4897.0
G1 X83.80 Y112.80 Z0.20 E56.92 F4964.1
G1 X84.30 Y113.80 Z0.20 E56.96 F5031.2
G1 X83.80 Y114.80 Z0.20 E57.00 F5098.2
G1 X84.30 Y115.80 Z0.20 E57.03 F5165.3
G1 X83.80 Y116.80 Z0.20 E57.07 F5232.4
G1 X84.30 Y117.80 Z0.20 E57.11 F5299.5
G1 X83.80 Y118.80 Z0.20 E57.14 F5366.6
G1 X84.30 Y119.80 Z0.20 E57.18 F5433.6
G1 X83.80 Y120.80 Z0.20 E57.22 F5500.7
G1 X84.30 Y121.80 Z0.20 E57.26 F5567.8
G1 X83.80 Y122.80 Z0.20 E57.29 F5634.9
G1 X84.30 Y123.80 Z0.20 E57.33 F5702.0
G1 X83.80 Y124.80 Z0.20 E57.37 F5769.1
G1 X84.30 Y125.80 Z0.20 E57.40 F5836.1
G1 X83.80 Y126.80 Z0.20 E57.44 F5903.2
G1 X84.30 Y127.80 Z0.20 E57.48 F5970.3
G1 X83.80 Y128.80 Z0.20 E57.52 F6037.4
G1 X84.30 Y129.80 Z0.20 E57.55 F6104.5
G1 X83.80 Y130.80 Z0.20 E57.59 F6171.5
G1 X84.30 Y131.80 Z0.20 E57.63 F6238.6
G1 X83.80 Y132.80 Z0.20 E57.66 F6305.7
G1 X84.30 Y133.80 Z0.20 E57.70 F6372.8
G1 X83.80 Y134.80 Z0.20 E57.74 F6439.9
G1 X84.30 Y135.80 Z0.20 E57.78 F6507.0
G1 X83.80 Y136.80 Z0.20 E57.81 F6574.0
G1 X84.30 Y137.80 Z0.20 E57.85 F6641.1
G1 X83.80 Y138.80 Z0.20 E57.89 F6708.2
G1 X84.30 Y139.80 Z0.20 E57.92 F6775.3
G1 X83.80 Y140.80 Z0.20 E57.96 F6842.4
G1 X84.30 Y141.80 Z0.20 E58.00 F6909.5
G1 X83.80 Y142.80 Z0.20 E58.04 F6976.5
G1 X84.30 Y143.80 Z0.20 E58.07 F7043.6
G1 X83.80 Y144.80 Z0.20 E58.11 F7110.7
G1 X84.30 Y145.80 Z0.20 E58.15 F7177.8
G1 X83.80 Y146.80 Z0.20 E58.18 F7244.9
G1 X84.30 Y147.80 Z0.20 E58.22 F7311.9
G1 X83.80 Y148.80 Z0.20 E58.26 F7379.0
G1 X84.30 Y149.80 Z0.20 E58.30 F7446.1
G1 X83.80 Y150.80 Z0.20 E58.33 F7513.2
G1 X84.30 Y151.80 Z0.20 E58.37 F7580.3
G1 X83.80 Y152.80 Z0.20 E58.41 F7647.4
G1 X84.30 Y153.80 Z0.20 E58.45 F7714.4
G1 X83.80 Y154.80 Z0.20 E58.48 F7781.5
G1 X84.30 Y155.80 Z0.20 E58.52 F7848.6
G1 X83.80 Y156.80 Z0.20 E58.56 F7915.7
G1 X84.30 Y157.80 Z0.20 E58.59 F7982.8
G1 X83.80 Y158.80 Z0.20 E58.63 F8049.8
M201 X500 Y500
G1 X83.80 Y173.20 Z0.20 E59.11

G0 X88.80 Y173.20 Z0.20 E59.11 F6000.0
M593 X D0.50
G1 X88.80 Y158.80 Z0.20 E59.59 F8049.8
M203 X500 Y500 ; maximum feedrates
M204 P10000 ; print acceleration
M201 X10000 Y10000 ; max acceleration
M205 X500.00 Y500.00 ; jerk limits very high
M205 J0.3 ; junction deviation maximum
G1 X89.30 Y157.80 Z0.20 E59.63 F8049.8
G1 X88.80 Y156.80 Z0.20 E59.66 F7982.8
G1 X89.30 Y155.80 Z0.20 E59.70 F7915.7
G1 X88.80 Y154.80 Z0.20 E59.74 F7848.6
G1 X89.30 Y153.80 Z0.20 E59.78 F7781.5
G1 X88.80 Y152.80 Z0.20 E59.81 F7714.4
G1 X89.30 Y151.80 Z0.20 E59.85 F7647.4
G1 X88.80 Y150.80 Z0.20 E59.89 F7580.3
G1 X89.30 Y149.80 Z0.20 E59.92 F7513.2
G1 X88.80 Y148.80 Z0.20 E59.96 F7446.1
G1 X89.30 Y147.80 Z0.20 E60.00 F7379.0
G1 X88.80 Y146.80 Z0.20 E60.04 F7311.9
G1 X89.30 Y145.80 Z0.20 E60.07 F7244.9
G1 X88.80 Y144.80 Z0.20 E60.11 F7177.8
G1 X89.30 Y143.80 Z0.20 E60.15 F7110.7
G1 X88.80 Y142.80 Z0.20 E60.18 F7043.6
G1 X89.30 Y141.80 Z0.20 E60.22 F6976.5
G1 X88.80 Y140.80 Z0.20 E60.26 F6909.5
G1 X89.30 Y139.80 Z0.20 E60.30 F6842.4
G1 X88.80 Y138.80 Z0.20 E60.33 F6775.3
G1 X89.30 Y137.80 Z0.20 E60.37 F6708.2
G1 X88.80 Y136.80 Z0.20 E60.41 F6641.1
G1 X89.30 Y135.80 Z0.20 E60.44 F6574.0
G1 X88.80 Y134.80 Z0.20 E60.48 F6507.0
G1 X89.30 Y133.80 Z0.20 E60.52 F6439.9
G1 X88.80 Y132.80 Z0.20 E60.56 F6372.8
G1 X89.30 Y131.80 Z0.20 E60.59 F6305.7
G1 X88.80 Y130.80 Z0.20 E60.63 F6238.6
G1 X89.30 Y129.80 Z0.20 E60.67 F6171.5
G1 X88.80 Y128.80 Z0.20 E60.70 F6104.5
G1 X89.30 Y127.80 Z0.20 E60.74 F6037.4
G1 X88.80 Y126.80 Z0.20 E60.78 F5970.3
G1 X89.30 Y125.80 Z0.20 E60.82 F5903.2
G1 X88.80 Y124.80 Z0.20 E60.85 F5836.1
G1 X89.30 Y123.80 Z0.20 E60.89 F5769.1
G1 X88.80 Y122.80 Z0.20 E60.93 F5702.0
G1 X89.30 Y121.80 Z0.20 E60.96 F5634.9
G1 X88.80 Y120.80 Z0.20 E61.00 F5567.8
G1 X89.30 Y119.80 Z0.20 E61.04 F5500.7
G1 X88.80 Y118.80 Z0.20 E61.08 F5433.6
G1 X89.30 Y117.80 Z0.20 E61.11 F5366.6
G1 X88.80 Y116.80 Z0.20 E61.15 F5299.5
G1 X89.30 Y115.80 Z0.20 E61.19 F5232.4
G1 X88.80 Y114.80 Z0.20 E61.23 F5165.3
G1 X89.30 Y113.80 Z0.20 E61.26 F5098.2
G1 X88.80 Y112.80 Z0.20 E61.30 F5031.2
G1 X89.30 Y111.80 Z0.20 E61.34 F4964.1
G1 X88.80 Y110.80 Z0.20 E61.37 F4897.0
G1 X89.30 Y109.80 Z0.20 E61.41 F4829.9
G1 X88.80 Y108.80 Z0.20 E61.45 F4762.8
G1 X89.30 Y107.80 Z0.20 E61.49 F4695.7
G1 X88.80 Y106.80 Z0.20 E61.52 F4628.7
G1 X89.30 Y105.80 Z0.20 E61.56 F4561.6
G1 X88.80 Y104.80 Z0.20 E61.60 F4494.5
G1 X89.30 Y103.80 Z0.20 E61.63 F4427.4
G1 X88.80 Y102.80 Z0.20 E61.67 F4360.3
G1 X89.30 Y101.80 Z0.20 E61.71 F4293.3
G1 X88.80 Y100.80 Z0.20 E61.75 F4226.2
G1 X89.30 Y99.80 Z0.20 E61.78 F4159.1
G1 X88.80 Y98.80 Z0.20 E61.82 F4092.0
G1 X89.30 Y97.80 Z0.20 E61.86 F4024.9
G1 X88.80 Y96.80 Z0.20 E61.89 F3957.8
G1 X89.30 Y95.80 Z0.20 E61.93 F3890.8
G1 X88.80 Y94.80 Z0.20 E61.97 F3823.7
G1 X89.30 Y93.80 Z0.20 E62.01 F3756.6
G1 X88.80 Y92.80 Z0.20 E62.04 F3689.5
G1 X89.30 Y91.80 Z0.20 E62.08 F3622.4
G1 X88.80 Y90.80 Z0.20 E62.12 F3555.3
G1 X89.30 Y89.80 Z0.20 E62.15 F3488.3
G1 X88.80 Y88.80 Z0.20 E62.19 F3421.2
G1 X89.30 Y87.80 Z0.20 E62.23 F3354.1
G1 X88.80 Y86.80 Z0.20 E62.27 F3287.0
G1 X89.30 Y85.80 Z0.20 E62.30 F3219.9
G1 X88.80 Y84.80 Z0.20 E62.34 F3152.9
G1 X89.30 Y83.80 Z0.20 E62.38 F3085.8
G1 X88.80 Y82.80 Z0.20 E62.42 F3018.7
G1 X89.30 Y81.80 Z0.20 E62.45 F2951.6
G1 X88.80 Y80.80 Z0.20 E62.49 F2884.5
G1 X89.30 Y79.80 Z0.20 E62.53 F2817.4
G1 X88.80 Y78.80 Z0.20 E62.56 F2750.4
G1 X89.30 Y77.80 Z0.20 E62.60 F2683.3
G1 X88.80 Y76.80 Z0.20 E62.64 F2616.2
G1 X89.30 Y75.80 Z0.20 E62.68 F2549.1
G1 X88.80 Y74.80 Z0.20 E62.71 F2482.0
G1 X89.30 Y73.80 Z0.20 E62.75 F2415.0
G1 X88.80 Y72.80 Z0.20 E62.79 F2347.9
G1 X89.30 Y71.80 Z0.20 E62.82 F2280.8
G1 X88.80 Y70.80 Z0.20 E62.86 F2213.7
G1 X89.30 Y69.80 Z0.20 E62.90 F2146.6
G1 X88.80 Y68.80 Z0.20 E62.94 F2079.5
G1 X89.30 Y67.80 Z0.20 E62.97 F2012.5
G1 X88.80 Y66.80 Z0.20 E63.01 F1945.4
G1 X89.30 Y65.80 Z0.20 E63.05 F1878.3
G1 X88.80 Y64.80 Z0.20 E63.08 F1811.2
G1 X89.30 Y63.80 Z0.20 E63.12 F1744.1
G1 X88.80 Y62.80 Z0.20 E63.16 F1677.1
G1 X89.30 Y61.80 Z0.20 E63.20 F1610.0
G1 X88.80 Y60.80 Z0.20 E63.23 F1542.9
G1 X89.30 Y59.80 Z0.20 E63.27 F1475.8
G1 X88.80 Y58.80 Z0.20 E63.31 F1408.7
G1 X89.30 Y57.80 Z0.20 E63.34 F1341.6
G1 X88.80 Y56.80 Z0.20 E63.38 F1274.6
G1 X89.30 Y55.80 Z0.20 E63.42 F1207.5
G1 X88.80 Y54.80 Z0.20 E63.46 F1140.4
G1 X89.30 Y53.80 Z0.20 E63.49 F1073.3
G1 X88.80 Y52.80 Z0.20 E63.53 F1006.2
G1 X89.30 Y51.80 Z0.20 E63.57 F939.1
G1 X88.80 Y50.80 Z0.20 E63.61 F872.1
G1 X89.30 Y49.80 Z0.20 E63.64 F805.0
G1 X88.80 Y48.80 Z0.20 E63.68 F737.9
G1 X89.30 Y47.80 Z0.20 E63.72 F670.8
G1 X88.80 Y46.80 Z0.20 E63.75 F603.7
G1 X89.30 Y45.80 Z0.20 E63.79 F536.7
G1 X88.80 Y44.80 Z0.20 E63.83 F469.6
G1 X89.30 Y43.80 Z0.20 E63.87 F402.5
G1 X88.80 Y42.80 Z0.20 E63.90 F335.4
G1 X89.30 Y41.80 Z0.20 E63.94 F268.3
G1 X88.80 Y40.80 Z0.20 E63.98 F201.2
G1 X89.30 Y39.80 Z0.20 E64.01 F134.2
G1 X88.80 Y38.80 Z0.20 E64.05 F67.1
M201 X500 Y500
G0 X93.80 Y38.80 Z0.20 E64.05 F6000.0
M593 X D0.55
M203 X500 Y500 ; maximum feedrates
M204 P10000 ; print acceleration
M201 X10000 Y10000 ; max acceleration
M205 X500.00 Y500.00 ; jerk limits very high
M205 J0.3 ; junction deviation maximum
G1 X94.30 Y39.80 Z0.20 E64.09 F67.1
G1 X93.80 Y40.80 Z0.20 E64.13 F134.2
G1 X94.30 Y41.80 Z0.20 E64.16 F201.2
G1 X93.80 Y42.80 Z0.20 E64.20 F268.3
G1 X94.30 Y43.80 Z0.20 E64.24 F335.4
G1 X93.80 Y44.80 Z0.20 E64.27 F402.5
G1 X94.30 Y45.80 Z0.20 E64.31 F469.6
G1 X93.80 Y46.80 Z0.20 E64.35 F536.7
G1 X94.30 Y47.80 Z0.20 E64.39 F603.7
G1 X93.80 Y48.80 Z0.20 E64.42 F670.8
G1 X94.30 Y49.80 Z0.20 E64.46 F737.9
G1 X93.80 Y50.80 Z0.20 E64.50 F805.0
G1 X94.30 Y51.80 Z0.20 E64.53 F872.1
G1 X93.80 Y52.80 Z0.20 E64.57 F939.1
G1 X94.30 Y53.80 Z0.20 E64.61 F1006.2
G1 X93.80 Y54.80 Z0.20 E64.65 F1073.3
G1 X94.30 Y55.80 Z0.20 E64.68 F1140.4
G1 X93.80 Y56.80 Z0.20 E64.72 F1207.5
G1 X94.30 Y57.80 Z0.20 E64.76 F1274.6
G1 X93.80 Y58.80 Z0.20 E64.80 F1341.6
G1 X94.30 Y59.80 Z0.20 E64.83 F1408.7
G1 X93.80 Y60.80 Z0.20 E64.87 F1475.8
G1 X94.30 Y61.80 Z0.20 E64.91 F1542.9
G1 X93.80 Y62.80 Z0.20 E64.94 F1610.0
G1 X94.30 Y63.80 Z0.20 E64.98 F1677.1
G1 X93.80 Y64.80 Z0.20 E65.02 F1744.1
G1 X94.30 Y65.80 Z0.20 E65.06 F1811.2
G1 X93.80 Y66.80 Z0.20 E65.09 F1878.3
G1 X94.30 Y67.80 Z0.20 E65.13 F1945.4
G1 X93.80 Y68.80 Z0.20 E65.17 F2012.5
G1 X94.30 Y69.80 Z0.20 E65.20 F2079.5
G1 X93.80 Y70.80 Z0.20 E65.24 F2146.6
G1 X94.30 Y71.80 Z0.20 E65.28 F2213.7
G1 X93.80 Y72.80 Z0.20 E65.32 F2280.8
G1 X94.30 Y73.80 Z0.20 E65.35 F2347.9
G1 X93.80 Y74.80 Z0.20 E65.39 F2415.0
G1 X94.30 Y75.80 Z0.20 E65.43 F2482.0
G1 X93.80 Y76.80 Z0.20 E65.46 F2549.1
G1 X94.30 Y77.80 Z0.20 E65.50 F2616.2
G1 X93.80 Y78.80 Z0.20 E65.54 F2683.3
G1 X94.30 Y79.80 Z0.20 E65.58 F2750.4
G1 X93.80 Y80.80 Z0.20 E65.61 F2817.4
G1 X94.30 Y81.80 Z0.20 E65.65 F2884.5
G1 X93.80 Y82.80 Z0.20 E65.69 F2951.6
G1 X94.30 Y83.80 Z0.20 E65.72 F3018.7
G1 X93.80 Y84.80 Z0.20 E65.76 F3085.8
G1 X94.30 Y85.80 Z0.20 E65.80 F3152.9
G1 X93.80 Y86.80 Z0.20 E65.84 F3219.9
G1 X94.30 Y87.80 Z0.20 E65.87 F3287.0
G1 X93.80 Y88.80 Z0.20 E65.91 F3354.1
G1 X94.30 Y89.80 Z0.20 E65.95 F3421.2
G1 X93.80 Y90.80 Z0.20 E65.99 F3488.3
G1 X94.30 Y91.80 Z0.20 E66.02 F3555.3
G1 X93.80 Y92.80 Z0.20 E66.06 F3622.4
G1 X94.30 Y93.80 Z0.20 E66.10 F3689.5
G1 X93.80 Y94.80 Z0.20 E66.13 F3756.6
G1 X94.30 Y95.80 Z0.20 E66.17 F3823.7
G1 X93.80 Y96.80 Z0.20 E66.21 F3890.8
G1 X94.30 Y97.80 Z0.20 E66.25 F3957.8
G1 X93.80 Y98.80 Z0.20 E66.28 F4024.9
G1 X94.30 Y99.80 Z0.20 E66.32 F4092.0
G1 X93.80 Y100.80 Z0.20 E66.36 F4159.1
G1 X94.30 Y101.80 Z0.20 E66.39 F4226.2
G1 X93.80 Y102.80 Z0.20 E66.43 F4293.3
G1 X94.30 Y103.80 Z0.20 E66.47 F4360.3
G1 X93.80 Y104.80 Z0.20 E66.51 F4427.4
G1 X94.30 Y105.80 Z0.20 E66.54 F4494.5
G1 X93.80 Y106.80 Z0.20 E66.58 F4561.6
G1 X94.30 Y107.80 Z0.20 E66.62 F4628.7
G1 X93.80 Y108.80 Z0.20 E66.65 F4695.7
G1 X94.30 Y109.80 Z0.20 E66.69 F4762.8
G1 X93.80 Y110.80 Z0.20 E66.73 F4829.9
G1 X94.30 Y111.80 Z0.20 E66.77 F4897.0
G1 X93.80 Y112.80 Z0.20 E66.80 F4964.1
G1 X94.30 Y113.80 Z0.20 E66.84 F5031.2
G1 X93.80 Y114.80 Z0.20 E66.88 F5098.2
G1 X94.30 Y115.80 Z0.20 E66.91 F5165.3
G1 X93.80 Y116.80 Z0.20 E66.95 F5232.4
G1 X94.30 Y117.80 Z0.20 E66.99 F5299.5
G1 X93.80 Y118.80 Z0.20 E67.03 F5366.6
G1 X94.30 Y119.80 Z0.20 E67.06 F5433.6
G1 X93.80 Y120.80 Z0.20 E67.10 F5500.7
G1 X94.30 Y121.80 Z0.20 E67.14 F5567.8
G1 X93.80 Y122.80 Z0.20 E67.18 F5634.9
G1 X94.30 Y123.80 Z0.20 E67.21 F5702.0
G1 X93.80 Y124.80 Z0.20 E67.25 F5769.1
G1 X94.30 Y125.80 Z0.20 E67.29 F5836.1
G1 X93.80 Y126.80 Z0.20 E67.32 F5903.2
G1 X94.30 Y127.80 Z0.20 E67.36 F5970.3
G1 X93.80 Y128.80 Z0.20 E67.40 F6037.4
G1 X94.30 Y129.80 Z0.20 E67.44 F6104.5
G1 X93.80 Y130.80 Z0.20 E67.47 F6171.5
G1 X94.30 Y131.80 Z0.20 E67.51 F6238.6
G1 X93.80 Y132.80 Z0.20 E67.55 F6305.7
G1 X94.30 Y133.80 Z0.20 E67.58 F6372.8
G1 X93.80 Y134.80 Z0.20 E67.62 F6439.9
G1 X94.30 Y135.80 Z0.20 E67.66 F6507.0
G1 X93.80 Y136.80 Z0.20 E67.70 F6574.0
G1 X94.30 Y137.80 Z0.20 E67.73 F6641.1
G1 X93.80 Y138.80 Z0.20 E67.77 F6708.2
G1 X94.30 Y139.80 Z0.20 E67.81 F6775.3
G1 X93.80 Y140.80 Z0.20 E67.84 F6842.4
G1 X94.30 Y141.80 Z0.20 E67.88 F6909.5
G1 X93.80 Y142.80 Z0.20 E67.92 F6976.5
G1 X94.30 Y143.80 Z0.20 E67.96 F7043.6
G1 X93.80 Y144.80 Z0.20 E67.99 F7110.7
G1 X94.30 Y145.80 Z0.20 E68.03 F7177.8
G1 X93.80 Y146.80 Z0.20 E68.07 F7244.9
G1 X94.30 Y147.80 Z0.20 E68.10 F7311.9
G1 X93.80 Y148.80 Z0.20 E68.14 F7379.0
G1 X94.30 Y149.80 Z0.20 E68.18 F7446.1
G1 X93.80 Y150.80 Z0.20 E68.22 F7513.2
G1 X94.30 Y151.80 Z0.20 E68.25 F7580.3
G1 X93.80 Y152.80 Z0.20 E68.29 F7647.4
G1 X94.30 Y153.80 Z0.20 E68.33 F7714.4
G1 X93.80 Y154.80 Z0.20 E68.36 F7781.5
G1 X94.30 Y155.80 Z0.20 E68.40 F7848.6
G1 X93.80 Y156.80 Z0.20 E68.44 F7915.7
G1 X94.30 Y157.80 Z0.20 E68.48 F7982.8
G1 X93.80 Y158.80 Z0.20 E68.51 F8049.8
M201 X500 Y500
G1 X93.80 Y173.20 Z0.20 E68.99

G0 X98.80 Y173.20 Z0.20 E68.99 F6000.0
M593 X D0.60
G1 X98.80 Y158.80 Z0.20 E69.47 F8049.8
M203 X500 Y500 ; maximum feedrates
M204 P10000 ; print acceleration
M201 X10000 Y10000 ; max acceleration
M205 X500.00 Y500.00 ; jerk limits very high
M205 J0.3 ; junction deviation maximum
G1 X99.30 Y157.80 Z0.20 E69.51 F8049.8
G1 X98.80 Y156.80 Z0.20 E69.55 F7982.8
G1 X99.30 Y155.80 Z0.20 E69.58 F7915.7
G1 X98.80 Y154.80 Z0.20 E69.62 F7848.6
G1 X99.30 Y153.80 Z0.20 E69.66 F7781.5
G1 X98.80 Y152.80 Z0.20 E69.69 F7714.4
G1 X99.30 Y151.80 Z0.20 E69.73 F7647.4
G1 X98.80 Y150.80 Z0.20 E69.77 F7580.3
G1 X99.30 Y149.80 Z0.20 E69.81 F7513.2
G1 X98.80 Y148.80 Z0.20 E69.84 F7446.1
G1 X99.30 Y147.80 Z0.20 E69.88 F7379.0
G1 X98.80 Y146.80 Z0.20 E69.92 F7311.9
G1 X99.30 Y145.80 Z0.20 E69.96 F7244.9
G1 X98.80 Y144.80 Z0.20 E69.99 F7177.8
G1 X99.30 Y143.80 Z0.20 E70.03 F7110.7
G1 X98.80 Y142.80 Z0.20 E70.07 F7043.6
G1 X99.30 Y141.80 Z0.20 E70.10 F6976.5
G1 X98.80 Y140.80 Z0.20 E70.14 F6909.5
G1 X99.30 Y139.80 Z0.20 E70.18 F6842.4
G1 X98.80 Y138.80 Z0.20 E70.22 F6775.3
G1 X99.30 Y137.80 Z0.20 E70.25 F6708.2
G1 X98.80 Y136.80 Z0.20 E70.29 F6641.1
G1 X99.30 Y135.80 Z0.20 E70.33 F6574.0
G1 X98.80 Y134.80 Z0.20 E70.36 F6507.0
G1 X99.30 Y133.80 Z0.20 E70.40 F6439.9
G1 X98.80 Y132.80 Z0.20 E70.44 F6372.8
G1 X99.30 Y131.80 Z0.20 E70.48 F6305.7
G1 X98.80 Y130.80 Z0.20 E70.51 F6238.6
G1 X99.30 Y129.80 Z0.20 E70.55 F6171.5
G1 X98.80 Y128.80 Z0.20 E70.59 F6104.5
G1 X99.30 Y127.80 Z0.20 E70.62 F6037.4
G1 X98.80 Y126.80 Z0.20 E70.66 F5970.3
G1 X99.30 Y125.80 Z0.20 E70.70 F5903.2
G1 X98.80 Y124.80 Z0.20 E70.74 F5836.1
G1 X99.30 Y123.80 Z0.20 E70.77 F5769.1
G1 X98.80 Y122.80 Z0.20 E70.81 F5702.0
G1 X99.30 Y121.80 Z0.20 E70.85 F5634.9
G1 X98.80 Y120.80 Z0.20 E70.88 F5567.8
G1 X99.30 Y119.80 Z0.20 E70.92 F5500.7
G1 X98.80 Y118.80 Z0.20 E70.96 F5433.6
G1 X99.30 Y117.80 Z0.20 E71.00 F5366.6
G1 X98.80 Y116.80 Z0.20 E71.03 F5299.5
G1 X99.30 Y115.80 Z0.20 E71.07 F5232.4
G1 X98.80 Y114.80 Z0.20 E71.11 F5165.3
G1 X99.30 Y113.80 Z0.20 E71.14 F5098.2
G1 X98.80 Y112.80 Z0.20 E71.18 F5031.2
G1 X99.30 Y111.80 Z0.20 E71.22 F4964.1
G1 X98.80 Y110.80 Z0.20 E71.26 F4897.0
G1 X99.30 Y109.80 Z0.20 E71.29 F4829.9
G1 X98.80 Y108.80 Z0.20 E71.33 F4762.8
G1 X99.30 Y107.80 Z0.20 E71.37 F4695.7
G1 X98.80 Y106.80 Z0.20 E71.41 F4628.7
G1 X99.30 Y105.80 Z0.20 E71.44 F4561.6
G1 X98.80 Y104.80 Z0.20 E71.48 F4494.5
G1 X99.30 Y103.80 Z0.20 E71.52 F4427.4
G1 X98.80 Y102.80 Z0.20 E71.55 F4360.3
G1 X99.30 Y101.80 Z0.20 E71.59 F4293.3
G1 X98.80 Y100.80 Z0.20 E71.63 F4226.2
G1 X99.30 Y99.80 Z0.20 E71.67 F4159.1
G1 X98.80 Y98.80 Z0.20 E71.70 F4092.0
G1 X99.30 Y97.80 Z0.20 E71.74 F4024.9
G1 X98.80 Y96.80 Z0.20 E71.78 F3957.8
G1 X99.30 Y95.80 Z0.20 E71.81 F3890.8
G1 X98.80 Y94.80 Z0.20 E71.85 F3823.7
G1 X99.30 Y93.80 Z0.20 E71.89 F3756.6
G1 X98.80 Y92.80 Z0.20 E71.93 F3689.5
G1 X99.30 Y91.80 Z0.20 E71.96 F3622.4
G1 X98.80 Y90.80 Z0.20 E72.00 F3555.3
G1 X99.30 Y89.80 Z0.20 E72.04 F3488.3
G1 X98.80 Y88.80 Z0.20 E72.07 F3421.2
G1 X99.30 Y87.80 Z0.20 E72.11 F3354.1
G1 X98.80 Y86.80 Z0.20 E72.15 F3287.0
G1 X99.30 Y85.80 Z0.20 E72.19 F3219.9
G1 X98.80 Y84.80 Z0.20 E72.22 F3152.9
G1 X99.30 Y83.80 Z0.20 E72.26 F3085.8
G1 X98.80 Y82.80 Z0.20 E72.30 F3018.7
G1 X99.30 Y81.80 Z0.20 E72.33 F2951.6
G1 X98.80 Y80.80 Z0.20 E72.37 F2884.5
G1 X99.30 Y79.80 Z0.20 E72.41 F2817.4
G1 X98.80 Y78.80 Z0.20 E72.45 F2750.4
G1 X99.30 Y77.80 Z0.20 E72.48 F2683.3
G1 X98.80 Y76.80 Z0.20 E72.52 F2616.2
G1 X99.30 Y75.80 Z0.20 E72.56 F2549.1
G1 X98.80 Y74.80 Z0.20 E72.60 F2482.0
G1 X99.30 Y73.80 Z0.20 E72.63 F2415.0
G1 X98.80 Y72.80 Z0.20 E72.67 F2347.9
G1 X99.30 Y71.80 Z0.20 E72.71 F2280.8
G1 X98.80 Y70.80 Z0.20 E72.74 F2213.7
G1 X99.30 Y69.80 Z0.20 E72.78 F2146.6
G1 X98.80 Y68.80 Z0.20 E72.82 F2079.5
G1 X99.30 Y67.80 Z0.20 E72.86 F2012.5
G1 X98.80 Y66.80 Z0.20 E72.89 F1945.4
G1 X99.30 Y65.80 Z0.20 E72.93 F1878.3
G1 X98.80 Y64.80 Z0.20 E72.97 F1811.2
G1 X99.30 Y63.80 Z0.20 E73.00 F1744.1
G1 X98.80 Y62.80 Z0.20 E73.04 F1677.1
G1 X99.30 Y61.80 Z0.20 E73.08 F1610.0
G1 X98.80 Y60.80 Z0.20 E73.12 F1542.9
G1 X99.30 Y59.80 Z0.20 E73.15 F1475.8
G1 X98.80 Y58.80 Z0.20 E73.19 F1408.7
G1 X99.30 Y57.80 Z0.20 E73.23 F1341.6
G1 X98.80 Y56.80 Z0.20 E73.26 F1274.6
G1 X99.30 Y55.80 Z0.20 E73.30 F1207.5
G1 X98.80 Y54.80 Z0.20 E73.34 F1140.4
G1 X99.30 Y53.80 Z0.20 E73.38 F1073.3
G1 X98.80 Y52.80 Z0.20 E73.41 F1006.2
G1 X99.30 Y51.80 Z0.20 E73.45 F939.1
G1 X98.80 Y50.80 Z0.20 E73.49 F872.1
G1 X99.30 Y49.80 Z0.20 E73.52 F805.0
G1 X98.80 Y48.80 Z0.20 E73.56 F737.9
G1 X99.30 Y47.80 Z0.20 E73.60 F670.8
G1 X98.80 Y46.80 Z0.20 E73.64 F603.7
G1 X99.30 Y45.80 Z0.20 E73.67 F536.7
G1 X98.80 Y44.80 Z0.20 E73.71 F469.6
G1 X99.30 Y43.80 Z0.20 E73.75 F402.5
G1 X98.80 Y42.80 Z0.20 E73.79 F335.4
G1 X99.30 Y41.80 Z0.20 E73.82 F268.3
G1 X98.80 Y40.80 Z0.20 E73.86 F201.2
G1 X99.30 Y39.80 Z0.20 E73.90 F134.2
G1 X98.80 Y38.80 Z0.20 E73.93 F67.1
M201 X500 Y500
G0 X103.80 Y38.80 Z0.20 E73.93 F6000.0
M593 X D0.65
M203 X500 Y500 ; maximum feedrates
M204 P10000 ; print acceleration
M201 X10000 Y10000 ; max acceleration
M205 X500.00 Y500.00 ; jerk limits very high
M205 J0.3 ; junction deviation maximum
G1 X104.30 Y39.80 Z0.20 E73.97 F67.1
G1 X103.80 Y40.80 Z0.20 E74.01 F134.2
G1 X104.30 Y41.80 Z0.20 E74.05 F201.2
G1 X103.80 Y42.80 Z0.20 E74.08 F268.3
G1 X104.30 Y43.80 Z0.20 E74.12 F335.4
G1 X103.80 Y44.80 Z0.20 E74.16 F402.5
G1 X104.30 Y45.80 Z0.20 E74.19 F469.6
G1 X103.80 Y46.80 Z0.20 E74.23 F536.7
G1 X104.30 Y47.80 Z0.20 E74.27 F603.7
G1 X103.80 Y48.80 Z0.20 E74.31 F670.8
G1 X104.30 Y49.80 Z0.20 E74.34 F737.9
G1 X103.80 Y50.80 Z0.20 E74.38 F805.0
G1 X104.30 Y51.80 Z0.20 E74.42 F872.1
G1 X103.80 Y52.80 Z0.20 E74.45 F939.1
G1 X104.30 Y53.80 Z0.20 E74.49 F1006.2
G1 X103.80 Y54.80 Z0.20 E74.53 F1073.3
G1 X104.30 Y55.80 Z0.20 E74.57 F1140.4
G1 X103.80 Y56.80 Z0.20 E74.60 F1207.5
G1 X104.30 Y57.80 Z0.20 E74.64 F1274.6
G1 X103.80 Y58.80 Z0.20 E74.68 F1341.6
G1 X104.30 Y59.80 Z0.20 E74.71 F1408.7
G1 X103.80 Y60.80 Z0.20 E74.75 F1475.8
G1 X104.30 Y61.80 Z0.20 E74.79 F1542.9
G1 X103.80 Y62.80 Z0.20 E74.83 F1610.0
G1 X104.30 Y63.80 Z0.20 E74.86 F1677.1
G1 X103.80 Y64.80 Z0.20 E74.90 F1744.1
G1 X104.30 Y65.80 Z0.20 E74.94 F1811.2
G1 X103.80 Y66.80 Z0.20 E74.98 F1878.3
G1 X104.30 Y67.80 Z0.20 E75.01 F1945.4
G1 X103.80 Y68.80 Z0.20 E75.05 F2012.5
G1 X104.30 Y69.80 Z0.20 E75.09 F2079.5
G1 X103.80 Y70.80 Z0.20 E75.12 F2146.6
G1 X104.30 Y71.80 Z0.20 E75.16 F2213.7
G1 X103.80 Y72.80 Z0.20 E75.20 F2280.8
G1 X104.30 Y73.80 Z0.20 E75.24 F2347.9
G1 X103.80 Y74.80 Z0.20 E75.27 F2415.0
G1 X104.30 Y75.80 Z0.20 E75.31 F2482.0
G1 X103.80 Y76.80 Z0.20 E75.35 F2549.1
G1 X104.30 Y77.80 Z0.20 E75.38 F2616.2
G1 X103.80 Y78.80 Z0.20 E75.42 F2683.3
G1 X104.30 Y79.80 Z0.20 E75.46 F2750.4
G1 X103.80 Y80.80 Z0.20 E75.50 F2817.4
G1 X104.30 Y81.80 Z0.20 E75.53 F2884.5
G1 X103.80 Y82.80 Z0.20 E75.57 F2951.6
G1 X104.30 Y83.80 Z0.20 E75.61 F3018.7
G1 X103.80 Y84.80 Z0.20 E75.64 F3085.8
G1 X104.30 Y85.80 Z0.20 E75.68 F3152.9
G1 X103.80 Y86.80 Z0.20 E75.72 F3219.9
G1 X104.30 Y87.80 Z0.20 E75.76 F3287.0
G1 X103.80 Y88.80 Z0.20 E75.79 F3354.1
G1 X104.30 Y89.80 Z0.20 E75.83 F3421.2
G1 X103.80 Y90.80 Z0.20 E75.87 F3488.3
G1 X104.30 Y91.80 Z0.20 E75.90 F3555.3
G1 X103.80 Y92.80 Z0.20 E75.94 F3622.4
G1 X104.30 Y93.80 Z0.20 E75.98 F3689.5
G1 X103.80 Y94.80 Z0.20 E76.02 F3756.6
G1 X104.30 Y95.80 Z0.20 E76.05 F3823.7
G1 X103.80 Y96.80 Z0.20 E76.09 F3890.8
G1 X104.30 Y97.80 Z0.20 E76.13 F3957.8
G1 X103.80 Y98.80 Z0.20 E76.17 F4024.9
G1 X104.30 Y99.80 Z0.20 E76.20 F4092.0
G1 X103.80 Y100.80 Z0.20 E76.24 F4159.1
G1 X104.30 Y101.80 Z0.20 E76.28 F4226.2
G1 X103.80 Y102.80 Z0.20 E76.31 F4293.3
G1 X104.30 Y103.80 Z0.20 E76.35 F4360.3
G1 X103.80 Y104.80 Z0.20 E76.39 F4427.4
G1 X104.30 Y105.80 Z0.20 E76.43 F4494.5
G1 X103.80 Y106.80 Z0.20 E76.46 F4561.6
G1 X104.30 Y107.80 Z0.20 E76.50 F4628.7
G1 X103.80 Y108.80 Z0.20 E76.54 F4695.7
G1 X104.30 Y109.80 Z0.20 E76.57 F4762.8
G1 X103.80 Y110.80 Z0.20 E76.61 F4829.9
G1 X104.30 Y111.80 Z0.20 E76.65 F4897.0
G1 X103.80 Y112.80 Z0.20 E76.69 F4964.1
G1 X104.30 Y113.80 Z0.20 E76.72 F5031.2
G1 X103.80 Y114.80 Z0.20 E76.76 F5098.2
G1 X104.30 Y115.80 Z0.20 E76.80 F5165.3
G1 X103.80 Y116.80 Z0.20 E76.83 F5232.4
G1 X104.30 Y117.80 Z0.20 E76.87 F5299.5
G1 X103.80 Y118.80 Z0.20 E76.91 F5366.6
G1 X104.30 Y119.80 Z0.20 E76.95 F5433.6
G1 X103.80 Y120.80 Z0.20 E76.98 F5500.7
G1 X104.30 Y121.80 Z0.20 E77.02 F5567.8
G1 X103.80 Y122.80 Z0.20 E77.06 F5634.9
G1 X104.30 Y123.80 Z0.20 E77.09 F5702.0
G1 X103.80 Y124.80 Z0.20 E77.13 F5769.1
G1 X104.30 Y125.80 Z0.20 E77.17 F5836.1
G1 X103.80 Y126.80 Z0.20 E77.21 F5903.2
G1 X104.30 Y127.80 Z0.20 E77.24 F5970.3
G1 X103.80 Y128.80 Z0.20 E77.28 F6037.4
G1 X104.30 Y129.80 Z0.20 E77.32 F6104.5
G1 X103.80 Y130.80 Z0.20 E77.36 F6171.5
G1 X104.30 Y131.80 Z0.20 E77.39 F6238.6
G1 X103.80 Y132.80 Z0.20 E77.43 F6305.7
G1 X104.30 Y133.80 Z0.20 E77.47 F6372.8
G1 X103.80 Y134.80 Z0.20 E77.50 F6439.9
G1 X104.30 Y135.80 Z0.20 E77.54 F6507.0
G1 X103.80 Y136.80 Z0.20 E77.58 F6574.0
G1 X104.30 Y137.80 Z0.20 E77.62 F6641.1
G1 X103.80 Y138.80 Z0.20 E77.65 F6708.2
G1 X104.30 Y139.80 Z0.20 E77.69 F6775.3
G1 X103.80 Y140.80 Z0.20 E77.73 F6842.4
G1 X104.30 Y141.80 Z0.20 E77.76 F6909.5
G1 X103.80 Y142.80 Z0.20 E77.80 F6976.5
G1 X104.30 Y143.80 Z0.20 E77.84 F7043.6
G1 X103.80 Y144.80 Z0.20 E77.88 F7110.7
G1 X104.30 Y145.80 Z0.20 E77.91 F7177.8
G1 X103.80 Y146.80 Z0.20 E77.95 F7244.9
G1 X104.30 Y147.80 Z0.20 E77.99 F7311.9
G1 X103.80 Y148.80 Z0.20 E78.02 F7379.0
G1 X104.30 Y149.80 Z0.20 E78.06 F7446.1
G1 X103.80 Y150.80 Z0.20 E78.10 F7513.2
G1 X104.30 Y151.80 Z0.20 E78.14 F7580.3
G1 X103.80 Y152.80 Z0.20 E78.17 F7647.4
G1 X104.30 Y153.80 Z0.20 E78.21 F7714.4
G1 X103.80 Y154.80 Z0.20 E78.25 F7781.5
G1 X104.30 Y155.80 Z0.20 E78.28 F7848.6
G1 X103.80 Y156.80 Z0.20 E78.32 F7915.7
G1 X104.30 Y157.80 Z0.20 E78.36 F7982.8
G1 X103.80 Y158.80 Z0.20 E78.40 F8049.8
M201 X500 Y500
G1 X103.80 Y173.20 Z0.20 E78.88

G0 X108.80 Y173.20 Z0.20 E78.88 F6000.0
M593 X D0.70
G1 X108.80 Y158.80 Z0.20 E79.35 F8049.8
M203 X500 Y500 ; maximum feedrates
M204 P10000 ; print acceleration
M201 X10000 Y10000 ; max acceleration
M205 X500.00 Y500.00 ; jerk limits very high
M205 J0.3 ; junction deviation maximum
G1 X109.30 Y157.80 Z0.20 E79.39 F8049.8
G1 X108.80 Y156.80 Z0.20 E79.43 F7982.8
G1 X109.30 Y155.80 Z0.20 E79.47 F7915.7
G1 X108.80 Y154.80 Z0.20 E79.50 F7848.6
G1 X109.30 Y153.80 Z0.20 E79.54 F7781.5
G1 X108.80 Y152.80 Z0.20 E79.58 F7714.4
G1 X109.30 Y151.80 Z0.20 E79.61 F7647.4
G1 X108.80 Y150.80 Z0.20 E79.65 F7580.3
G1 X109.30 Y149.80 Z0.20 E79.69 F7513.2
G1 X108.80 Y148.80 Z0.20 E79.73 F7446.1
G1 X109.30 Y147.80 Z0.20 E79.76 F7379.0
G1 X108.80 Y146.80 Z0.20 E79.80 F7311.9
G1 X109.30 Y145.80 Z0.20 E79.84 F7244.9
G1 X108.80 Y144.80 Z0.20 E79.87 F7177.8
G1 X109.30 Y143.80 Z0.20 E79.91 F7110.7
G1 X108.80 Y142.80 Z0.20 E79.95 F7043.6
G1 X109.30 Y141.80 Z0.20 E79.99 F6976.5
G1 X108.80 Y140.80 Z0.20 E80.02 F6909.5
G1 X109.30 Y139.80 Z0.20 E80.06 F6842.4
G1 X108.80 Y138.80 Z0.20 E80.10 F6775.3
G1 X109.30 Y137.80 Z0.20 E80.14 F6708.2
G1 X108.80 Y136.80 Z0.20 E80.17 F6641.1
G1 X109.30 Y135.80 Z0.20 E80.21 F6574.0
G1 X108.80 Y134.80 Z0.20 E80.25 F6507.0
G1 X109.30 Y133.80 Z0.20 E80.28 F6439.9
G1 X108.80 Y132.80 Z0.20 E80.32 F6372.8
G1 X109.30 Y131.80 Z0.20 E80.36 F6305.7
G1 X108.80 Y130.80 Z0.20 E80.40 F6238.6
G1 X109.30 Y129.80 Z0.20 E80.43 F6171.5
G1 X108.80 Y128.80 Z0.20 E80.47 F6104.5
G1 X109.30 Y127.80 Z0.20 E80.51 F6037.4
G1 X108.80 Y126.80 Z0.20 E80.54 F5970.3
G1 X109.30 Y125.80 Z0.20 E80.58 F5903.2
G1 X108.80 Y124.80 Z0.20 E80.62 F5836.1
G1 X109.30 Y123.80 Z0.20 E80.66 F5769.1
G1 X108.80 Y122.80 Z0.20 E80.69 F5702.0
G1 X109.30 Y121.80 Z0.20 E80.73 F5634.9
G1 X108.80 Y120.80 Z0.20 E80.77 F5567.8
G1 X109.30 Y119.80 Z0.20 E80.80 F5500.7
G1 X108.80 Y118.80 Z0.20 E80.84 F5433.6
G1 X109.30 Y117.80 Z0.20 E80.88 F5366.6
G1 X108.80 Y116.80 Z0.20 E80.92 F5299.5
G1 X109.30 Y115.80 Z0.20 E80.95 F5232.4
G1 X108.80 Y114.80 Z0.20 E80.99 F5165.3
G1 X109.30 Y113.80 Z0.20 E81.03 F5098.2
G1 X108.80 Y112.80 Z0.20 E81.06 F5031.2
G1 X109.30 Y111.80 Z0.20 E81.10 F4964.1
G1 X108.80 Y110.80 Z0.20 E81.14 F4897.0
G1 X109.30 Y109.80 Z0.20 E81.18 F4829.9
G1 X108.80 Y108.80 Z0.20 E81.21 F4762.8
G1 X109.30 Y107.80 Z0.20 E81.25 F4695.7
G1 X108.80 Y106.80 Z0.20 E81.29 F4628.7
G1 X109.30 Y105.80 Z0.20 E81.32 F4561.6
G1 X108.80 Y104.80 Z0.20 E81.36 F4494.5
G1 X109.30 Y103.80 Z0.20 E81.40 F4427.4
G1 X108.80 Y102.80 Z0.20 E81.44 F4360.3
G1 X109.30 Y101.80 Z0.20 E81.47 F4293.3
G1 X108.80 Y100.80 Z0.20 E81.51 F4226.2
G1 X109.30 Y99.80 Z0.20 E81.55 F4159.1
G1 X108.80 Y98.80 Z0.20 E81.59 F4092.0
G1 X109.30 Y97.80 Z0.20 E81.62 F4024.9
G1 X108.80 Y96.80 Z0.20 E81.66 F3957.8
G1 X109.30 Y95.80 Z0.20 E81.70 F3890.8
G1 X108.80 Y94.80 Z0.20 E81.73 F3823.7
G1 X109.30 Y93.80 Z0.20 E81.77 F3756.6
G1 X108.80 Y92.80 Z0.20 E81.81 F3689.5
G1 X109.30 Y91.80 Z0.20 E81.85 F3622.4
G1 X108.80 Y90.80 Z0.20 E81.88 F3555.3
G1 X109.30 Y89.80 Z0.20 E81.92 F3488.3
G1 X108.80 Y88.80 Z0.20 E81.96 F3421.2
G1 X109.30 Y87.80 Z0.20 E81.99 F3354.1
G1 X108.80 Y86.80 Z0.20 E82.03 F3287.0
G1 X109.30 Y85.80 Z0.20 E82.07 F3219.9
G1 X108.80 Y84.80 Z0.20 E82.11 F3152.9
G1 X109.30 Y83.80 Z0.20 E82.14 F3085.8
G1 X108.80 Y82.80 Z0.20 E82.18 F3018.7
G1 X109.30 Y81.80 Z0.20 E82.22 F2951.6
G1 X108.80 Y80.80 Z0.20 E82.25 F2884.5
G1 X109.30 Y79.80 Z0.20 E82.29 F2817.4
G1 X108.80 Y78.80 Z0.20 E82.33 F2750.4
G1 X109.30 Y77.80 Z0.20 E82.37 F2683.3
G1 X108.80 Y76.80 Z0.20 E82.40 F2616.2
G1 X109.30 Y75.80 Z0.20 E82.44 F2549.1
G1 X108.80 Y74.80 Z0.20 E82.48 F2482.0
G1 X109.30 Y73.80 Z0.20 E82.51 F2415.0
G1 X108.80 Y72.80 Z0.20 E82.55 F2347.9
G1 X109.30 Y71.80 Z0.20 E82.59 F2280.8
G1 X108.80 Y70.80 Z0.20 E82.63 F2213.7
G1 X109.30 Y69.80 Z0.20 E82.66 F2146.6
G1 X108.80 Y68.80 Z0.20 E82.70 F2079.5
G1 X109.30 Y67.80 Z0.20 E82.74 F2012.5
G1 X108.80 Y66.80 Z0.20 E82.78 F1945.4
G1 X109.30 Y65.80 Z0.20 E82.81 F1878.3
G1 X108.80 Y64.80 Z0.20 E82.85 F1811.2
G1 X109.30 Y63.80 Z0.20 E82.89 F1744.1
G1 X108.80 Y62.80 Z0.20 E82.92 F1677.1
G1 X109.30 Y61.80 Z0.20 E82.96 F1610.0
G1 X108.80 Y60.80 Z0.20 E83.00 F1542.9
G1 X109.30 Y59.80 Z0.20 E83.04 F1475.8
G1 X108.80 Y58.80 Z0.20 E83.07 F1408.7
G1 X109.30 Y57.80 Z0.20 E83.11 F1341.6
G1 X108.80 Y56.80 Z0.20 E83.15 F1274.6
G1 X109.30 Y55.80 Z0.20 E83.18 F1207.5
G1 X108.80 Y54.80 Z0.20 E83.22 F1140.4
G1 X109.30 Y53.80 Z0.20 E83.26 F1073.3
G1 X108.80 Y52.80 Z0.20 E83.30 F1006.2
G1 X109.30 Y51.80 Z0.20 E83.33 F939.1
G1 X108.80 Y50.80 Z0.20 E83.37 F872.1
G1 X109.30 Y49.80 Z0.20 E83.41 F805.0
G1 X108.80 Y48.80 Z0.20 E83.44 F737.9
G1 X109.30 Y47.80 Z0.20 E83.48 F670.8
G1 X108.80 Y46.80 Z0.20 E83.52 F603.7
G1 X109.30 Y45.80 Z0.20 E83.56 F536.7
G1 X108.80 Y44.80 Z0.20 E83.59 F469.6
G1 X109.30 Y43.80 Z0.20 E83.63 F402.5
G1 X108.80 Y42.80 Z0.20 E83.67 F335.4
G1 X109.30 Y41.80 Z0.20 E83.70 F268.3
G1 X108.80 Y40.80 Z0.20 E83.74 F201.2
G1 X109.30 Y39.80 Z0.20 E83.78 F134.2
G1 X108.80 Y38.80 Z0.20 E83.82 F67.1
M201 X500 Y500
G0 X113.80 Y38.80 Z0.20 E83.82 F6000.0
M593 X D0.75
M203 X500 Y500 ; maximum feedrates
M204 P10000 ; print acceleration
M201 X10000 Y10000 ; max acceleration
M205 X500.00 Y500.00 ; jerk limits very high
M205 J0.3 ; junction deviation maximum
G1 X114.30 Y39.80 Z0.20 E83.85 F67.1
G1 X113.80 Y40.80 Z0.20 E83.89 F134.2
G1 X114.30 Y41.80 Z0.20 E83.93 F201.2
G1 X113.80 Y42.80 Z0.20 E83.97 F268.3
G1 X114.30 Y43.80 Z0.20 E84.00 F335.4
G1 X113.80 Y44.80 Z0.20 E84.04 F402.5
G1 X114.30 Y45.80 Z0.20 E84.08 F469.6
G1 X113.80 Y46.80 Z0.20 E84.11 F536.7
G1 X114.30 Y47.80 Z0.20 E84.15 F603.7
G1 X113.80 Y48.80 Z0.20 E84.19 F670.8
G1 X114.30 Y49.80 Z0.20 E84.23 F737.9
G1 X113.80 Y50.80 Z0.20 E84.26 F805.0
G1 X114.30 Y51.80 Z0.20 E84.30 F872.1
G1 X113.80 Y52.80 Z0.20 E84.34 F939.1
G1 X114.30 Y53.80 Z0.20 E84.37 F1006.2
G1 X113.80 Y54.80 Z0.20 E84.41 F1073.3
G1 X114.30 Y55.80 Z0.20 E84.45 F1140.4
G1 X113.80 Y56.80 Z0.20 E84.49 F1207.5
G1 X114.30 Y57.80 Z0.20 E84.52 F1274.6
G1 X113.80 Y58.80 Z0.20 E84.56 F1341.6
G1 X114.30 Y59.80 Z0.20 E84.60 F1408.7
G1 X113.80 Y60.80 Z0.20 E84.63 F1475.8
G1 X114.30 Y61.80 Z0.20 E84.67 F1542.9
G1 X113.80 Y62.80 Z0.20 E84.71 F1610.0
G1 X114.30 Y63.80 Z0.20 E84.75 F1677.1
G1 X113.80 Y64.80 Z0.20 E84.78 F1744.1
G1 X114.30 Y65.80 Z0.20 E84.82 F1811.2
G1 X113.80 Y66.80 Z0.20 E84.86 F1878.3
G1 X114.30 Y67.80 Z0.20 E84.89 F1945.4
G1 X113.80 Y68.80 Z0.20 E84.93 F2012.5
G1 X114.30 Y69.80 Z0.20 E84.97 F2079.5
G1 X113.80 Y70.80 Z0.20 E85.01 F2146.6
G1 X114.30 Y71.80 Z0.20 E85.04 F2213.7
G1 X113.80 Y72.80 Z0.20 E85.08 F2280.8
G1 X114.30 Y73.80 Z0.20 E85.12 F2347.9
G1 X113.80 Y74.80 Z0.20 E85.16 F2415.0
G1 X114.30 Y75.80 Z0.20 E85.19 F2482.0
G1 X113.80 Y76.80 Z0.20 E85.23 F2549.1
G1 X114.30 Y77.80 Z0.20 E85.27 F2616.2
G1 X113.80 Y78.80 Z0.20 E85.30 F2683.3
G1 X114.30 Y79.80 Z0.20 E85.34 F2750.4
G1 X113.80 Y80.80 Z0.20 E85.38 F2817.4
G1 X114.30 Y81.80 Z0.20 E85.42 F2884.5
G1 X113.80 Y82.80 Z0.20 E85.45 F2951.6
G1 X114.30 Y83.80 Z0.20 E85.49 F3018.7
G1 X113.80 Y84.80 Z0.20 E85.53 F3085.8
G1 X114.30 Y85.80 Z0.20 E85.56 F3152.9
G1 X113.80 Y86.80 Z0.20 E85.60 F3219.9
G1 X114.30 Y87.80 Z0.20 E85.64 F3287.0
G1 X113.80 Y88.80 Z0.20 E85.68 F3354.1
G1 X114.30 Y89.80 Z0.20 E85.71 F3421.2
G1 X113.80 Y90.80 Z0.20 E85.75 F3488.3
G1 X114.30 Y91.80 Z0.20 E85.79 F3555.3
G1 X113.80 Y92.80 Z0.20 E85.82 F3622.4
G1 X114.30 Y93.80 Z0.20 E85.86 F3689.5
G1 X113.80 Y94.80 Z0.20 E85.90 F3756.6
G1 X114.30 Y95.80 Z0.20 E85.94 F3823.7
G1 X113.80 Y96.80 Z0.20 E85.97 F3890.8
G1 X114.30 Y97.80 Z0.20 E86.01 F3957.8
G1 X113.80 Y98.80 Z0.20 E86.05 F4024.9
G1 X114.30 Y99.80 Z0.20 E86.08 F4092.0
G1 X113.80 Y100.80 Z0.20 E86.12 F4159.1
G1 X114.30 Y101.80 Z0.20 E86.16 F4226.2
G1 X113.80 Y102.80 Z0.20 E86.20 F4293.3
G1 X114.30 Y103.80 Z0.20 E86.23 F4360.3
G1 X113.80 Y104.80 Z0.20 E86.27 F4427.4
G1 X114.30 Y105.80 Z0.20 E86.31 F4494.5
G1 X113.80 Y106.80 Z0.20 E86.35 F4561.6
G1 X114.30 Y107.80 Z0.20 E86.38 F4628.7
G1 X113.80 Y108.80 Z0.20 E86.42 F4695.7
G1 X114.30 Y109.80 Z0.20 E86.46 F4762.8
G1 X113.80 Y110.80 Z0.20 E86.49 F4829.9
G1 X114.30 Y111.80 Z0.20 E86.53 F4897.0
G1 X113.80 Y112.80 Z0.20 E86.57 F4964.1
G1 X114.30 Y113.80 Z0.20 E86.61 F5031.2
G1 X113.80 Y114.80 Z0.20 E86.64 F5098.2
G1 X114.30 Y115.80 Z0.20 E86.68 F5165.3
G1 X113.80 Y116.80 Z0.20 E86.72 F5232.4
G1 X114.30 Y117.80 Z0.20 E86.75 F5299.5
G1 X113.80 Y118.80 Z0.20 E86.79 F5366.6
G1 X114.30 Y119.80 Z0.20 E86.83 F5433.6
G1 X113.80 Y120.80 Z0.20 E86.87 F5500.7
G1 X114.30 Y121.80 Z0.20 E86.90 F5567.8
G1 X113.80 Y122.80 Z0.20 E86.94 F5634.9
G1 X114.30 Y123.80 Z0.20 E86.98 F5702.0
G1 X113.80 Y124.80 Z0.20 E87.01 F5769.1
G1 X114.30 Y125.80 Z0.20 E87.05 F5836.1
G1 X113.80 Y126.80 Z0.20 E87.09 F5903.2
G1 X114.30 Y127.80 Z0.20 E87.13 F5970.3
G1 X113.80 Y128.80 Z0.20 E87.16 F6037.4
G1 X114.30 Y129.80 Z0.20 E87.20 F6104.5
G1 X113.80 Y130.80 Z0.20 E87.24 F6171.5
G1 X114.30 Y131.80 Z0.20 E87.27 F6238.6
G1 X113.80 Y132.80 Z0.20 E87.31 F6305.7
G1 X114.30 Y133.80 Z0.20 E87.35 F6372.8
G1 X113.80 Y134.80 Z0.20 E87.39 F6439.9
G1 X114.30 Y135.80 Z0.20 E87.42 F6507.0
G1 X113.80 Y136.80 Z0.20 E87.46 F6574.0
G1 X114.30 Y137.80 Z0.20 E87.50 F6641.1
G1 X113.80 Y138.80 Z0.20 E87.54 F6708.2
G1 X114.30 Y139.80 Z0.20 E87.57 F6775.3
G1 X113.80 Y140.80 Z0.20 E87.61 F6842.4
G1 X114.30 Y141.80 Z0.20 E87.65 F6909.5
G1 X113.80 Y142.80 Z0.20 E87.68 F6976.5
G1 X114.30 Y143.80 Z0.20 E87.72 F7043.6
G1 X113.80 Y144.80 Z0.20 E87.76 F7110.7
G1 X114.30 Y145.80 Z0.20 E87.80 F7177.8
G1 X113.80 Y146.80 Z0.20 E87.83 F7244.9
G1 X114.30 Y147.80 Z0.20 E87.87 F7311.9
G1 X113.80 Y148.80 Z0.20 E87.91 F7379.0
G1 X114.30 Y149.80 Z0.20 E87.94 F7446.1
G1 X113.80 Y150.80 Z0.20 E87.98 F7513.2
G1 X114.30 Y151.80 Z0.20 E88.02 F7580.3
G1 X113.80 Y152.80 Z0.20 E88.06 F7647.4
G1 X114.30 Y153.80 Z0.20 E88.09 F7714.4
G1 X113.80 Y154.80 Z0.20 E88.13 F7781.5
G1 X114.30 Y155.80 Z0.20 E88.17 F7848.6
G1 X113.80 Y156.80 Z0.20 E88.20 F7915.7
G1 X114.30 Y157.80 Z0.20 E88.24 F7982.8
G1 X113.80 Y158.80 Z0.20 E88.28 F8049.8
M201 X500 Y500
G1 X113.80 Y173.20 Z0.20 E88.76

G0 X118.80 Y173.20 Z0.20 E88.76 F6000.0
M593 X D0.80
G1 X118.80 Y158.80 Z0.20 E89.24 F8049.8
M203 X500 Y500 ; maximum feedrates
M204 P10000 ; print acceleration
M201 X10000 Y10000 ; max acceleration
M205 X500.00 Y500.00 ; jerk limits very high
M205 J0.3 ; junction deviation maximum
G1 X119.30 Y157.80 Z0.20 E89.27 F8049.8
G1 X118.80 Y156.80 Z0.20 E89.31 F7982.8
G1 X119.30 Y155.80 Z0.20 E89.35 F7915.7
G1 X118.80 Y154.80 Z0.20 E89.39 F7848.6
G1 X119.30 Y153.80 Z0.20 E89.42 F7781.5
G1 X118.80 Y152.80 Z0.20 E89.46 F7714.4
G1 X119.30 Y151.80 Z0.20 E89.50 F7647.4
G1 X118.80 Y150.80 Z0.20 E89.53 F7580.3
G1 X119.30 Y149.80 Z0.20 E89.57 F7513.2
G1 X118.80 Y148.80 Z0.20 E89.61 F7446.1
G1 X119.30 Y147.80 Z0.20 E89.65 F7379.0
G1 X118.80 Y146.80 Z0.20 E89.68 F7311.9
G1 X119.30 Y145.80 Z0.20 E89.72 F7244.9
G1 X118.80 Y144.80 Z0.20 E89.76 F7177.8
G1 X119.30 Y143.80 Z0.20 E89.79 F7110.7
G1 X118.80 Y142.80 Z0.20 E89.83 F7043.6
G1 X119.30 Y141.80 Z0.20 E89.87 F6976.5
G1 X118.80 Y140.80 Z0.20 E89.91 F6909.5
G1 X119.30 Y139.80 Z0.20 E89.94 F6842.4
G1 X118.80 Y138.80 Z0.20 E89.98 F6775.3
G1 X119.30 Y137.80 Z0.20 E90.02 F6708.2
G1 X118.80 Y136.80 Z0.20 E90.05 F6641.1
G1 X119.30 Y135.80 Z0.20 E90.09 F6574.0
G1 X118.80 Y134.80 Z0.20 E90.13 F6507.0
G1 X119.30 Y133.80 Z0.20 E90.17 F6439.9
G1 X118.80 Y132.80 Z0.20 E90.20 F6372.8
G1 X119.30 Y131.80 Z0.20 E90.24 F6305.7
G1 X118.80 Y130.80 Z0.20 E90.28 F6238.6
G1 X119.30 Y129.80 Z0.20 E90.32 F6171.5
G1 X118.80 Y128.80 Z0.20 E90.35 F6104.5
G1 X119.30 Y127.80 Z0.20 E90.39 F6037.4
G1 X118.80 Y126.80 Z0.20 E90.43 F5970.3
G1 X119.30 Y125.80 Z0.20 E90.46 F5903.2
G1 X118.80 Y124.80 Z0.20 E90.50 F5836.1
G1 X119.30 Y123.80 Z0.20 E90.54 F5769.1
G1 X118.80 Y122.80 Z0.20 E90.58 F5702.0
G1 X119.30 Y121.80 Z0.20 E90.61 F5634.9
G1 X118.80 Y120.80 Z0.20 E90.65 F5567.8
G1 X119.30 Y119.80 Z0.20 E90.69 F5500.7
G1 X118.80 Y118.80 Z0.20 E90.72 F5433.6
G1 X119.30 Y117.80 Z0.20 E90.76 F5366.6
G1 X118.80 Y116.80 Z0.20 E90.80 F5299.5
G1 X119.30 Y115.80 Z0.20 E90.84 F5232.4
G1 X118.80 Y114.80 Z0.20 E90.87 F5165.3
G1 X119.30 Y113.80 Z0.20 E90.91 F5098.2
G1 X118.80 Y112.80 Z0.20 E90.95 F5031.2
G1 X119.30 Y111.80 Z0.20 E90.98 F4964.1
G1 X118.80 Y110.80 Z0.20 E91.02 F4897.0
G1 X119.30 Y109.80 Z0.20 E91.06 F4829.9
G1 X118.80 Y108.80 Z0.20 E91.10 F4762.8
G1 X119.30 Y107.80 Z0.20 E91.13 F4695.7
G1 X118.80 Y106.80 Z0.20 E91.17 F4628.7
G1 X119.30 Y105.80 Z0.20 E91.21 F4561.6
G1 X118.80 Y104.80 Z0.20 E91.24 F4494.5
G1 X119.30 Y103.80 Z0.20 E91.28 F4427.4
G1 X118.80 Y102.80 Z0.20 E91.32 F4360.3
G1 X119.30 Y101.80 Z0.20 E91.36 F4293.3
G1 X118.80 Y100.80 Z0.20 E91.39 F4226.2
G1 X119.30 Y99.80 Z0.20 E91.43 F4159.1
G1 X118.80 Y98.80 Z0.20 E91.47 F4092.0
G1 X119.30 Y97.80 Z0.20 E91.50 F4024.9
G1 X118.80 Y96.80 Z0.20 E91.54 F3957.8
G1 X119.30 Y95.80 Z0.20 E91.58 F3890.8
G1 X118.80 Y94.80 Z0.20 E91.62 F3823.7
G1 X119.30 Y93.80 Z0.20 E91.65 F3756.6
G1 X118.80 Y92.80 Z0.20 E91.69 F3689.5
G1 X119.30 Y91.80 Z0.20 E91.73 F3622.4
G1 X118.80 Y90.80 Z0.20 E91.77 F3555.3
G1 X119.30 Y89.80 Z0.20 E91.80 F3488.3
G1 X118.80 Y88.80 Z0.20 E91.84 F3421.2
G1 X119.30 Y87.80 Z0.20 E91.88 F3354.1
G1 X118.80 Y86.80 Z0.20 E91.91 F3287.0
G1 X119.30 Y85.80 Z0.20 E91.95 F3219.9
G1 X118.80 Y84.80 Z0.20 E91.99 F3152.9
G1 X119.30 Y83.80 Z0.20 E92.03 F3085.8
G1 X118.80 Y82.80 Z0.20 E92.06 F3018.7
G1 X119.30 Y81.80 Z0.20 E92.10 F2951.6
G1 X118.80 Y80.80 Z0.20 E92.14 F2884.5
G1 X119.30 Y79.80 Z0.20 E92.17 F2817.4
G1 X118.80 Y78.80 Z0.20 E92.21 F2750.4
G1 X119.30 Y77.80 Z0.20 E92.25 F2683.3
G1 X118.80 Y76.80 Z0.20 E92.29 F2616.2
G1 X119.30 Y75.80 Z0.20 E92.32 F2549.1
G1 X118.80 Y74.80 Z0.20 E92.36 F2482.0
G1 X119.30 Y73.80 Z0.20 E92.40 F2415.0
G1 X118.80 Y72.80 Z0.20 E92.43 F2347.9
G1 X119.30 Y71.80 Z0.20 E92.47 F2280.8
G1 X118.80 Y70.80 Z0.20 E92.51 F2213.7
G1 X119.30 Y69.80 Z0.20 E92.55 F2146.6
G1 X118.80 Y68.80 Z0.20 E92.58 F2079.5
G1 X119.30 Y67.80 Z0.20 E92.62 F2012.5
G1 X118.80 Y66.80 Z0.20 E92.66 F1945.4
G1 X119.30 Y65.80 Z0.20 E92.69 F1878.3
G1 X118.80 Y64.80 Z0.20 E92.73 F1811.2
G1 X119.30 Y63.80 Z0.20 E92.77 F1744.1
G1 X118.80 Y62.80 Z0.20 E92.81 F1677.1
G1 X119.30 Y61.80 Z0.20 E92.84 F1610.0
G1 X118.80 Y60.80 Z0.20 E92.88 F1542.9
G1 X119.30 Y59.80 Z0.20 E92.92 F1475.8
G1 X118.80 Y58.80 Z0.20 E92.96 F1408.7
G1 X119.30 Y57.80 Z0.20 E92.99 F1341.6
G1 X118.80 Y56.80 Z0.20 E93.03 F1274.6
G1 X119.30 Y55.80 Z0.20 E93.07 F1207.5
G1 X118.80 Y54.80 Z0.20 E93.10 F1140.4
G1 X119.30 Y53.80 Z0.20 E93.14 F1073.3
G1 X118.80 Y52.80 Z0.20 E93.18 F1006.2
G1 X119.30 Y51.80 Z0.20 E93.22 F939.1
G1 X118.80 Y50.80 Z0.20 E93.25 F872.1
G1 X119.30 Y49.80 Z0.20 E93.29 F805.0
G1 X118.80 Y48.80 Z0.20 E93.33 F737.9
G1 X119.30 Y47.80 Z0.20 E93.36 F670.8
G1 X118.80 Y46.80 Z0.20 E93.40 F603.7
G1 X119.30 Y45.80 Z0.20 E93.44 F536.7
G1 X118.80 Y44.80 Z0.20 E93.48 F469.6
G1 X119.30 Y43.80 Z0.20 E93.51 F402.5
G1 X118.80 Y42.80 Z0.20 E93.55 F335.4
G1 X119.30 Y41.80 Z0.20 E93.59 F268.3
G1 X118.80 Y40.80 Z0.20 E93.62 F201.2
G1 X119.30 Y39.80 Z0.20 E93.66 F134.2
G1 X118.80 Y38.80 Z0.20 E93.70 F67.1
M201 X500 Y500
G0 X123.80 Y38.80 Z0.20 E93.70 F6000.0
M593 X D0.85
M203 X500 Y500 ; maximum feedrates
M204 P10000 ; print acceleration
M201 X10000 Y10000 ; max acceleration
M205 X500.00 Y500.00 ; jerk limits very high
M205 J0.3 ; junction deviation maximum
G1 X124.30 Y39.80 Z0.20 E93.74 F67.1
G1 X123.80 Y40.80 Z0.20 E93.77 F134.2
G1 X124.30 Y41.80 Z0.20 E93.81 F201.2
G1 X123.80 Y42.80 Z0.20 E93.85 F268.3
G1 X124.30 Y43.80 Z0.20 E93.88 F335.4
G1 X123.80 Y44.80 Z0.20 E93.92 F402.5
G1 X124.30 Y45.80 Z0.20 E93.96 F469.6
G1 X123.80 Y46.80 Z0.20 E94.00 F536.7
G1 X124.30 Y47.80 Z0.20 E94.03 F603.7
G1 X123.80 Y48.80 Z0.20 E94.07 F670.8
G1 X124.30 Y49.80 Z0.20 E94.11 F737.9
G1 X123.80 Y50.80 Z0.20 E94.15 F805.0
G1 X124.30 Y51.80 Z0.20 E94.18 F872.1
G1 X123.80 Y52.80 Z0.20 E94.22 F939.1
G1 X124.30 Y53.80 Z0.20 E94.26 F1006.2
G1 X123.80 Y54.80 Z0.20 E94.29 F1073.3
G1 X124.30 Y55.80 Z0.20 E94.33 F1140.4
G1 X123.80 Y56.80 Z0.20 E94.37 F1207.5
G1 X124.30 Y57.80 Z0.20 E94.41 F1274.6
G1 X123.80 Y58.80 Z0.20 E94.44 F1341.6
G1 X124.30 Y59.80 Z0.20 E94.48 F1408.7
G1 X123.80 Y60.80 Z0.20 E94.52 F1475.8
G1 X124.30 Y61.80 Z0.20 E94.55 F1542.9
G1 X123.80 Y62.80 Z0.20 E94.59 F1610.0
G1 X124.30 Y63.80 Z0.20 E94.63 F1677.1
G1 X123.80 Y64.80 Z0.20 E94.67 F1744.1
G1 X124.30 Y65.80 Z0.20 E94.70 F1811.2
G1 X123.80 Y66.80 Z0.20 E94.74 F1878.3
G1 X124.30 Y67.80 Z0.20 E94.78 F1945.4
G1 X123.80 Y68.80 Z0.20 E94.81 F2012.5
G1 X124.30 Y69.80 Z0.20 E94.85 F2079.5
G1 X123.80 Y70.80 Z0.20 E94.89 F2146.6
G1 X124.30 Y71.80 Z0.20 E94.93 F2213.7
G1 X123.80 Y72.80 Z0.20 E94.96 F2280.8
G1 X124.30 Y73.80 Z0.20 E95.00 F2347.9
G1 X123.80 Y74.80 Z0.20 E95.04 F2415.0
G1 X124.30 Y75.80 Z0.20 E95.07 F2482.0
G1 X123.80 Y76.80 Z0.20 E95.11 F2549.1
G1 X124.30 Y77.80 Z0.20 E95.15 F2616.2
G1 X123.80 Y78.80 Z0.20 E95.19 F2683.3
G1 X124.30 Y79.80 Z0.20 E95.22 F2750.4
G1 X123.80 Y80.80 Z0.20 E95.26 F2817.4
G1 X124.30 Y81.80 Z0.20 E95.30 F2884.5
G1 X123.80 Y82.80 Z0.20 E95.34 F2951.6
G1 X124.30 Y83.80 Z0.20 E95.37 F3018.7
G1 X123.80 Y84.80 Z0.20 E95.41 F3085.8
G1 X124.30 Y85.80 Z0.20 E95.45 F3152.9
G1 X123.80 Y86.80 Z0.20 E95.48 F3219.9
G1 X124.30 Y87.80 Z0.20 E95.52 F3287.0
G1 X123.80 Y88.80 Z0.20 E95.56 F3354.1
G1 X124.30 Y89.80 Z0.20 E95.60 F3421.2
G1 X123.80 Y90.80 Z0.20 E95.63 F3488.3
G1 X124.30 Y91.80 Z0.20 E95.67 F3555.3
G1 X123.80 Y92.80 Z0.20 E95.71 F3622.4
G1 X124.30 Y93.80 Z0.20 E95.74 F3689.5
G1 X123.80 Y94.80 Z0.20 E95.78 F3756.6
G1 X124.30 Y95.80 Z0.20 E95.82 F3823.7
G1 X123.80 Y96.80 Z0.20 E95.86 F3890.8
G1 X124.30 Y97.80 Z0.20 E95.89 F3957.8
G1 X123.80 Y98.80 Z0.20 E95.93 F4024.9
G1 X124.30 Y99.80 Z0.20 E95.97 F4092.0
G1 X123.80 Y100.80 Z0.20 E96.00 F4159.1
G1 X124.30 Y101.80 Z0.20 E96.04 F4226.2
G1 X123.80 Y102.80 Z0.20 E96.08 F4293.3
G1 X124.30 Y103.80 Z0.20 E96.12 F4360.3
G1 X123.80 Y104.80 Z0.20 E96.15 F4427.4
G1 X124.30 Y105.80 Z0.20 E96.19 F4494.5
G1 X123.80 Y106.80 Z0.20 E96.23 F4561.6
G1 X124.30 Y107.80 Z0.20 E96.26 F4628.7
G1 X123.80 Y108.80 Z0.20 E96.30 F4695.7
G1 X124.30 Y109.80 Z0.20 E96.34 F4762.8
G1 X123.80 Y110.80 Z0.20 E96.38 F4829.9
G1 X124.30 Y111.80 Z0.20 E96.41 F4897.0
G1 X123.80 Y112.80 Z0.20 E96.45 F4964.1
G1 X124.30 Y113.80 Z0.20 E96.49 F5031.2
G1 X123.80 Y114.80 Z0.20 E96.53 F5098.2
G1 X124.30 Y115.80 Z0.20 E96.56 F5165.3
G1 X123.80 Y116.80 Z0.20 E96.60 F5232.4
G1 X124.30 Y117.80 Z0.20 E96.64 F5299.5
G1 X123.80 Y118.80 Z0.20 E96.67 F5366.6
G1 X124.30 Y119.80 Z0.20 E96.71 F5433.6
G1 X123.80 Y120.80 Z0.20 E96.75 F5500.7
G1 X124.30 Y121.80 Z0.20 E96.79 F5567.8
G1 X123.80 Y122.80 Z0.20 E96.82 F5634.9
G1 X124.30 Y123.80 Z0.20 E96.86 F5702.0
G1 X123.80 Y124.80 Z0.20 E96.90 F5769.1
G1 X124.30 Y125.80 Z0.20 E96.93 F5836.1
G1 X123.80 Y126.80 Z0.20 E96.97 F5903.2
G1 X124.30 Y127.80 Z0.20 E97.01 F5970.3
G1 X123.80 Y128.80 Z0.20 E97.05 F6037.4
G1 X124.30 Y129.80 Z0.20 E97.08 F6104.5
G1 X123.80 Y130.80 Z0.20 E97.12 F6171.5
G1 X124.30 Y131.80 Z0.20 E97.16 F6238.6
G1 X123.80 Y132.80 Z0.20 E97.19 F6305.7
G1 X124.30 Y133.80 Z0.20 E97.23 F6372.8
G1 X123.80 Y134.80 Z0.20 E97.27 F6439.9
G1 X124.30 Y135.80 Z0.20 E97.31 F6507.0
G1 X123.80 Y136.80 Z0.20 E97.34 F6574.0
G1 X124.30 Y137.80 Z0.20 E97.38 F6641.1
G1 X123.80 Y138.80 Z0.20 E97.42 F6708.2
G1 X124.30 Y139.80 Z0.20 E97.45 F6775.3
G1 X123.80 Y140.80 Z0.20 E97.49 F6842.4
G1 X124.30 Y141.80 Z0.20 E97.53 F6909.5
G1 X123.80 Y142.80 Z0.20 E97.57 F6976.5
G1 X124.30 Y143.80 Z0.20 E97.60 F7043.6
G1 X123.80 Y144.80 Z0.20 E97.64 F7110.7
G1 X124.30 Y145.80 Z0.20 E97.68 F7177.8
G1 X123.80 Y146.80 Z0.20 E97.72 F7244.9
G1 X124.30 Y147.80 Z0.20 E97.75 F7311.9
G1 X123.80 Y148.80 Z0.20 E97.79 F7379.0
G1 X124.30 Y149.80 Z0.20 E97.83 F7446.1
G1 X123.80 Y150.80 Z0.20 E97.86 F7513.2
G1 X124.30 Y151.80 Z0.20 E97.90 F7580.3
G1 X123.80 Y152.80 Z0.20 E97.94 F7647.4
G1 X124.30 Y153.80 Z0.20 E97.98 F7714.4
G1 X123.80 Y154.80 Z0.20 E98.01 F7781.5
G1 X124.30 Y155.80 Z0.20 E98.05 F7848.6
G1 X123.80 Y156.80 Z0.20 E98.09 F7915.7
G1 X124.30 Y157.80 Z0.20 E98.12 F7982.8
G1 X123.80 Y158.80 Z0.20 E98.16 F8049.8
M201 X500 Y500
G1 X123.80 Y173.20 Z0.20 E98.64

G0 X128.80 Y173.20 Z0.20 E98.64 F6000.0
M593 X D0.90
G1 X128.80 Y158.80 Z0.20 E99.12 F8049.8
M203 X500 Y500 ; maximum feedrates
M204 P10000 ; print acceleration
M201 X10000 Y10000 ; max acceleration
M205 X500.00 Y500.00 ; jerk limits very high
M205 J0.3 ; junction deviation maximum
G1 X129.30 Y157.80 Z0.20 E99.16 F8049.8
G1 X128.80 Y156.80 Z0.20 E99.19 F7982.8
G1 X129.30 Y155.80 Z0.20 E99.23 F7915.7
G1 X128.80 Y154.80 Z0.20 E99.27 F7848.6
G1 X129.30 Y153.80 Z0.20 E99.31 F7781.5
G1 X128.80 Y152.80 Z0.20 E99.34 F7714.4
G1 X129.30 Y151.80 Z0.20 E99.38 F7647.4
G1 X128.80 Y150.80 Z0.20 E99.42 F7580.3
G1 X129.30 Y149.80 Z0.20 E99.45 F7513.2
G1 X128.80 Y148.80 Z0.20 E99.49 F7446.1
G1 X129.30 Y147.80 Z0.20 E99.53 F7379.0
G1 X128.80 Y146.80 Z0.20 E99.57 F7311.9
G1 X129.30 Y145.80 Z0.20 E99.60 F7244.9
G1 X128.80 Y144.80 Z0.20 E99.64 F7177.8
G1 X129.30 Y143.80 Z0.20 E99.68 F7110.7
G1 X128.80 Y142.80 Z0.20 E99.71 F7043.6
G1 X129.30 Y141.80 Z0.20 E99.75 F6976.5
G1 X128.80 Y140.80 Z0.20 E99.79 F6909.5
G1 X129.30 Y139.80 Z0.20 E99.83 F6842.4
G1 X128.80 Y138.80 Z0.20 E99.86 F6775.3
G1 X129.30 Y137.80 Z0.20 E99.90 F6708.2
G1 X128.80 Y136.80 Z0.20 E99.94 F6641.1
G1 X129.30 Y135.80 Z0.20 E99.97 F6574.0
G1 X128.80 Y134.80 Z0.20 E100.01 F6507.0
G1 X129.30 Y133.80 Z0.20 E100.05 F6439.9
G1 X128.80 Y132.80 Z0.20 E100.09 F6372.8
G1 X129.30 Y131.80 Z0.20 E100.12 F6305.7
G1 X128.80 Y130.80 Z0.20 E100.16 F6238.6
G1 X129.30 Y129.80 Z0.20 E100.20 F6171.5
G1 X128.80 Y128.80 Z0.20 E100.23 F6104.5
G1 X129.30 Y127.80 Z0.20 E100.27 F6037.4
G1 X128.80 Y126.80 Z0.20 E100.31 F5970.3
G1 X129.30 Y125.80 Z0.20 E100.35 F5903.2
G1 X128.80 Y124.80 Z0.20 E100.38 F5836.1
G1 X129.30 Y123.80 Z0.20 E100.42 F5769.1
G1 X128.80 Y122.80 Z0.20 E100.46 F5702.0
G1 X129.30 Y121.80 Z0.20 E100.50 F5634.9
G1 X128.80 Y120.80 Z0.20 E100.53 F5567.8
G1 X129.30 Y119.80 Z0.20 E100.57 F5500.7
G1 X128.80 Y118.80 Z0.20 E100.61 F5433.6
G1 X129.30 Y117.80 Z0.20 E100.64 F5366.6
G1 X128.80 Y116.80 Z0.20 E100.68 F5299.5
G1 X129.30 Y115.80 Z0.20 E100.72 F5232.4
G1 X128.80 Y114.80 Z0.20 E100.76 F5165.3
G1 X129.30 Y113.80 Z0.20 E100.79 F5098.2
G1 X128.80 Y112.80 Z0.20 E100.83 F5031.2
G1 X129.30 Y111.80 Z0.20 E100.87 F4964.1
G1 X128.80 Y110.80 Z0.20 E100.90 F4897.0
G1 X129.30 Y109.80 Z0.20 E100.94 F4829.9
G1 X128.80 Y108.80 Z0.20 E100.98 F4762.8
G1 X129.30 Y107.80 Z0.20 E101.02 F4695.7
G1 X128.80 Y106.80 Z0.20 E101.05 F4628.7
G1 X129.30 Y105.80 Z0.20 E101.09 F4561.6
G1 X128.80 Y104.80 Z0.20 E101.13 F4494.5
G1 X129.30 Y103.80 Z0.20 E101.16 F4427.4
G1 X128.80 Y102.80 Z0.20 E101.20 F4360.3
G1 X129.30 Y101.80 Z0.20 E101.24 F4293.3
G1 X128.80 Y100.80 Z0.20 E101.28 F4226.2
G1 X129.30 Y99.80 Z0.20 E101.31 F4159.1
G1 X128.80 Y98.80 Z0.20 E101.35 F4092.0
G1 X129.30 Y97.80 Z0.20 E101.39 F4024.9
G1 X128.80 Y96.80 Z0.20 E101.42 F3957.8
G1 X129.30 Y95.80 Z0.20 E101.46 F3890.8
G1 X128.80 Y94.80 Z0.20 E101.50 F3823.7
G1 X129.30 Y93.80 Z0.20 E101.54 F3756.6
G1 X128.80 Y92.80 Z0.20 E101.57 F3689.5
G1 X129.30 Y91.80 Z0.20 E101.61 F3622.4
G1 X128.80 Y90.80 Z0.20 E101.65 F3555.3
G1 X129.30 Y89.80 Z0.20 E101.69 F3488.3
G1 X128.80 Y88.80 Z0.20 E101.72 F3421.2
G1 X129.30 Y87.80 Z0.20 E101.76 F3354.1
G1 X128.80 Y86.80 Z0.20 E101.80 F3287.0
G1 X129.30 Y85.80 Z0.20 E101.83 F3219.9
G1 X128.80 Y84.80 Z0.20 E101.87 F3152.9
G1 X129.30 Y83.80 Z0.20 E101.91 F3085.8
G1 X128.80 Y82.80 Z0.20 E101.95 F3018.7
G1 X129.30 Y81.80 Z0.20 E101.98 F2951.6
G1 X128.80 Y80.80 Z0.20 E102.02 F2884.5
G1 X129.30 Y79.80 Z0.20 E102.06 F2817.4
G1 X128.80 Y78.80 Z0.20 E102.09 F2750.4
G1 X129.30 Y77.80 Z0.20 E102.13 F2683.3
G1 X128.80 Y76.80 Z0.20 E102.17 F2616.2
G1 X129.30 Y75.80 Z0.20 E102.21 F2549.1
G1 X128.80 Y74.80 Z0.20 E102.24 F2482.0
G1 X129.30 Y73.80 Z0.20 E102.28 F2415.0
G1 X128.80 Y72.80 Z0.20 E102.32 F2347.9
G1 X129.30 Y71.80 Z0.20 E102.35 F2280.8
G1 X128.80 Y70.80 Z0.20 E102.39 F2213.7
G1 X129.30 Y69.80 Z0.20 E102.43 F2146.6
G1 X128.80 Y68.80 Z0.20 E102.47 F2079.5
G1 X129.30 Y67.80 Z0.20 E102.50 F2012.5
G1 X128.80 Y66.80 Z0.20 E102.54 F1945.4
G1 X129.30 Y65.80 Z0.20 E102.58 F1878.3
G1 X128.80 Y64.80 Z0.20 E102.61 F1811.2
G1 X129.30 Y63.80 Z0.20 E102.65 F1744.1
G1 X128.80 Y62.80 Z0.20 E102.69 F1677.1
G1 X129.30 Y61.80 Z0.20 E102.73 F1610.0
G1 X128.80 Y60.80 Z0.20 E102.76 F1542.9
G1 X129.30 Y59.80 Z0.20 E102.80 F1475.8
G1 X128.80 Y58.80 Z0.20 E102.84 F1408.7
G1 X129.30 Y57.80 Z0.20 E102.87 F1341.6
G1 X128.80 Y56.80 Z0.20 E102.91 F1274.6
G1 X129.30 Y55.80 Z0.20 E102.95 F1207.5
G1 X128.80 Y54.80 Z0.20 E102.99 F1140.4
G1 X129.30 Y53.80 Z0.20 E103.02 F1073.3
G1 X128.80 Y52.80 Z0.20 E103.06 F1006.2
G1 X129.30 Y51.80 Z0.20 E103.10 F939.1
G1 X128.80 Y50.80 Z0.20 E103.14 F872.1
G1 X129.30 Y49.80 Z0.20 E103.17 F805.0
G1 X128.80 Y48.80 Z0.20 E103.21 F737.9
G1 X129.30 Y47.80 Z0.20 E103.25 F670.8
G1 X128.80 Y46.80 Z0.20 E103.28 F603.7
G1 X129.30 Y45.80 Z0.20 E103.32 F536.7
G1 X128.80 Y44.80 Z0.20 E103.36 F469.6
G1 X129.30 Y43.80 Z0.20 E103.40 F402.5
G1 X128.80 Y42.80 Z0.20 E103.43 F335.4
G1 X129.30 Y41.80 Z0.20 E103.47 F268.3
G1 X128.80 Y40.80 Z0.20 E103.51 F201.2
G1 X129.30 Y39.80 Z0.20 E103.54 F134.2
G1 X128.80 Y38.80 Z0.20 E103.58 F67.1
M201 X500 Y500
G0 X133.80 Y38.80 Z0.20 E103.58 F6000.0
M593 X D0.95
M203 X500 Y500 ; maximum feedrates
M204 P10000 ; print acceleration
M201 X10000 Y10000 ; max acceleration
M205 X500.00 Y500.00 ; jerk limits very high
M205 J0.3 ; junction deviation maximum
G1 X134.30 Y39.80 Z0.20 E103.62 F67.1
G1 X133.80 Y40.80 Z0.20 E103.66 F134.2
G1 X134.30 Y41.80 Z0.20 E103.69 F201.2
G1 X133.80 Y42.80 Z0.20 E103.73 F268.3
G1 X134.30 Y43.80 Z0.20 E103.77 F335.4
G1 X133.80 Y44.80 Z0.20 E103.80 F402.5
G1 X134.30 Y45.80 Z0.20 E103.84 F469.6
G1 X133.80 Y46.80 Z0.20 E103.88 F536.7
G1 X134.30 Y47.80 Z0.20 E103.92 F603.7
G1 X133.80 Y48.80 Z0.20 E103.95 F670.8
G1 X134.30 Y49.80 Z0.20 E103.99 F737.9
G1 X133.80 Y50.80 Z0.20 E104.03 F805.0
G1 X134.30 Y51.80 Z0.20 E104.06 F872.1
G1 X133.80 Y52.80 Z0.20 E104.10 F939.1
G1 X134.30 Y53.80 Z0.20 E104.14 F1006.2
G1 X133.80 Y54.80 Z0.20 E104.18 F1073.3
G1 X134.30 Y55.80 Z0.20 E104.21 F1140.4
G1 X133.80 Y56.80 Z0.20 E104.25 F1207.5
G1 X134.30 Y57.80 Z0.20 E104.29 F1274.6
G1 X133.80 Y58.80 Z0.20 E104.33 F1341.6
G1 X134.30 Y59.80 Z0.20 E104.36 F1408.7
G1 X133.80 Y60.80 Z0.20 E104.40 F1475.8
G1 X134.30 Y61.80 Z0.20 E104.44 F1542.9
G1 X133.80 Y62.80 Z0.20 E104.47 F1610.0
G1 X134.30 Y63.80 Z0.20 E104.51 F1677.1
G1 X133.80 Y64.80 Z0.20 E104.55 F1744.1
G1 X134.30 Y65.80 Z0.20 E104.59 F1811.2
G1 X133.80 Y66.80 Z0.20 E104.62 F1878.3
G1 X134.30 Y67.80 Z0.20 E104.66 F1945.4
G1 X133.80 Y68.80 Z0.20 E104.70 F2012.5
G1 X134.30 Y69.80 Z0.20 E104.73 F2079.5
G1 X133.80 Y70.80 Z0.20 E104.77 F2146.6
G1 X134.30 Y71.80 Z0.20 E104.81 F2213.7
G1 X133.80 Y72.80 Z0.20 E104.85 F2280.8
G1 X134.30 Y73.80 Z0.20 E104.88 F2347.9
G1 X133.80 Y74.80 Z0.20 E104.92 F2415.0
G1 X134.30 Y75.80 Z0.20 E104.96 F2482.0
G1 X133.80 Y76.80 Z0.20 E104.99 F2549.1
G1 X134.30 Y77.80 Z0.20 E105.03 F2616.2
G1 X133.80 Y78.80 Z0.20 E105.07 F2683.3
G1 X134.30 Y79.80 Z0.20 E105.11 F2750.4
G1 X133.80 Y80.80 Z0.20 E105.14 F2817.4
G1 X134.30 Y81.80 Z0.20 E105.18 F2884.5
G1 X133.80 Y82.80 Z0.20 E105.22 F2951.6
G1 X134.30 Y83.80 Z0.20 E105.25 F3018.7
G1 X133.80 Y84.80 Z0.20 E105.29 F3085.8
G1 X134.30 Y85.80 Z0.20 E105.33 F3152.9
G1 X133.80 Y86.80 Z0.20 E105.37 F3219.9
G1 X134.30 Y87.80 Z0.20 E105.40 F3287.0
G1 X133.80 Y88.80 Z0.20 E105.44 F3354.1
G1 X134.30 Y89.80 Z0.20 E105.48 F3421.2
G1 X133.80 Y90.80 Z0.20 E105.52 F3488.3
G1 X134.30 Y91.80 Z0.20 E105.55 F3555.3
G1 X133.80 Y92.80 Z0.20 E105.59 F3622.4
G1 X134.30 Y93.80 Z0.20 E105.63 F3689.5
G1 X133.80 Y94.80 Z0.20 E105.66 F3756.6
G1 X134.30 Y95.80 Z0.20 E105.70 F3823.7
G1 X133.80 Y96.80 Z0.20 E105.74 F3890.8
G1 X134.30 Y97.80 Z0.20 E105.78 F3957.8
G1 X133.80 Y98.80 Z0.20 E105.81 F4024.9
G1 X134.30 Y99.80 Z0.20 E105.85 F4092.0
G1 X133.80 Y100.80 Z0.20 E105.89 F4159.1
G1 X134.30 Y101.80 Z0.20 E105.92 F4226.2
G1 X133.80 Y102.80 Z0.20 E105.96 F4293.3
G1 X134.30 Y103.80 Z0.20 E106.00 F4360.3
G1 X133.80 Y104.80 Z0.20 E106.04 F4427.4
G1 X134.30 Y105.80 Z0.20 E106.07 F4494.5
G1 X133.80 Y106.80 Z0.20 E106.11 F4561.6
G1 X134.30 Y107.80 Z0.20 E106.15 F4628.7
G1 X133.80 Y108.80 Z0.20 E106.18 F4695.7
G1 X134.30 Y109.80 Z0.20 E106.22 F4762.8
G1 X133.80 Y110.80 Z0.20 E106.26 F4829.9
G1 X134.30 Y111.80 Z0.20 E106.30 F4897.0
G1 X133.80 Y112.80 Z0.20 E106.33 F4964.1
G1 X134.30 Y113.80 Z0.20 E106.37 F5031.2
G1 X133.80 Y114.80 Z0.20 E106.41 F5098.2
G1 X134.30 Y115.80 Z0.20 E106.44 F5165.3
G1 X133.80 Y116.80 Z0.20 E106.48 F5232.4
G1 X134.30 Y117.80 Z0.20 E106.52 F5299.5
G1 X133.80 Y118.80 Z0.20 E106.56 F5366.6
G1 X134.30 Y119.80 Z0.20 E106.59 F5433.6
G1 X133.80 Y120.80 Z0.20 E106.63 F5500.7
G1 X134.30 Y121.80 Z0.20 E106.67 F5567.8
G1 X133.80 Y122.80 Z0.20 E106.71 F5634.9
G1 X134.30 Y123.80 Z0.20 E106.74 F5702.0
G1 X133.80 Y124.80 Z0.20 E106.78 F5769.1
G1 X134.30 Y125.80 Z0.20 E106.82 F5836.1
G1 X133.80 Y126.80 Z0.20 E106.85 F5903.2
G1 X134.30 Y127.80 Z0.20 E106.89 F5970.3
G1 X133.80 Y128.80 Z0.20 E106.93 F6037.4
G1 X134.30 Y129.80 Z0.20 E106.97 F6104.5
G1 X133.80 Y130.80 Z0.20 E107.00 F6171.5
G1 X134.30 Y131.80 Z0.20 E107.04 F6238.6
G1 X133.80 Y132.80 Z0.20 E107.08 F6305.7
G1 X134.30 Y133.80 Z0.20 E107.11 F6372.8
G1 X133.80 Y134.80 Z0.20 E107.15 F6439.9
G1 X134.30 Y135.80 Z0.20 E107.19 F6507.0
G1 X133.80 Y136.80 Z0.20 E107.23 F6574.0
G1 X134.30 Y137.80 Z0.20 E107.26 F6641.1
G1 X133.80 Y138.80 Z0.20 E107.30 F6708.2
G1 X134.30 Y139.80 Z0.20 E107.34 F6775.3
G1 X133.80 Y140.80 Z0.20 E107.37 F6842.4
G1 X134.30 Y141.80 Z0.20 E107.41 F6909.5
G1 X133.80 Y142.80 Z0.20 E107.45 F6976.5
G1 X134.30 Y143.80 Z0.20 E107.49 F7043.6
G1 X133.80 Y144.80 Z0.20 E107.52 F7110.7
G1 X134.30 Y145.80 Z0.20 E107.56 F7177.8
G1 X133.80 Y146.80 Z0.20 E107.60 F7244.9
G1 X134.30 Y147.80 Z0.20 E107.63 F7311.9
G1 X133.80 Y148.80 Z0.20 E107.67 F7379.0
G1 X134.30 Y149.80 Z0.20 E107.71 F7446.1
G1 X133.80 Y150.80 Z0.20 E107.75 F7513.2
G1 X134.30 Y151.80 Z0.20 E107.78 F7580.3
G1 X133.80 Y152.80 Z0.20 E107.82 F7647.4
G1 X134.30 Y153.80 Z0.20 E107.86 F7714.4
G1 X133.80 Y154.80 Z0.20 E107.90 F7781.5
G1 X134.30 Y155.80 Z0.20 E107.93 F7848.6
G1 X133.80 Y156.80 Z0.20 E107.97 F7915.7
G1 X134.30 Y157.80 Z0.20 E108.01 F7982.8
G1 X133.80 Y158.80 Z0.20 E108.04 F8049.8
M201 X500 Y500
G1 X133.80 Y173.20 Z0.20 E108.52

G0 X138.80 Y173.20 Z0.20 E108.52 F6000.0
M593 X D1.00
G1 X138.80 Y158.80 Z0.20 E109.00 F8049.8
M203 X500 Y500 ; maximum feedrates
M204 P10000 ; print acceleration
M201 X10000 Y10000 ; max acceleration
M205 X500.00 Y500.00 ; jerk limits very high
M205 J0.3 ; junction deviation maximum
G1 X139.30 Y157.80 Z0.20 E109.04 F8049.8
G1 X138.80 Y156.80 Z0.20 E109.08 F7982.8
G1 X139.30 Y155.80 Z0.20 E109.11 F7915.7
G1 X138.80 Y154.80 Z0.20 E109.15 F7848.6
G1 X139.30 Y153.80 Z0.20 E109.19 F7781.5
G1 X138.80 Y152.80 Z0.20 E109.22 F7714.4
G1 X139.30 Y151.80 Z0.20 E109.26 F7647.4
G1 X138.80 Y150.80 Z0.20 E109.30 F7580.3
G1 X139.30 Y149.80 Z0.20 E109.34 F7513.2
G1 X138.80 Y148.80 Z0.20 E109.37 F7446.1
G1 X139.30 Y147.80 Z0.20 E109.41 F7379.0
G1 X138.80 Y146.80 Z0.20 E109.45 F7311.9
G1 X139.30 Y145.80 Z0.20 E109.49 F7244.9
G1 X138.80 Y144.80 Z0.20 E109.52 F7177.8
G1 X139.30 Y143.80 Z0.20 E109.56 F7110.7
G1 X138.80 Y142.80 Z0.20 E109.60 F7043.6
G1 X139.30 Y141.80 Z0.20 E109.63 F6976.5
G1 X138.80 Y140.80 Z0.20 E109.67 F6909.5
G1 X139.30 Y139.80 Z0.20 E109.71 F6842.4
G1 X138.80 Y138.80 Z0.20 E109.75 F6775.3
G1 X139.30 Y137.80 Z0.20 E109.78 F6708.2
G1 X138.80 Y136.80 Z0.20 E109.82 F6641.1
G1 X139.30 Y135.80 Z0.20 E109.86 F6574.0
G1 X138.80 Y134.80 Z0.20 E109.89 F6507.0
G1 X139.30 Y133.80 Z0.20 E109.93 F6439.9
G1 X138.80 Y132.80 Z0.20 E109.97 F6372.8
G1 X139.30 Y131.80 Z0.20 E110.01 F6305.7
G1 X138.80 Y130.80 Z0.20 E110.04 F6238.6
G1 X139.30 Y129.80 Z0.20 E110.08 F6171.5
G1 X138.80 Y128.80 Z0.20 E110.12 F6104.5
G1 X139.30 Y127.80 Z0.20 E110.15 F6037.4
G1 X138.80 Y126.80 Z0.20 E110.19 F5970.3
G1 X139.30 Y125.80 Z0.20 E110.23 F5903.2
G1 X138.80 Y124.80 Z0.20 E110.27 F5836.1
G1 X139.30 Y123.80 Z0.20 E110.30 F5769.1
G1 X138.80 Y122.80 Z0.20 E110.34 F5702.0
G1 X139.30 Y121.80 Z0.20 E110.38 F5634.9
G1 X138.80 Y120.80 Z0.20 E110.41 F5567.8
G1 X139.30 Y119.80 Z0.20 E110.45 F5500.7
G1 X138.80 Y118.80 Z0.20 E110.49 F5433.6
G1 X139.30 Y117.80 Z0.20 E110.53 F5366.6
G1 X138.80 Y116.80 Z0.20 E110.56 F5299.5
G1 X139.30 Y115.80 Z0.20 E110.60 F5232.4
G1 X138.80 Y114.80 Z0.20 E110.64 F5165.3
G1 X139.30 Y113.80 Z0.20 E110.68 F5098.2
G1 X138.80 Y112.80 Z0.20 E110.71 F5031.2
G1 X139.30 Y111.80 Z0.20 E110.75 F4964.1
G1 X138.80 Y110.80 Z0.20 E110.79 F4897.0
G1 X139.30 Y109.80 Z0.20 E110.82 F4829.9
G1 X138.80 Y108.80 Z0.20 E110.86 F4762.8
G1 X139.30 Y107.80 Z0.20 E110.90 F4695.7
G1 X138.80 Y106.80 Z0.20 E110.94 F4628.7
G1 X139.30 Y105.80 Z0.20 E110.97 F4561.6
G1 X138.80 Y104.80 Z0.20 E111.01 F4494.5
G1 X139.30 Y103.80 Z0.20 E111.05 F4427.4
G1 X138.80 Y102.80 Z0.20 E111.08 F4360.3
G1 X139.30 Y101.80 Z0.20 E111.12 F4293.3
G1 X138.80 Y100.80 Z0.20 E111.16 F4226.2
G1 X139.30 Y99.80 Z0.20 E111.20 F4159.1
G1 X138.80 Y98.80 Z0.20 E111.23 F4092.0
G1 X139.30 Y97.80 Z0.20 E111.27 F4024.9
G1 X138.80 Y96.80 Z0.20 E111.31 F3957.8
G1 X139.30 Y95.80 Z0.20 E111.34 F3890.8
G1 X138.80 Y94.80 Z0.20 E111.38 F3823.7
G1 X139.30 Y93.80 Z0.20 E111.42 F3756.6
G1 X138.80 Y92.80 Z0.20 E111.46 F3689.5
G1 X139.30 Y91.80 Z0.20 E111.49 F3622.4
G1 X138.80 Y90.80 Z0.20 E111.53 F3555.3
G1 X139.30 Y89.80 Z0.20 E111.57 F3488.3
G1 X138.80 Y88.80 Z0.20 E111.60 F3421.2
G1 X139.30 Y87.80 Z0.20 E111.64 F3354.1
G1 X138.80 Y86.80 Z0.20 E111.68 F3287.0
G1 X139.30 Y85.80 Z0.20 E111.72 F3219.9
G1 X138.80 Y84.80 Z0.20 E111.75 F3152.9
G1 X139.30 Y83.80 Z0.20 E111.79 F3085.8
G1 X138.80 Y82.80 Z0.20 E111.83 F3018.7
G1 X139.30 Y81.80 Z0.20 E111.87 F2951.6
G1 X138.80 Y80.80 Z0.20 E111.90 F2884.5
G1 X139.30 Y79.80 Z0.20 E111.94 F2817.4
G1 X138.80 Y78.80 Z0.20 E111.98 F2750.4
G1 X139.30 Y77.80 Z0.20 E112.01 F2683.3
G1 X138.80 Y76.80 Z0.20 E112.05 F2616.2
G1 X139.30 Y75.80 Z0.20 E112.09 F2549.1
G1 X138.80 Y74.80 Z0.20 E112.13 F2482.0
G1 X139.30 Y73.80 Z0.20 E112.16 F2415.0
G1 X138.80 Y72.80 Z0.20 E112.20 F2347.9
G1 X139.30 Y71.80 Z0.20 E112.24 F2280.8
G1 X138.80 Y70.80 Z0.20 E112.27 F2213.7
G1 X139.30 Y69.80 Z0.20 E112.31 F2146.6
G1 X138.80 Y68.80 Z0.20 E112.35 F2079.5
G1 X139.30 Y67.80 Z0.20 E112.39 F2012.5
G1 X138.80 Y66.80 Z0.20 E112.42 F1945.4
G1 X139.30 Y65.80 Z0.20 E112.46 F1878.3
G1 X138.80 Y64.80 Z0.20 E112.50 F1811.2
G1 X139.30 Y63.80 Z0.20 E112.53 F1744.1
G1 X138.80 Y62.80 Z0.20 E112.57 F1677.1
G1 X139.30 Y61.80 Z0.20 E112.61 F1610.0
G1 X138.80 Y60.80 Z0.20 E112.65 F1542.9
G1 X139.30 Y59.80 Z0.20 E112.68 F1475.8
G1 X138.80 Y58.80 Z0.20 E112.72 F1408.7
G1 X139.30 Y57.80 Z0.20 E112.76 F1341.6
G1 X138.80 Y56.80 Z0.20 E112.79 F1274.6
G1 X139.30 Y55.80 Z0.20 E112.83 F1207.5
