; G-Code originally generated by Simplify3D(R) Version 4.1.2
; This calibration test gcode modified by the Teaching Tech Calibration website: https://teachingtechyt.github.io/calibration.html
;M80 ; power supply on
G90
M82
M106 S0
M140 S60 ; custom bed temp
M190 S60 ; custom bed temp
M104 S150 T0 ; custom hot end temp minus 50 degrees
G28 ; home all axes
;G29 ; probe ABL
M420 S1 ; restore ABL mesh
M109 S200 T0 ; custom hot end temp 
;customstart
G0 Z3; fix for delta printers that home at max
M201 X50000 Y50000; custom raise acceleration limits
M204 P3000 T3000 ; custom acceleration - A
M205 X8 Y8 ; custom jerk - A
;layer 1, Z = 0.200
T0
G92 E0.0000
G1 E-6 F2400 ; custom retraction
;fan1;
G1 Z0.200 F1200
G1 X64.9080 Y142.7420 F6000
G1 E0 F2400 ; custom un-retraction/prime
G92 E0.0000
G1 X64.9080 Y61.4240 E3.5052 F1800
G1 X66.4260 Y59.9060 E3.5978
G1 X153.5740 Y59.9060 E7.3542
G1 X155.0920 Y61.4240 E7.4468
G1 X155.0920 Y94.7060 E8.8814
G1 X154.6610 Y95.6950 E8.9279
G1 X121.1090 Y126.9460 E10.9044
G1 X120.1940 Y127.3060 E10.9468
G1 X119.8900 Y127.3060 E10.9599
G1 X119.8900 Y127.4930 E10.9679
G1 X119.4590 Y128.4830 E11.0144
G1 X85.0230 Y160.5570 E13.0429
G1 X81.9080 Y159.2010 E13.1894
G1 X81.9080 Y144.2600 E13.8334
G1 X66.4260 Y144.2600 E14.5007
G1 X64.9080 Y142.7420 E14.5933
G92 E0.0000
G1 E-6 F2400 ; custom retraction
;zhop1
G1 X65.4840 Y142.5030 F6000
G1 Z0.200 F1200
G1 E0 F2400 ; custom un-retraction/prime
G92 E0.0000
G1 X65.4840 Y61.6630 E3.4846 F1800
G1 X66.6650 Y60.4820 E3.5566
G1 X153.3350 Y60.4820 E7.2925
G1 X154.5160 Y61.6630 E7.3645
G1 X154.5160 Y94.5860 E8.7837
G1 X154.1810 Y95.3550 E8.8198
G1 X120.7960 Y126.4500 E10.7864
G1 X120.0840 Y126.7300 E10.8194
G1 X119.3140 Y126.7300 E10.8526
G1 X119.3140 Y127.3730 E10.8803
G1 X118.9790 Y128.1430 E10.9165
G1 X84.9070 Y159.8780 E12.9236
G1 X82.4840 Y158.8230 E13.0375
G1 X82.4840 Y143.6840 E13.6900
G1 X66.6650 Y143.6840 E14.3719
G1 X65.4840 Y142.5030 E14.4439
G92 E0.0000
G1 E-6 F2400 ; custom retraction
;zhop1
G1 X66.0600 Y142.2640 F6000
G1 Z0.200 F1200
G1 E0 F2400 ; custom un-retraction/prime
G92 E0.0000
G1 X66.0600 Y61.9020 E3.4641 F1800
G1 X66.9040 Y61.0580 E3.5155
G1 X153.0960 Y61.0580 E7.2308
G1 X153.9400 Y61.9020 E7.2823
G1 X153.9400 Y94.4660 E8.6859
G1 X153.7010 Y95.0150 E8.7118
G1 X120.4840 Y125.9540 E10.6685
G1 X119.9750 Y126.1540 E10.6920
G1 X118.7380 Y126.1540 E10.7454
G1 X118.7380 Y127.2530 E10.7927
G1 X118.4990 Y127.8030 E10.8186
G1 X84.7910 Y159.1990 E12.8042
G1 X83.0600 Y158.4460 E12.8856
G1 X83.0600 Y143.1080 E13.5467
G1 X66.9040 Y143.1080 E14.2431
G1 X66.0600 Y142.2640 E14.2945
G92 E0.0000
G1 E-6 F2400 ; custom retraction
;zhop1
G1 X66.6360 Y142.0260 F6000
G1 Z0.200 F1200
G1 E0 F2400 ; custom un-retraction/prime
G92 E0.0000
G1 X66.6360 Y62.1400 E3.4435 F1800
G1 X67.1420 Y61.6340 E3.4743
G1 X152.8580 Y61.6340 E7.1691
G1 X153.3640 Y62.1400 E7.2000
G1 X153.3640 Y94.3460 E8.5882
G1 X153.2200 Y94.6760 E8.6037
G1 X120.1710 Y125.4580 E10.5505
G1 X119.8660 Y125.5780 E10.5647
G1 X118.1620 Y125.5780 E10.6381
G1 X118.1620 Y127.1330 E10.7052
G1 X118.0180 Y127.4630 E10.7207
G1 X84.6740 Y158.5200 E12.6848
G1 X83.6360 Y158.0680 E12.7337
G1 X83.6360 Y142.5320 E13.4033
G1 X67.1420 Y142.5320 E14.1143
G1 X66.6360 Y142.0260 E14.1452
G92 E0.0000
G1 E-6 F2400 ; custom retraction
;zhop1
G1 X67.2120 Y141.7870 F6000
G1 Z0.200 F1200
G1 E0 F2400 ; custom un-retraction/prime
G92 E0.0000
G1 X67.2120 Y62.3790 E3.4229 F1800
G1 X67.3810 Y62.2100 E3.4332
G1 X152.6190 Y62.2100 E7.1074
G1 X152.7880 Y62.3790 E7.1177
G1 X152.7880 Y94.2260 E8.4905
G1 X152.7400 Y94.3360 E8.4957
G1 X119.8580 Y124.9620 E10.4326
G1 X119.7570 Y125.0020 E10.4373
G1 X117.5860 Y125.0020 E10.5309
G1 X117.5860 Y127.0140 E10.6176
G1 X117.5380 Y127.1240 E10.6227
G1 X84.5580 Y157.8410 E12.5655
G1 X84.2120 Y157.6910 E12.5817
G1 X84.2120 Y141.9560 E13.2600
G1 X67.3810 Y141.9560 E13.9855
G1 X67.2120 Y141.7870 E13.9958
G92 E0.0000
G1 E-6 F2400 ; custom retraction
;zhop1
G1 X67.7880 Y141.3800 F6000
G1 X67.7880 Y141.2960
G1 X68.3640 Y140.8040
G1 Z0.200 F1200
G1 E0 F2400 ; custom un-retraction/prime
G92 E0.0000
G1 X68.3640 Y63.3620 E3.3381 F1440
G1 X151.6360 Y63.3620 E6.9276
G1 X151.6360 Y93.7900 E8.2392
G1 X119.3620 Y123.8500 E10.1403
G1 X116.4340 Y123.8500 E10.2666
G1 X116.4340 Y126.5780 E10.3841
G1 X85.3640 Y155.5170 E12.2143
G1 X85.3640 Y140.8040 E12.8485
G1 X68.3640 Y140.8040 E13.5813
G1 X67.7880 Y141.3800 F6000
G92 E0.0000
G1 X67.7880 Y62.7860 E3.3878 F1080
G1 X152.2120 Y62.7860 E7.0269
G1 X152.2120 Y94.0410 E8.3741
G1 X119.5890 Y124.4260 E10.2959
G1 X117.0100 Y124.4260 E10.4070
G1 X117.0100 Y126.8280 E10.5106
G1 X84.7880 Y156.8400 E12.4086
G1 X84.7880 Y141.3800 E13.0751
G1 X67.7880 Y141.3800 E13.8078
G92 E0.0000
G1 E-6 F2400 ; custom retraction
;layer 2, Z = 0.400
M106 S255; custom fan 100% from layer 2
G1 Z0.400 F1200
G1 X68.2200 Y140.9480 F6000
G1 E0 F2400 ; custom un-retraction/prime
G92 E0.0000
G1 X68.2200 Y63.2180 E2.7921 F3600 ; custom outer perimeter feedrate
G1 X151.7800 Y63.2180 E5.7937
G1 X151.7800 Y93.8530 E6.8941
G1 X119.4190 Y123.9940 E8.4827
G1 X116.5780 Y123.9940 E8.5847
G1 X116.5780 Y126.6400 E8.6798
G1 X85.2200 Y155.8470 E10.2191
G1 X85.2200 Y140.9480 E10.7543
G1 X68.2200 Y140.9480 E11.3650
G1 X67.7400 Y141.4280 F6000
G92 E0.0000
G1 X67.7400 Y62.7380 E2.8266 F3600 ; custom inner perimeter feedrate
G1 X152.2600 Y62.7380 E5.8627
G1 X152.2600 Y94.0620 E6.9878
G1 X119.6080 Y124.4740 E8.5907
G1 X117.0580 Y124.4740 E8.6823
G1 X117.0580 Y126.8490 E8.7676
G1 X84.7400 Y156.9500 E10.3540
G1 X84.7400 Y141.4280 E10.9116
G1 X67.7400 Y141.4280 E11.5223
G92 E0.0000
G1 E-6 F2400 ; custom retraction
;layer 3, Z = 0.600
;fan3;
G1 Z0.600 F1200
G1 X68.2200 Y140.9480 F6000
G1 E0 F2400 ; custom un-retraction/prime
G92 E0.0000
G1 X68.2200 Y84.3970 E2.0314 F3600 ; custom outer perimeter feedrate
G1 X68.6450 Y84.3970 E2.0466
G1 X68.6450 Y80.4520 E2.1883
G1 X68.2200 Y80.4520 E2.2036
G1 X68.2200 Y63.2180 E2.8227
G1 X130.1810 Y63.2180 E5.0484
G1 X130.1810 Y63.6140 E5.0626
G1 X132.0140 Y63.6140 E5.1284
G1 X132.0140 Y63.2180 E5.1426
G1 X151.7800 Y63.2180 E5.8527
G1 X151.7800 Y93.8530 E6.9531
G1 X119.4190 Y123.9940 E8.5417
G1 X116.5780 Y123.9940 E8.6437
G1 X116.5780 Y126.6400 E8.7387
G1 X85.2200 Y155.8470 E10.2781
G1 X85.2200 Y140.9480 E10.8133
G1 X68.2200 Y140.9480 E11.4239
G1 X67.7400 Y141.4280 F6000
G92 E0.0000
G1 X67.7400 Y83.9170 E2.0659 F3600 ; custom inner perimeter feedrate
G1 X68.1650 Y83.9170 E2.0811
G1 X68.1650 Y83.0500 E2.1123
G1 X67.7400 Y83.0500 E2.1275
G1 X67.7400 Y81.8270 E2.1715
G1 X68.1650 Y81.8270 E2.1867
G1 X68.1650 Y80.9320 E2.2189
G1 X67.7400 Y80.9320 E2.2341
G1 X67.7400 Y62.7380 E2.8877
G1 X130.6610 Y62.7380 E5.1479
G1 X130.6610 Y63.1340 E5.1621
G1 X131.5340 Y63.1340 E5.1934
G1 X131.5340 Y62.7380 E5.2076
G1 X152.2600 Y62.7380 E5.9522
G1 X152.2600 Y94.0620 E7.0773
G1 X119.6080 Y124.4740 E8.6802
G1 X117.0580 Y124.4740 E8.7718
G1 X117.0580 Y126.8490 E8.8571
G1 X84.7400 Y156.9500 E10.4435
G1 X84.7400 Y141.4280 E11.0011
G1 X67.7400 Y141.4280 E11.6118
G1 X68.3520 Y82.6070 F6000
G92 E0.0000
G1 X68.0280 Y82.2830 E0.0165 F3600 ; custom outer perimeter feedrate
G92 E0.0000
G1 E-6 F2400 ; custom retraction
;layer 4, Z = 0.800
;fan4;
G1 Z0.800 F1200
G1 X68.0310 Y83.0500 F6000
G1 X68.1650 Y83.0500
G1 X68.1650 Y83.9170
G1 X68.0330 Y83.9170
G1 X68.2200 Y140.9480
G1 E0 F2400 ; custom un-retraction/prime
G92 E0.0000
G1 X68.2200 Y84.2960 E2.0350 F3600 ; custom outer perimeter feedrate
G1 X68.6450 Y84.2960 E2.0503
G1 X68.6450 Y80.5530 E2.1847
G1 X68.2200 Y80.5530 E2.2000
G1 X68.2200 Y63.2180 E2.8227
G1 X130.1810 Y63.2180 E5.0484
G1 X130.1810 Y63.6140 E5.0626
G1 X132.0140 Y63.6140 E5.1284
G1 X132.0140 Y63.2180 E5.1426
G1 X151.7800 Y63.2180 E5.8527
G1 X151.7800 Y93.8530 E6.9531
G1 X119.4190 Y123.9940 E8.5417
G1 X116.5780 Y123.9940 E8.6437
G1 X116.5780 Y126.6400 E8.7387
G1 X85.2200 Y155.8470 E10.2781
G1 X85.2200 Y140.9480 E10.8133
G1 X68.2200 Y140.9480 E11.4239
G1 X67.7400 Y141.4280 F6000
G92 E0.0000
G1 X67.7400 Y83.8160 E2.0695 F3600 ; custom inner perimeter feedrate
G1 X68.1650 Y83.8160 E2.0847
G1 X68.1650 Y82.9510 E2.1158
G1 X67.7400 Y82.9510 E2.1311
G1 X67.7400 Y81.9240 E2.1680
G1 X68.1650 Y81.9240 E2.1833
G1 X68.1650 Y81.0330 E2.2153
G1 X67.7400 Y81.0330 E2.2305
G1 X67.7400 Y62.7380 E2.8877
G1 X130.6610 Y62.7380 E5.1479
G1 X130.6610 Y63.1340 E5.1621
G1 X131.5340 Y63.1340 E5.1934
G1 X131.5340 Y62.7380 E5.2076
G1 X152.2600 Y62.7380 E5.9522
G1 X152.2600 Y94.0620 E7.0773
G1 X119.6080 Y124.4740 E8.6802
G1 X117.0580 Y124.4740 E8.7718
G1 X117.0580 Y126.8490 E8.8571
G1 X84.7400 Y156.9500 E10.4435
G1 X84.7400 Y141.4280 E11.0011
G1 X67.7400 Y141.4280 E11.6118
G1 X68.0900 Y83.8160 F6000
G1 X68.1650 Y83.8160
G1 X68.1650 Y82.9510
G1 X68.0950 Y82.9510
G1 X68.0970 Y82.6630
G92 E0.0000
G1 X68.3520 Y82.4080 E0.0130 F3600 ; custom outer perimeter feedrate
G92 E0.0000
G1 E-6 F2400 ; custom retraction
;layer 5, Z = 1.000
;fan5;
;
G1 Z1.000 F1200
G1 X68.2200 Y140.9480 F6000
G1 E0 F2400 ; custom un-retraction/prime
G92 E0.0000
G1 X68.2200 Y84.1950 E2.0386 F3600 ; custom outer perimeter feedrate
G1 X68.6450 Y84.1950 E2.0539
G1 X68.6450 Y80.6530 E2.1811
G1 X68.2200 Y80.6530 E2.1964
G1 X68.2200 Y63.2180 E2.8227
G1 X130.1810 Y63.2180 E5.0484
G1 X130.1810 Y63.6140 E5.0626
G1 X132.0140 Y63.6140 E5.1284
G1 X132.0140 Y63.2180 E5.1426
G1 X151.7800 Y63.2180 E5.8527
G1 X151.7800 Y93.8530 E6.9531
G1 X119.4190 Y123.9940 E8.5417
G1 X116.5780 Y123.9940 E8.6437
G1 X116.5780 Y126.6400 E8.7387
G1 X85.2200 Y155.8470 E10.2781
G1 X85.2200 Y140.9480 E10.8133
G1 X68.2200 Y140.9480 E11.4239
G1 X67.7400 Y141.4280 F6000
G92 E0.0000
G1 X67.7400 Y83.7150 E2.0731 F3600 ; custom inner perimeter feedrate
G1 X68.1650 Y83.7150 E2.0884
G1 X68.1650 Y82.8530 E2.1193
G1 X67.7400 Y82.8530 E2.1346
G1 X67.7400 Y82.0200 E2.1645
G1 X68.1650 Y82.0200 E2.1798
G1 X68.1650 Y81.1330 E2.2116
G1 X67.7400 Y81.1330 E2.2269
G1 X67.7400 Y62.7380 E2.8877
G1 X130.6610 Y62.7380 E5.1479
G1 X130.6610 Y63.1340 E5.1621
G1 X131.5340 Y63.1340 E5.1934
G1 X131.5340 Y62.7380 E5.2076
G1 X152.2600 Y62.7380 E5.9522
G1 X152.2600 Y94.0620 E7.0773
G1 X119.6080 Y124.4740 E8.6802
G1 X117.0580 Y124.4740 E8.7718
G1 X117.0580 Y126.8490 E8.8571
G1 X84.7400 Y156.9500 E10.4435
G1 X84.7400 Y141.4280 E11.0011
G1 X67.7400 Y141.4280 E11.6118
G1 X68.3090 Y82.5650 F6000
G92 E0.0000
G1 X68.0530 Y82.3080 E0.0130 F3600 ; custom outer perimeter feedrate
G92 E0.0000
G1 E-6 F2400 ; custom retraction
;layer 6, Z = 1.200
;fan6;
G1 Z1.200 F1200
G1 X68.0550 Y82.8530 F6000
G1 X68.1650 Y82.8530
G1 X68.1650 Y83.7150
G1 X68.0570 Y83.7150
G1 X68.2200 Y140.9480
G1 E0 F2400 ; custom un-retraction/prime
G92 E0.0000
G1 X68.2200 Y84.0950 E2.0422 F3600 ; custom outer perimeter feedrate
G1 X68.6450 Y84.0950 E2.0575
G1 X68.6450 Y80.7530 E2.1775
G1 X68.2200 Y80.7530 E2.1928
G1 X68.2200 Y63.2180 E2.8227
G1 X130.1810 Y63.2180 E5.0484
G1 X130.1810 Y63.6140 E5.0626
G1 X132.0140 Y63.6140 E5.1284
G1 X132.0140 Y63.2180 E5.1426
G1 X151.7800 Y63.2180 E5.8527
G1 X151.7800 Y93.8530 E6.9531
G1 X119.4190 Y123.9940 E8.5417
G1 X116.5780 Y123.9940 E8.6437
G1 X116.5780 Y126.6400 E8.7387
G1 X85.2200 Y155.8470 E10.2781
G1 X85.2200 Y140.9480 E10.8133
G1 X68.2200 Y140.9480 E11.4239
G1 X67.7400 Y141.4280 F6000
G92 E0.0000
G1 X67.7400 Y83.6150 E2.0767 F3600 ; custom inner perimeter feedrate
G1 X68.1650 Y83.6150 E2.0920
G1 X68.1650 Y82.7540 E2.1229
G1 X67.7400 Y82.7540 E2.1381
G1 X67.7400 Y82.1170 E2.1610
G1 X68.1650 Y82.1170 E2.1763
G1 X68.1650 Y81.2330 E2.2080
G1 X67.7400 Y81.2330 E2.2233
G1 X67.7400 Y62.7380 E2.8877
G1 X130.6610 Y62.7380 E5.1479
G1 X130.6610 Y63.1340 E5.1621
G1 X131.5340 Y63.1340 E5.1934
G1 X131.5340 Y62.7380 E5.2076
G1 X152.2600 Y62.7380 E5.9522
G1 X152.2600 Y94.0620 E7.0773
G1 X119.6080 Y124.4740 E8.6802
G1 X117.0580 Y124.4740 E8.7718
G1 X117.0580 Y126.8490 E8.8571
G1 X84.7400 Y156.9500 E10.4435
G1 X84.7400 Y141.4280 E11.0011
G1 X67.7400 Y141.4280 E11.6118
G1 X68.2940 Y82.4660 F6000
G92 E0.0000
G1 X68.3520 Y82.4080 E0.0030 F3600 ; custom outer perimeter feedrate
G92 E0.0000
G1 E-6 F2400 ; custom retraction
;layer 7, Z = 1.400
;fan7;
G1 Z1.400 F1200
G1 X68.2200 Y140.9480 F6000
G1 E0 F2400 ; custom un-retraction/prime
G92 E0.0000
G1 X68.2200 Y83.9940 E2.0458 F3600 ; custom outer perimeter feedrate
G1 X68.6450 Y83.9940 E2.0611
G1 X68.6450 Y80.8540 E2.1739
G1 X68.2200 Y80.8540 E2.1892
G1 X68.2200 Y63.2180 E2.8227
G1 X130.1810 Y63.2180 E5.0484
G1 X130.1810 Y63.6140 E5.0626
G1 X132.0140 Y63.6140 E5.1284
G1 X132.0140 Y63.2180 E5.1426
G1 X151.7800 Y63.2180 E5.8527
G1 X151.7800 Y93.8530 E6.9531
G1 X119.4190 Y123.9940 E8.5417
G1 X116.5780 Y123.9940 E8.6437
G1 X116.5780 Y126.6400 E8.7387
G1 X85.2200 Y155.8470 E10.2781
G1 X85.2200 Y140.9480 E10.8133
G1 X68.2200 Y140.9480 E11.4239
G1 X67.7400 Y141.4280 F6000
G92 E0.0000
G1 X67.7400 Y83.5140 E2.0803 F3600 ; custom inner perimeter feedrate
G1 X68.1650 Y83.5140 E2.0956
G1 X68.1650 Y82.6560 E2.1264
G1 X67.7400 Y82.6560 E2.1417
G1 X67.7400 Y82.2140 E2.1576
G1 X68.1650 Y82.2140 E2.1728
G1 X68.1650 Y81.3340 E2.2044
G1 X67.7400 Y81.3340 E2.2197
G1 X67.7400 Y62.7380 E2.8877
G1 X130.6610 Y62.7380 E5.1479
G1 X130.6610 Y63.1340 E5.1621
G1 X131.5340 Y63.1340 E5.1934
G1 X131.5340 Y62.7380 E5.2076
G1 X152.2600 Y62.7380 E5.9522
G1 X152.2600 Y94.0620 E7.0773
G1 X119.6080 Y124.4740 E8.6802
G1 X117.0580 Y124.4740 E8.7718
G1 X117.0580 Y126.8490 E8.8571
G1 X84.7400 Y156.9500 E10.4435
G1 X84.7400 Y141.4280 E11.0011
G1 X67.7400 Y141.4280 E11.6118
G92 E0.0000
G1 E-6 F2400 ; custom retraction
;layer 8, Z = 1.600
;fan8;
G1 Z1.600 F1200
G1 X68.2200 Y140.9480 F6000
G1 E0 F2400 ; custom un-retraction/prime
G92 E0.0000
G1 X68.2200 Y83.8930 E2.0495 F3600 ; custom outer perimeter feedrate
G1 X68.6450 Y83.8930 E2.0647
G1 X68.6450 Y80.9540 E2.1703
G1 X68.2200 Y80.9540 E2.1856
G1 X68.2200 Y63.2180 E2.8227
G1 X130.1810 Y63.2180 E5.0484
G1 X130.1810 Y63.6140 E5.0626
G1 X132.0140 Y63.6140 E5.1284
G1 X132.0140 Y63.2180 E5.1426
G1 X151.7800 Y63.2180 E5.8527
G1 X151.7800 Y93.8530 E6.9531
G1 X119.4190 Y123.9940 E8.5417
G1 X116.5780 Y123.9940 E8.6437
G1 X116.5780 Y126.6400 E8.7387
G1 X85.2200 Y155.8470 E10.2781
G1 X85.2200 Y140.9480 E10.8133
G1 X68.2200 Y140.9480 E11.4239
G1 X67.7400 Y141.4280 F6000
G92 E0.0000
G1 X67.7400 Y83.4130 E2.0840 F3600 ; custom inner perimeter feedrate
G1 X68.1650 Y83.4130 E2.0992
G1 X68.1650 Y82.5570 E2.1300
G1 X67.7400 Y82.5570 E2.1452
G1 X67.7400 Y82.3110 E2.1541
G1 X68.1650 Y82.3110 E2.1693
G1 X68.1650 Y81.4340 E2.2008
G1 X67.7400 Y81.4340 E2.2161
G1 X67.7400 Y62.7380 E2.8877
G1 X130.6610 Y62.7380 E5.1479
G1 X130.6610 Y63.1340 E5.1621
G1 X131.5340 Y63.1340 E5.1934
G1 X131.5340 Y62.7380 E5.2076
G1 X152.2600 Y62.7380 E5.9522
G1 X152.2600 Y94.0620 E7.0773
G1 X119.6080 Y124.4740 E8.6802
G1 X117.0580 Y124.4740 E8.7718
G1 X117.0580 Y126.8490 E8.8571
G1 X84.7400 Y156.9500 E10.4435
G1 X84.7400 Y141.4280 E11.0011
G1 X67.7400 Y141.4280 E11.6118
G92 E0.0000
G1 E-6 F2400 ; custom retraction
;layer 9, Z = 1.800
;fan9;
G1 Z1.800 F1200
G1 X68.2200 Y140.9480 F6000
G1 E0 F2400 ; custom un-retraction/prime
G92 E0.0000
G1 X68.2200 Y83.7920 E2.0531 F3600 ; custom outer perimeter feedrate
G1 X68.6450 Y83.7920 E2.0684
G1 X68.6450 Y81.0550 E2.1667
G1 X68.2200 Y81.0550 E2.1820
G1 X68.2200 Y63.2180 E2.8227
G1 X130.1810 Y63.2180 E5.0484
G1 X130.1810 Y63.6140 E5.0626
G1 X132.0140 Y63.6140 E5.1284
G1 X132.0140 Y63.2180 E5.1426
G1 X151.7800 Y63.2180 E5.8527
G1 X151.7800 Y93.8530 E6.9531
G1 X119.4190 Y123.9940 E8.5417
G1 X116.5780 Y123.9940 E8.6437
G1 X116.5780 Y126.6400 E8.7387
G1 X85.2200 Y155.8470 E10.2781
G1 X85.2200 Y140.9480 E10.8133
G1 X68.2200 Y140.9480 E11.4239
G1 X67.7400 Y141.4280 F6000
G92 E0.0000
G1 X67.7400 Y83.3120 E2.0876 F3600 ; custom inner perimeter feedrate
G1 X68.1650 Y83.3120 E2.1028
G1 X68.1650 Y82.4590 E2.1335
G1 X67.7400 Y82.4590 E2.1488
G1 X67.7400 Y82.4070 E2.1506
G1 X68.1650 Y82.4070 E2.1659
G1 X68.1650 Y81.5350 E2.1972
G1 X67.7400 Y81.5350 E2.2125
G1 X67.7400 Y62.7380 E2.8877
G1 X130.6610 Y62.7380 E5.1479
G1 X130.6610 Y63.1340 E5.1621
G1 X131.5340 Y63.1340 E5.1934
G1 X131.5340 Y62.7380 E5.2076
G1 X152.2600 Y62.7380 E5.9522
G1 X152.2600 Y94.0620 E7.0773
G1 X119.6080 Y124.4740 E8.6802
G1 X117.0580 Y124.4740 E8.7718
G1 X117.0580 Y126.8490 E8.8571
G1 X84.7400 Y156.9500 E10.4435
G1 X84.7400 Y141.4280 E11.0011
G1 X67.7400 Y141.4280 E11.6118
G92 E0.0000
G1 E-6 F2400 ; custom retraction
;layer 10, Z = 2.000
;fan10;
G1 Z2.000 F1200
G1 X68.2200 Y140.9480 F6000
G1 E0 F2400 ; custom un-retraction/prime
G92 E0.0000
G1 X68.2200 Y83.6920 E2.0567 F3600 ; custom outer perimeter feedrate
G1 X68.6450 Y83.6920 E2.0720
G1 X68.6450 Y81.1550 E2.1631
G1 X68.2200 Y81.1550 E2.1784
G1 X68.2200 Y63.2180 E2.8227
G1 X130.1810 Y63.2180 E5.0484
G1 X130.1810 Y63.6140 E5.0626
G1 X132.0140 Y63.6140 E5.1284
G1 X132.0140 Y63.2180 E5.1426
G1 X151.7800 Y63.2180 E5.8527
G1 X151.7800 Y93.8530 E6.9531
G1 X119.4190 Y123.9940 E8.5417
G1 X116.5780 Y123.9940 E8.6437
G1 X116.5780 Y126.6400 E8.7387
G1 X85.2200 Y155.8470 E10.2781
G1 X85.2200 Y140.9480 E10.8133
G1 X68.2200 Y140.9480 E11.4239
G1 X67.7400 Y141.4280 F6000
G92 E0.0000
G1 X67.7400 Y83.2120 E2.0912 F3600 ; custom inner perimeter feedrate
G1 X68.1650 Y83.2120 E2.1065
G1 X68.1650 Y81.6350 E2.1631
G1 X67.7400 Y81.6350 E2.1784
G1 X67.7400 Y62.7380 E2.8572
G1 X130.6610 Y62.7380 E5.1173
G1 X130.6610 Y63.1340 E5.1315
G1 X131.5340 Y63.1340 E5.1629
G1 X131.5340 Y62.7380 E5.1771
G1 X152.2600 Y62.7380 E5.9216
G1 X152.2600 Y94.0620 E7.0468
G1 X119.6080 Y124.4740 E8.6497
G1 X117.0580 Y124.4740 E8.7412
G1 X117.0580 Y126.8490 E8.8266
G1 X84.7400 Y156.9500 E10.4130
G1 X84.7400 Y141.4280 E10.9706
G1 X67.7400 Y141.4280 E11.5812
G92 E0.0000
G1 E-6 F2400 ; custom retraction
;layer 11, Z = 2.200
;fan11;
G1 Z2.200 F1200
G1 X68.2200 Y140.9480 F6000
G1 E0 F2400 ; custom un-retraction/prime
G92 E0.0000
G1 X68.2200 Y83.5910 E2.0603 F3600 ; custom outer perimeter feedrate
G1 X68.6450 Y83.5910 E2.0756
G1 X68.6450 Y81.2550 E2.1595
G1 X68.2200 Y81.2550 E2.1748
G1 X68.2200 Y63.2180 E2.8227
G1 X130.1360 Y63.2180 E5.0468
G1 X130.1360 Y63.6140 E5.0610
G1 X132.0480 Y63.6140 E5.1297
G1 X132.0480 Y63.2180 E5.1439
G1 X151.7800 Y63.2180 E5.8527
G1 X151.7800 Y93.8530 E6.9531
G1 X119.4190 Y123.9940 E8.5417
G1 X116.5780 Y123.9940 E8.6437
G1 X116.5780 Y126.6400 E8.7387
G1 X85.2200 Y155.8470 E10.2781
G1 X85.2200 Y140.9480 E10.8133
G1 X68.2200 Y140.9480 E11.4239
G1 X67.7400 Y141.4280 F6000
G92 E0.0000
G1 X67.7400 Y83.1110 E2.0948 F3600 ; custom inner perimeter feedrate
G1 X68.1650 Y83.1110 E2.1101
G1 X68.1650 Y81.7350 E2.1595
G1 X67.7400 Y81.7350 E2.1748
G1 X67.7400 Y62.7380 E2.8572
G1 X130.6160 Y62.7380 E5.1157
G1 X130.6160 Y63.1340 E5.1300
G1 X131.5680 Y63.1340 E5.1641
G1 X131.5680 Y62.7380 E5.1784
G1 X152.2600 Y62.7380 E5.9216
G1 X152.2600 Y94.0620 E7.0468
G1 X119.6080 Y124.4740 E8.6497
G1 X117.0580 Y124.4740 E8.7412
G1 X117.0580 Y126.8490 E8.8266
G1 X84.7400 Y156.9500 E10.4130
G1 X84.7400 Y141.4280 E10.9706
G1 X67.7400 Y141.4280 E11.5812
G92 E0.0000
G1 E-6 F2400 ; custom retraction
;layer 12, Z = 2.400
;fan12;
G1 Z2.400 F1200
G1 X68.2200 Y140.9480 F6000
G1 E0 F2400 ; custom un-retraction/prime
G92 E0.0000
G1 X68.2200 Y83.4900 E2.0639 F3600 ; custom outer perimeter feedrate
G1 X68.6450 Y83.4900 E2.0792
G1 X68.6450 Y81.3560 E2.1559
G1 X68.2200 Y81.3560 E2.1711
G1 X68.2200 Y63.2180 E2.8227
G1 X130.0450 Y63.2180 E5.0435
G1 X130.0450 Y63.6140 E5.0577
G1 X132.1410 Y63.6140 E5.1330
G1 X132.1410 Y63.2180 E5.1472
G1 X151.7800 Y63.2180 E5.8527
G1 X151.7800 Y93.8530 E6.9531
G1 X119.4190 Y123.9940 E8.5417
G1 X116.5780 Y123.9940 E8.6437
G1 X116.5780 Y126.6400 E8.7387
G1 X85.2200 Y155.8470 E10.2781
G1 X85.2200 Y140.9480 E10.8133
G1 X68.2200 Y140.9480 E11.4239
G1 X67.7400 Y141.4280 F6000
G92 E0.0000
G1 X67.7400 Y83.0100 E2.0984 F3600 ; custom inner perimeter feedrate
G1 X68.1650 Y83.0100 E2.1137
G1 X68.1650 Y81.8360 E2.1559
G1 X67.7400 Y81.8360 E2.1711
G1 X67.7400 Y62.7380 E2.8572
G1 X130.5250 Y62.7380 E5.1124
G1 X130.5250 Y63.1340 E5.1267
G1 X131.6610 Y63.1340 E5.1675
G1 X131.6610 Y62.7380 E5.1817
G1 X152.2600 Y62.7380 E5.9216
G1 X152.2600 Y94.0620 E7.0468
G1 X119.6080 Y124.4740 E8.6497
G1 X117.0580 Y124.4740 E8.7412
G1 X117.0580 Y126.8490 E8.8266
G1 X84.7400 Y156.9500 E10.4130
G1 X84.7400 Y141.4280 E10.9706
G1 X67.7400 Y141.4280 E11.5812
G92 E0.0000
G1 E-6 F2400 ; custom retraction
;layer 13, Z = 2.600
;fan13;
G1 Z2.600 F1200
G1 X68.2200 Y140.9480 F6000
G1 E0 F2400 ; custom un-retraction/prime
G92 E0.0000
G1 X68.2200 Y83.3890 E2.0676 F3600 ; custom outer perimeter feedrate
G1 X68.6450 Y83.3890 E2.0828
G1 X68.6450 Y81.4560 E2.1523
G1 X68.2200 Y81.4560 E2.1675
G1 X68.2200 Y63.2180 E2.8227
G1 X129.9530 Y63.2180 E5.0402
G1 X129.9530 Y63.6140 E5.0544
G1 X132.2340 Y63.6140 E5.1363
G1 X132.2340 Y63.2180 E5.1505
G1 X151.7800 Y63.2180 E5.8527
G1 X151.7800 Y93.8530 E6.9531
G1 X119.4190 Y123.9940 E8.5417
G1 X116.5780 Y123.9940 E8.6437
G1 X116.5780 Y126.6400 E8.7387
G1 X85.2200 Y155.8470 E10.2781
G1 X85.2200 Y140.9480 E10.8133
G1 X68.2200 Y140.9480 E11.4239
G1 X67.7400 Y141.4280 F6000
G92 E0.0000
G1 X67.7400 Y82.9090 E2.1020 F3600 ; custom inner perimeter feedrate
G1 X68.1650 Y82.9090 E2.1173
G1 X68.1650 Y81.9360 E2.1523
G1 X67.7400 Y81.9360 E2.1675
G1 X67.7400 Y62.7380 E2.8572
G1 X130.4330 Y62.7380 E5.1091
G1 X130.4330 Y63.1340 E5.1234
G1 X131.7540 Y63.1340 E5.1708
G1 X131.7540 Y62.7380 E5.1850
G1 X152.2600 Y62.7380 E5.9216
G1 X152.2600 Y94.0620 E7.0468
G1 X119.6080 Y124.4740 E8.6497
G1 X117.0580 Y124.4740 E8.7412
G1 X117.0580 Y126.8490 E8.8266
G1 X84.7400 Y156.9500 E10.4130
G1 X84.7400 Y141.4280 E10.9706
G1 X67.7400 Y141.4280 E11.5812
G92 E0.0000
G1 E-6 F2400 ; custom retraction
;layer 14, Z = 2.800
;fan14;
G1 Z2.800 F1200
G1 X68.2200 Y140.9480 F6000
G1 E0 F2400 ; custom un-retraction/prime
G92 E0.0000
G1 X68.2200 Y83.4180 E2.0665 F3600 ; custom outer perimeter feedrate
G1 X68.6450 Y83.4180 E2.0818
G1 X68.6450 Y81.4430 E2.1528
G1 X68.2200 Y81.4430 E2.1680
G1 X68.2200 Y63.2180 E2.8227
G1 X129.8610 Y63.2180 E5.0369
G1 X129.8610 Y63.6140 E5.0511
G1 X132.3260 Y63.6140 E5.1396
G1 X132.3260 Y63.2180 E5.1539
G1 X151.7800 Y63.2180 E5.8527
G1 X151.7800 Y93.8530 E6.9531
G1 X119.4190 Y123.9940 E8.5417
G1 X116.5780 Y123.9940 E8.6437
G1 X116.5780 Y126.6400 E8.7387
G1 X85.2200 Y155.8470 E10.2781
G1 X85.2200 Y140.9480 E10.8133
G1 X68.2200 Y140.9480 E11.4239
G1 X67.7400 Y141.4280 F6000
G92 E0.0000
G1 X67.7400 Y82.9380 E2.1010 F3600 ; custom inner perimeter feedrate
G1 X68.1650 Y82.9380 E2.1163
G1 X68.1650 Y81.9230 E2.1528
G1 X67.7400 Y81.9230 E2.1680
G1 X67.7400 Y62.7380 E2.8572
G1 X130.3410 Y62.7380 E5.1059
G1 X130.3410 Y63.1340 E5.1201
G1 X131.8460 Y63.1340 E5.1741
G1 X131.8460 Y62.7380 E5.1883
G1 X152.2600 Y62.7380 E5.9216
G1 X152.2600 Y94.0620 E7.0468
G1 X119.6080 Y124.4740 E8.6497
G1 X117.0580 Y124.4740 E8.7412
G1 X117.0580 Y126.8490 E8.8266
G1 X84.7400 Y156.9500 E10.4130
G1 X84.7400 Y141.4280 E10.9706
G1 X67.7400 Y141.4280 E11.5812
G92 E0.0000
G1 E-6 F2400 ; custom retraction
;layer 15, Z = 3.000
;fan15;
G1 Z3.000 F1200
G1 X68.2200 Y140.9480 F6000
G1 E0 F2400 ; custom un-retraction/prime
G92 E0.0000
G1 X68.2200 Y83.5210 E2.0628 F3600 ; custom outer perimeter feedrate
G1 X68.6450 Y83.5210 E2.0781
G1 X68.6450 Y81.3390 E2.1565
G1 X68.2200 Y81.3390 E2.1717
G1 X68.2200 Y63.2180 E2.8227
G1 X129.7700 Y63.2180 E5.0336
G1 X129.7700 Y63.6140 E5.0478
G1 X132.4190 Y63.6140 E5.1430
G1 X132.4190 Y63.2180 E5.1572
G1 X151.7800 Y63.2180 E5.8527
G1 X151.7800 Y93.8530 E6.9531
G1 X119.4190 Y123.9940 E8.5417
G1 X116.5780 Y123.9940 E8.6437
G1 X116.5780 Y126.6400 E8.7387
G1 X85.2200 Y155.8470 E10.2781
G1 X85.2200 Y140.9480 E10.8133
G1 X68.2200 Y140.9480 E11.4239
G1 X67.7400 Y141.4280 F6000
G92 E0.0000
G1 X67.7400 Y83.0410 E2.0973 F3600 ; custom inner perimeter feedrate
G1 X68.1650 Y83.0410 E2.1126
G1 X68.1650 Y81.8190 E2.1565
G1 X67.7400 Y81.8190 E2.1717
G1 X67.7400 Y62.7380 E2.8572
G1 X130.2500 Y62.7380 E5.1026
G1 X130.2500 Y63.1340 E5.1168
G1 X131.9390 Y63.1340 E5.1775
G1 X131.9390 Y62.7380 E5.1917
G1 X152.2600 Y62.7380 E5.9216
G1 X152.2600 Y94.0620 E7.0468
G1 X119.6080 Y124.4740 E8.6497
G1 X117.0580 Y124.4740 E8.7412
G1 X117.0580 Y126.8490 E8.8266
G1 X84.7400 Y156.9500 E10.4130
G1 X84.7400 Y141.4280 E10.9706
G1 X67.7400 Y141.4280 E11.5812
G92 E0.0000
G1 E-6 F2400 ; custom retraction
;layer 16, Z = 3.200
;fan16;
G1 Z3.200 F1200
G1 X68.2200 Y140.9480 F6000
G1 E0 F2400 ; custom un-retraction/prime
G92 E0.0000
G1 X68.2200 Y83.6240 E2.0591 F3600 ; custom outer perimeter feedrate
G1 X68.6450 Y83.6240 E2.0744
G1 X68.6450 Y81.2360 E2.1602
G1 X68.2200 Y81.2360 E2.1755
G1 X68.2200 Y63.2180 E2.8227
G1 X129.6780 Y63.2180 E5.0303
G1 X129.6780 Y63.6140 E5.0445
G1 X132.5120 Y63.6140 E5.1463
G1 X132.5120 Y63.2180 E5.1605
G1 X151.7800 Y63.2180 E5.8527
G1 X151.7800 Y93.8530 E6.9531
G1 X119.4190 Y123.9940 E8.5417
G1 X116.5780 Y123.9940 E8.6437
G1 X116.5780 Y126.6400 E8.7387
G1 X85.2200 Y155.8470 E10.2781
G1 X85.2200 Y140.9480 E10.8133
G1 X68.2200 Y140.9480 E11.4239
G1 X67.7400 Y141.4280 F6000
G92 E0.0000
G1 X67.7400 Y83.1440 E2.0936 F3600 ; custom inner perimeter feedrate
G1 X68.1650 Y83.1440 E2.1089
G1 X68.1650 Y81.7160 E2.1602
G1 X67.7400 Y81.7160 E2.1755
G1 X67.7400 Y62.7380 E2.8572
G1 X130.1580 Y62.7380 E5.0993
G1 X130.1580 Y63.1340 E5.1135
G1 X131.0520 Y63.1340 E5.1456
G1 X131.0520 Y62.7380 E5.1598
G1 X131.1450 Y62.7380 E5.1631
G1 X131.1450 Y63.1340 E5.1774
G1 X132.0320 Y63.1340 E5.2092
G1 X132.0320 Y62.7380 E5.2234
G1 X152.2600 Y62.7380 E5.9501
G1 X152.2600 Y94.0620 E7.0752
G1 X119.6080 Y124.4740 E8.6781
G1 X117.0580 Y124.4740 E8.7697
G1 X117.0580 Y126.8490 E8.8550
G1 X84.7400 Y156.9500 E10.4414
G1 X84.7400 Y141.4280 E10.9990
G1 X67.7400 Y141.4280 E11.6097
G92 E0.0000
G1 E-6 F2400 ; custom retraction
;layer 17, Z = 3.400
;fan17;
G1 Z3.400 F1200
G1 X68.2200 Y140.9480 F6000
G1 E0 F2400 ; custom un-retraction/prime
G92 E0.0000
G1 X68.2200 Y83.7260 E2.0555 F3600 ; custom outer perimeter feedrate
G1 X68.6450 Y83.7260 E2.0707
G1 X68.6450 Y81.1320 E2.1639
G1 X68.2200 Y81.1320 E2.1792
G1 X68.2200 Y63.2180 E2.8227
G1 X129.5860 Y63.2180 E5.0270
G1 X129.5860 Y63.6140 E5.0412
G1 X132.6040 Y63.6140 E5.1496
G1 X132.6040 Y63.2180 E5.1639
G1 X151.7800 Y63.2180 E5.8527
G1 X151.7800 Y93.8530 E6.9531
G1 X119.4190 Y123.9940 E8.5417
G1 X116.5780 Y123.9940 E8.6437
G1 X116.5780 Y126.6400 E8.7387
G1 X85.2200 Y155.8470 E10.2781
G1 X85.2200 Y140.9480 E10.8133
G1 X68.2200 Y140.9480 E11.4239
G1 X67.7400 Y141.4280 F6000
G92 E0.0000
G1 X67.7400 Y83.2460 E2.0899 F3600 ; custom inner perimeter feedrate
G1 X68.1650 Y83.2460 E2.1052
G1 X68.1650 Y81.6120 E2.1639
G1 X67.7400 Y81.6120 E2.1792
G1 X67.7400 Y62.7380 E2.8572
G1 X130.0660 Y62.7380 E5.0960
G1 X130.0660 Y63.1340 E5.1102
G1 X130.9620 Y63.1340 E5.1424
G1 X130.9620 Y62.7380 E5.1566
G1 X131.2350 Y62.7380 E5.1664
G1 X131.2350 Y63.1340 E5.1806
G1 X132.1240 Y63.1340 E5.2126
G1 X132.1240 Y62.7380 E5.2268
G1 X152.2600 Y62.7380 E5.9501
G1 X152.2600 Y94.0620 E7.0752
G1 X119.6080 Y124.4740 E8.6781
G1 X117.0580 Y124.4740 E8.7697
G1 X117.0580 Y126.8490 E8.8550
G1 X84.7400 Y156.9500 E10.4414
G1 X84.7400 Y141.4280 E10.9990
G1 X67.7400 Y141.4280 E11.6097
G92 E0.0000
G1 E-6 F2400 ; custom retraction
;layer 18, Z = 3.600
;fan18;
G1 Z3.600 F1200
G1 X68.2200 Y140.9480 F6000
G1 E0 F2400 ; custom un-retraction/prime
G92 E0.0000
G1 X68.2200 Y83.8290 E2.0518 F3600 ; custom outer perimeter feedrate
G1 X68.6450 Y83.8290 E2.0670
G1 X68.6450 Y81.0280 E2.1676
G1 X68.2200 Y81.0280 E2.1829
G1 X68.2200 Y63.2180 E2.8227
G1 X129.4950 Y63.2180 E5.0237
G1 X129.4950 Y63.6140 E5.0379
G1 X132.6970 Y63.6140 E5.1530
G1 X132.6970 Y63.2180 E5.1672
G1 X151.7800 Y63.2180 E5.8527
G1 X151.7800 Y93.8530 E6.9531
G1 X119.4190 Y123.9940 E8.5417
G1 X116.5780 Y123.9940 E8.6437
G1 X116.5780 Y126.6400 E8.7387
G1 X85.2200 Y155.8470 E10.2781
G1 X85.2200 Y140.9480 E10.8133
G1 X68.2200 Y140.9480 E11.4239
G1 X67.7400 Y141.4280 F6000
G92 E0.0000
G1 X67.7400 Y83.3490 E2.0862 F3600 ; custom inner perimeter feedrate
G1 X68.1650 Y83.3490 E2.1015
G1 X68.1650 Y82.4830 E2.1326
G1 X67.7400 Y82.4830 E2.1479
G1 X67.7400 Y82.3600 E2.1523
G1 X68.1650 Y82.3600 E2.1676
G1 X68.1650 Y81.5080 E2.1982
G1 X67.7400 Y81.5080 E2.2134
G1 X67.7400 Y62.7380 E2.8877
G1 X129.9750 Y62.7380 E5.1232
G1 X129.9750 Y63.1340 E5.1374
G1 X130.8720 Y63.1340 E5.1697
G1 X130.8720 Y62.7380 E5.1839
G1 X131.3260 Y62.7380 E5.2002
G1 X131.3260 Y63.1340 E5.2144
G1 X132.2170 Y63.1340 E5.2464
G1 X132.2170 Y62.7380 E5.2606
G1 X152.2600 Y62.7380 E5.9806
G1 X152.2600 Y94.0620 E7.1058
G1 X119.6080 Y124.4740 E8.7086
G1 X117.0580 Y124.4740 E8.8002
G1 X117.0580 Y126.8490 E8.8855
G1 X84.7400 Y156.9500 E10.4720
G1 X84.7400 Y141.4280 E11.0296
G1 X67.7400 Y141.4280 E11.6402
G92 E0.0000
G1 E-6 F2400 ; custom retraction
;layer 19, Z = 3.800
;fan19;
G1 Z3.800 F1200
G1 X68.2200 Y140.9480 F6000
G1 E0 F2400 ; custom un-retraction/prime
G92 E0.0000
G1 X68.2200 Y83.9320 E2.0481 F3600 ; custom outer perimeter feedrate
G1 X68.6450 Y83.9320 E2.0633
G1 X68.6450 Y80.9250 E2.1714
G1 X68.2200 Y80.9250 E2.1866
G1 X68.2200 Y63.2180 E2.8227
G1 X129.4030 Y63.2180 E5.0204
G1 X129.4030 Y63.6140 E5.0346
G1 X132.7900 Y63.6140 E5.1563
G1 X132.7900 Y63.2180 E5.1705
G1 X151.7800 Y63.2180 E5.8527
G1 X151.7800 Y93.8530 E6.9531
G1 X119.4190 Y123.9940 E8.5417
G1 X116.5780 Y123.9940 E8.6437
G1 X116.5780 Y126.6400 E8.7387
G1 X85.2200 Y155.8470 E10.2781
G1 X85.2200 Y140.9480 E10.8133
G1 X68.2200 Y140.9480 E11.4239
G1 X67.7400 Y141.4280 F6000
G92 E0.0000
G1 X67.7400 Y83.4520 E2.0825 F3600 ; custom inner perimeter feedrate
G1 X68.1650 Y83.4520 E2.0978
G1 X68.1650 Y82.5820 E2.1291
G1 X67.7400 Y82.5820 E2.1443
G1 X67.7400 Y82.2600 E2.1559
G1 X68.1650 Y82.2600 E2.1712
G1 X68.1650 Y81.4050 E2.2019
G1 X67.7400 Y81.4050 E2.2172
G1 X67.7400 Y62.7380 E2.8877
G1 X129.8830 Y62.7380 E5.1199
G1 X129.8830 Y63.1340 E5.1341
G1 X130.7820 Y63.1340 E5.1664
G1 X130.7820 Y62.7380 E5.1806
G1 X131.4170 Y62.7380 E5.2034
G1 X131.4170 Y63.1340 E5.2177
G1 X132.3100 Y63.1340 E5.2497
G1 X132.3100 Y62.7380 E5.2640
G1 X152.2600 Y62.7380 E5.9806
G1 X152.2600 Y94.0620 E7.1058
G1 X119.6080 Y124.4740 E8.7086
G1 X117.0580 Y124.4740 E8.8002
G1 X117.0580 Y126.8490 E8.8855
G1 X84.7400 Y156.9500 E10.4720
G1 X84.7400 Y141.4280 E11.0296
G1 X67.7400 Y141.4280 E11.6402
G1 X131.1290 Y63.2460 F6000
G92 E0.0000
G1 X131.0700 Y63.1880 E0.0030 F3600 ; custom outer perimeter feedrate
G92 E0.0000
G1 E-6 F2400 ; custom retraction
;layer 20, Z = 4.000
;fan20;
G1 Z4.000 F1200
G1 X68.2200 Y140.9480 F6000
G1 E0 F2400 ; custom un-retraction/prime
G92 E0.0000
G1 X68.2200 Y84.0350 E2.0444 F3600 ; custom outer perimeter feedrate
G1 X68.6450 Y84.0350 E2.0596
G1 X68.6450 Y80.8210 E2.1751
G1 X68.2200 Y80.8210 E2.1903
G1 X68.2200 Y63.2180 E2.8227
G1 X129.3110 Y63.2180 E5.0171
G1 X129.3110 Y63.6140 E5.0313
G1 X132.8820 Y63.6140 E5.1596
G1 X132.8820 Y63.2180 E5.1738
G1 X151.7800 Y63.2180 E5.8527
G1 X151.7800 Y93.8530 E6.9531
G1 X119.4190 Y123.9940 E8.5417
G1 X116.5780 Y123.9940 E8.6437
G1 X116.5780 Y126.6400 E8.7387
G1 X85.2200 Y155.8470 E10.2781
G1 X85.2200 Y140.9480 E10.8133
G1 X68.2200 Y140.9480 E11.4239
G1 X67.7400 Y141.4280 F6000
G92 E0.0000
G1 X67.7400 Y83.5550 E2.0789 F3600 ; custom inner perimeter feedrate
G1 X68.1650 Y83.5550 E2.0941
G1 X68.1650 Y82.6810 E2.1255
G1 X67.7400 Y82.6810 E2.1408
G1 X67.7400 Y82.1600 E2.1595
G1 X68.1650 Y82.1600 E2.1748
G1 X68.1650 Y81.3010 E2.2056
G1 X67.7400 Y81.3010 E2.2209
G1 X67.7400 Y62.7380 E2.8877
G1 X129.7910 Y62.7380 E5.1166
G1 X129.7910 Y63.1340 E5.1308
G1 X130.6920 Y63.1340 E5.1632
G1 X130.6920 Y62.7380 E5.1774
G1 X131.5070 Y62.7380 E5.2067
G1 X131.5070 Y63.1340 E5.2209
G1 X132.4020 Y63.1340 E5.2531
G1 X132.4020 Y62.7380 E5.2673
G1 X152.2600 Y62.7380 E5.9806
G1 X152.2600 Y94.0620 E7.1058
G1 X119.6080 Y124.4740 E8.7086
G1 X117.0580 Y124.4740 E8.8002
G1 X117.0580 Y126.8490 E8.8855
G1 X84.7400 Y156.9500 E10.4720
G1 X84.7400 Y141.4280 E11.0296
G1 X67.7400 Y141.4280 E11.6402
G1 X130.9800 Y63.2250 F6000
G92 E0.0000
G1 X131.1790 Y63.0260 E0.0101 F3600 ; custom outer perimeter feedrate
G92 E0.0000
G1 E-6 F2400 ; custom retraction
;layer 21, Z = 4.200
;fan21;
G1 Z4.200 F1200
G1 X68.2200 Y140.9480 F6000
G1 E0 F2400 ; custom un-retraction/prime
G92 E0.0000
G1 X68.2200 Y84.1380 E2.0407 F3600 ; custom outer perimeter feedrate
G1 X68.6450 Y84.1380 E2.0559
G1 X68.6450 Y80.7180 E2.1788
G1 X68.2200 Y80.7180 E2.1941
G1 X68.2200 Y63.2180 E2.8227
G1 X129.2200 Y63.2180 E5.0138
G1 X129.2200 Y63.6140 E5.0280
G1 X132.9750 Y63.6140 E5.1630
G1 X132.9750 Y63.2180 E5.1772
G1 X151.7800 Y63.2180 E5.8527
G1 X151.7800 Y93.8530 E6.9531
G1 X119.4190 Y123.9940 E8.5417
G1 X116.5780 Y123.9940 E8.6437
G1 X116.5780 Y126.6400 E8.7387
G1 X85.2200 Y155.8470 E10.2781
G1 X85.2200 Y140.9480 E10.8133
G1 X68.2200 Y140.9480 E11.4239
G1 X67.7400 Y141.4280 F6000
G92 E0.0000
G1 X67.7400 Y83.6580 E2.0752 F3600 ; custom inner perimeter feedrate
G1 X68.1650 Y83.6580 E2.0904
G1 X68.1650 Y82.7800 E2.1220
G1 X67.7400 Y82.7800 E2.1372
G1 X67.7400 Y82.0590 E2.1631
G1 X68.1650 Y82.0590 E2.1784
G1 X68.1650 Y81.1980 E2.2093
G1 X67.7400 Y81.1980 E2.2246
G1 X67.7400 Y62.7380 E2.8877
G1 X129.7000 Y62.7380 E5.1133
G1 X129.7000 Y63.1340 E5.1275
G1 X130.6020 Y63.1340 E5.1600
G1 X130.6020 Y62.7380 E5.1742
G1 X131.5980 Y62.7380 E5.2100
G1 X131.5980 Y63.1340 E5.2242
G1 X132.4950 Y63.1340 E5.2564
G1 X132.4950 Y62.7380 E5.2706
G1 X152.2600 Y62.7380 E5.9806
G1 X152.2600 Y94.0620 E7.1058
G1 X119.6080 Y124.4740 E8.7086
G1 X117.0580 Y124.4740 E8.8002
G1 X117.0580 Y126.8490 E8.8855
G1 X84.7400 Y156.9500 E10.4720
G1 X84.7400 Y141.4280 E11.0296
G1 X67.7400 Y141.4280 E11.6402
G1 X68.2370 Y82.4920 F6000
G92 E0.0000
G1 X68.0920 Y82.3470 E0.0073 F3600 ; custom outer perimeter feedrate
G1 X130.5580 Y63.1340 F6000
G1 X130.6020 Y63.1340
G1 X130.6020 Y63.1200
G1 X130.9080 Y63.0260
G92 E0.0000
G1 X131.2030 Y63.3210 E0.0150 F3600 ; custom outer perimeter feedrate
G92 E0.0000
G1 E-6 F2400 ; custom retraction
;layer 22, Z = 4.400
;fan22;
G1 Z4.400 F1200
G1 X68.2200 Y140.9480 F6000
G1 E0 F2400 ; custom un-retraction/prime
G92 E0.0000
G1 X68.2200 Y84.2400 E2.0370 F3600 ; custom outer perimeter feedrate
G1 X68.6450 Y84.2400 E2.0523
G1 X68.6450 Y80.6140 E2.1825
G1 X68.2200 Y80.6140 E2.1978
G1 X68.2200 Y63.2180 E2.8227
G1 X129.1280 Y63.2180 E5.0105
G1 X129.1280 Y63.6140 E5.0248
G1 X133.0680 Y63.6140 E5.1663
G1 X133.0680 Y63.2180 E5.1805
G1 X151.7800 Y63.2180 E5.8527
G1 X151.7800 Y93.8530 E6.9531
G1 X119.4190 Y123.9940 E8.5417
G1 X116.5780 Y123.9940 E8.6437
G1 X116.5780 Y126.6400 E8.7387
G1 X85.2200 Y155.8470 E10.2781
G1 X85.2200 Y140.9480 E10.8133
G1 X68.2200 Y140.9480 E11.4239
G1 X67.7400 Y141.4280 F6000
G92 E0.0000
G1 X67.7400 Y83.7610 E2.0715 F3600 ; custom inner perimeter feedrate
G1 X68.1650 Y83.7610 E2.0867
G1 X68.1650 Y82.8790 E2.1184
G1 X67.7400 Y82.8790 E2.1337
G1 X67.7400 Y81.9590 E2.1667
G1 X68.1650 Y81.9590 E2.1820
G1 X68.1650 Y81.0940 E2.2131
G1 X67.7400 Y81.0940 E2.2283
G1 X67.7400 Y62.7380 E2.8877
G1 X129.6080 Y62.7380 E5.1100
G1 X129.6080 Y63.1340 E5.1243
G1 X130.5120 Y63.1340 E5.1567
G1 X130.5120 Y62.7380 E5.1709
G1 X131.6880 Y62.7380 E5.2132
G1 X131.6880 Y63.1340 E5.2274
G1 X132.5880 Y63.1340 E5.2597
G1 X132.5880 Y62.7380 E5.2740
G1 X152.2600 Y62.7380 E5.9806
G1 X152.2600 Y94.0620 E7.1058
G1 X119.6080 Y124.4740 E8.7086
G1 X117.0580 Y124.4740 E8.8002
G1 X117.0580 Y126.8490 E8.8855
G1 X84.7400 Y156.9500 E10.4720
G1 X84.7400 Y141.4280 E11.0296
G1 X67.7400 Y141.4280 E11.6402
G1 X68.1650 Y83.7610 F6000
G1 X68.1650 Y83.1140
G1 X68.1690 Y82.5910
G92 E0.0000
G1 X68.3520 Y82.4080 E0.0093 F3600 ; custom outer perimeter feedrate
G1 X130.8840 Y63.3210 F6000
G92 E0.0000
G1 X131.1790 Y63.0260 E0.0150 F3600 ; custom outer perimeter feedrate
G92 E0.0000
G1 E-6 F2400 ; custom retraction
;layer 23, Z = 4.600
;fan23;
G1 Z4.600 F1200
G1 X68.2200 Y140.9480 F6000
G1 E0 F2400 ; custom un-retraction/prime
G92 E0.0000
G1 X68.2200 Y63.2180 E2.7921 F3600 ; custom outer perimeter feedrate
G1 X151.7800 Y63.2180 E5.7937
G1 X151.7800 Y93.8530 E6.8941
G1 X119.4190 Y123.9940 E8.4827
G1 X116.5780 Y123.9940 E8.5847
G1 X116.5780 Y126.6400 E8.6798
G1 X85.2200 Y155.8470 E10.2191
G1 X85.2200 Y140.9480 E10.7543
G1 X68.2200 Y140.9480 E11.3650
G1 X67.7400 Y141.4280 F6000
G92 E0.0000
G1 X67.7400 Y62.7380 E2.8266 F3600 ; custom inner perimeter feedrate
G1 X152.2600 Y62.7380 E5.8627
G1 X152.2600 Y94.0620 E6.9878
G1 X119.6080 Y124.4740 E8.5907
G1 X117.0580 Y124.4740 E8.6823
G1 X117.0580 Y126.8490 E8.7676
G1 X84.7400 Y156.9500 E10.3540
G1 X84.7400 Y141.4280 E10.9116
G1 X67.7400 Y141.4280 E11.5223
G92 E0.0000
G1 E-6 F2400 ; custom retraction
;layer 24, Z = 4.800
;fan24;
G1 Z4.800 F1200
G1 X68.2200 Y140.9480 F6000
G1 E0 F2400 ; custom un-retraction/prime
G92 E0.0000
G1 X68.2200 Y63.2180 E2.7921 F3600 ; custom outer perimeter feedrate
G1 X151.6100 Y63.2180 E5.7876
G1 X151.6100 Y94.0110 E6.8937
G1 X119.4190 Y123.9940 E8.4739
G1 X116.5780 Y123.9940 E8.5760
G1 X116.5780 Y126.6400 E8.6710
G1 X85.2200 Y155.8470 E10.2103
G1 X85.2200 Y140.9480 E10.7455
G1 X68.2200 Y140.9480 E11.3562
G1 X67.7400 Y141.4280 F6000
G92 E0.0000
G1 X67.7400 Y62.7380 E2.8266 F3600 ; custom inner perimeter feedrate
G1 X152.0900 Y62.7380 E5.8566
G1 X152.0900 Y94.2200 E6.9874
G1 X119.6080 Y124.4740 E8.5819
G1 X117.0580 Y124.4740 E8.6735
G1 X117.0580 Y126.8490 E8.7588
G1 X84.7400 Y156.9500 E10.3453
G1 X84.7400 Y141.4280 E10.9028
G1 X67.7400 Y141.4280 E11.5135
G92 E0.0000
G1 E-6 F2400 ; custom retraction
;layer 25, Z = 5.000
;fan25;
G1 Z5.000 F1200
G1 X68.2200 Y140.9480 F6000
G1 E0 F2400 ; custom un-retraction/prime
G92 E0.0000
G1 X68.2200 Y63.2180 E2.7921 F3600 ; custom outer perimeter feedrate
G1 X151.4400 Y63.2180 E5.7815
G1 X151.4400 Y94.1690 E6.8933
G1 X119.4190 Y123.9940 E8.4652
G1 X116.5780 Y123.9940 E8.5672
G1 X116.5780 Y126.6400 E8.6622
G1 X85.2200 Y155.8470 E10.2016
G1 X85.2200 Y140.9480 E10.7368
G1 X68.2200 Y140.9480 E11.3474
G1 X67.7400 Y141.4280 F6000
G92 E0.0000
G1 X67.7400 Y62.7380 E2.8266 F3600 ; custom inner perimeter feedrate
G1 X151.9200 Y62.7380 E5.8504
G1 X151.9200 Y94.3780 E6.9870
G1 X119.6080 Y124.4740 E8.5732
G1 X117.0580 Y124.4740 E8.6648
G1 X117.0580 Y126.8490 E8.7501
G1 X84.7400 Y156.9500 E10.3365
G1 X84.7400 Y141.4280 E10.8941
G1 X67.7400 Y141.4280 E11.5047
G92 E0.0000
G1 E-6 F2400 ; custom retraction
M204 P2500 T2500 ; custom acceleration - B
M205 X8 Y8 ; custom jerk - B
;layer 26, Z = 5.200
;fan26;
G1 Z5.200 F1200
G1 X68.2200 Y140.9480 F6000
G1 E0 F2400 ; custom un-retraction/prime
G92 E0.0000
G1 X68.2200 Y63.2180 E2.7921 F3600 ; custom outer perimeter feedrate
G1 X151.7800 Y63.2180 E5.7937
G1 X151.7800 Y93.8530 E6.8941
G1 X119.4190 Y123.9940 E8.4827
G1 X116.5780 Y123.9940 E8.5847
G1 X116.5780 Y126.6400 E8.6798
G1 X85.2200 Y155.8470 E10.2191
G1 X85.2200 Y140.9480 E10.7543
G1 X68.2200 Y140.9480 E11.3650
G1 X67.7400 Y141.4280 F6000
G92 E0.0000
G1 X67.7400 Y62.7380 E2.8266 F3600 ; custom inner perimeter feedrate
G1 X152.2600 Y62.7380 E5.8627
G1 X152.2600 Y94.0620 E6.9878
G1 X119.6080 Y124.4740 E8.5907
G1 X117.0580 Y124.4740 E8.6823
G1 X117.0580 Y126.8490 E8.7676
G1 X84.7400 Y156.9500 E10.3540
G1 X84.7400 Y141.4280 E10.9116
G1 X67.7400 Y141.4280 E11.5223
G92 E0.0000
G1 E-6 F2400 ; custom retraction
;layer 27, Z = 5.400
;fan27;
G1 Z5.400 F1200
G1 X68.2200 Y140.9480 F6000
G1 E0 F2400 ; custom un-retraction/prime
G92 E0.0000
G1 X68.2200 Y63.2180 E2.7921 F3600 ; custom outer perimeter feedrate
G1 X151.7800 Y63.2180 E5.7937
G1 X151.7800 Y93.8530 E6.8941
G1 X119.4190 Y123.9940 E8.4827
G1 X116.5780 Y123.9940 E8.5847
G1 X116.5780 Y126.6400 E8.6798
G1 X85.2200 Y155.8470 E10.2191
G1 X85.2200 Y140.9480 E10.7543
G1 X68.2200 Y140.9480 E11.3650
G1 X67.7400 Y141.4280 F6000
G92 E0.0000
G1 X67.7400 Y62.7380 E2.8266 F3600 ; custom inner perimeter feedrate
G1 X152.2600 Y62.7380 E5.8627
G1 X152.2600 Y94.0620 E6.9878
G1 X119.6080 Y124.4740 E8.5907
G1 X117.0580 Y124.4740 E8.6823
G1 X117.0580 Y126.8490 E8.7676
G1 X84.7400 Y156.9500 E10.3540
G1 X84.7400 Y141.4280 E10.9116
G1 X67.7400 Y141.4280 E11.5223
G92 E0.0000
G1 E-6 F2400 ; custom retraction
;layer 28, Z = 5.600
;fan28;
G1 Z5.600 F1200
G1 X68.2200 Y140.9480 F6000
G1 E0 F2400 ; custom un-retraction/prime
G92 E0.0000
G1 X68.2200 Y84.3970 E2.0314 F3600 ; custom outer perimeter feedrate
G1 X68.6450 Y84.3970 E2.0466
G1 X68.6450 Y80.4520 E2.1883
G1 X68.2200 Y80.4520 E2.2036
G1 X68.2200 Y63.2180 E2.8227
G1 X130.1810 Y63.2180 E5.0484
G1 X130.1810 Y63.6140 E5.0626
G1 X132.0140 Y63.6140 E5.1284
G1 X132.0140 Y63.2180 E5.1426
G1 X151.7800 Y63.2180 E5.8527
G1 X151.7800 Y93.8530 E6.9531
G1 X119.4190 Y123.9940 E8.5417
G1 X116.5780 Y123.9940 E8.6437
G1 X116.5780 Y126.6400 E8.7387
G1 X85.2200 Y155.8470 E10.2781
G1 X85.2200 Y140.9480 E10.8133
G1 X68.2200 Y140.9480 E11.4239
G1 X67.7400 Y141.4280 F6000
G92 E0.0000
G1 X67.7400 Y83.9170 E2.0659 F3600 ; custom inner perimeter feedrate
G1 X68.1650 Y83.9170 E2.0811
G1 X68.1650 Y83.0500 E2.1123
G1 X67.7400 Y83.0500 E2.1275
G1 X67.7400 Y81.8270 E2.1715
G1 X68.1650 Y81.8270 E2.1867
G1 X68.1650 Y80.9320 E2.2189
G1 X67.7400 Y80.9320 E2.2341
G1 X67.7400 Y62.7380 E2.8877
G1 X130.6610 Y62.7380 E5.1479
G1 X130.6610 Y63.1340 E5.1621
G1 X131.5340 Y63.1340 E5.1934
G1 X131.5340 Y62.7380 E5.2076
G1 X152.2600 Y62.7380 E5.9522
G1 X152.2600 Y94.0620 E7.0773
G1 X119.6080 Y124.4740 E8.6802
G1 X117.0580 Y124.4740 E8.7718
G1 X117.0580 Y126.8490 E8.8571
G1 X84.7400 Y156.9500 E10.4435
G1 X84.7400 Y141.4280 E11.0011
G1 X67.7400 Y141.4280 E11.6118
G1 X68.0220 Y83.9170 F6000
G1 X68.1650 Y83.9170
G1 X68.1650 Y83.0500
G1 X68.0260 Y83.0500
G1 X68.0280 Y82.7320
G92 E0.0000
G1 X68.3520 Y82.4080 E0.0165 F3600 ; custom outer perimeter feedrate
G92 E0.0000
G1 E-6 F2400 ; custom retraction
;layer 29, Z = 5.800
;fan29;
G1 Z5.800 F1200
G1 X68.2200 Y140.9480 F6000
G1 E0 F2400 ; custom un-retraction/prime
G92 E0.0000
G1 X68.2200 Y84.2960 E2.0350 F3600 ; custom outer perimeter feedrate
G1 X68.6450 Y84.2960 E2.0503
G1 X68.6450 Y80.5530 E2.1847
G1 X68.2200 Y80.5530 E2.2000
G1 X68.2200 Y63.2180 E2.8227
G1 X130.1810 Y63.2180 E5.0484
G1 X130.1810 Y63.6140 E5.0626
G1 X132.0140 Y63.6140 E5.1284
G1 X132.0140 Y63.2180 E5.1426
G1 X151.7800 Y63.2180 E5.8527
G1 X151.7800 Y93.8530 E6.9531
G1 X119.4190 Y123.9940 E8.5417
G1 X116.5780 Y123.9940 E8.6437
G1 X116.5780 Y126.6400 E8.7387
G1 X85.2200 Y155.8470 E10.2781
G1 X85.2200 Y140.9480 E10.8133
G1 X68.2200 Y140.9480 E11.4239
G1 X67.7400 Y141.4280 F6000
G92 E0.0000
G1 X67.7400 Y83.8160 E2.0695 F3600 ; custom inner perimeter feedrate
G1 X68.1650 Y83.8160 E2.0847
G1 X68.1650 Y82.9510 E2.1158
G1 X67.7400 Y82.9510 E2.1311
G1 X67.7400 Y81.9240 E2.1680
G1 X68.1650 Y81.9240 E2.1833
G1 X68.1650 Y81.0330 E2.2153
G1 X67.7400 Y81.0330 E2.2305
G1 X67.7400 Y62.7380 E2.8877
G1 X130.6610 Y62.7380 E5.1479
G1 X130.6610 Y63.1340 E5.1621
G1 X131.5340 Y63.1340 E5.1934
G1 X131.5340 Y62.7380 E5.2076
G1 X152.2600 Y62.7380 E5.9522
G1 X152.2600 Y94.0620 E7.0773
G1 X119.6080 Y124.4740 E8.6802
G1 X117.0580 Y124.4740 E8.7718
G1 X117.0580 Y126.8490 E8.8571
G1 X84.7400 Y156.9500 E10.4435
G1 X84.7400 Y141.4280 E11.0011
G1 X67.7400 Y141.4280 E11.6118
G1 X68.3520 Y82.6070 F6000
G92 E0.0000
G1 X68.0280 Y82.2830 E0.0165 F3600 ; custom outer perimeter feedrate
G92 E0.0000
G1 E-6 F2400 ; custom retraction
;layer 30, Z = 6.000
;fan30;
G1 Z6.000 F1200
G1 X68.0300 Y82.9510 F6000
G1 X68.1650 Y82.9510
G1 X68.1650 Y83.8160
G1 X68.0330 Y83.8160
G1 X68.2200 Y140.9480
G1 E0 F2400 ; custom un-retraction/prime
G92 E0.0000
G1 X68.2200 Y84.1950 E2.0386 F3600 ; custom outer perimeter feedrate
G1 X68.6450 Y84.1950 E2.0539
G1 X68.6450 Y80.6530 E2.1811
G1 X68.2200 Y80.6530 E2.1964
G1 X68.2200 Y63.2180 E2.8227
G1 X130.1810 Y63.2180 E5.0484
G1 X130.1810 Y63.6140 E5.0626
G1 X132.0140 Y63.6140 E5.1284
G1 X132.0140 Y63.2180 E5.1426
G1 X151.7800 Y63.2180 E5.8527
G1 X151.7800 Y93.8530 E6.9531
G1 X119.4190 Y123.9940 E8.5417
G1 X116.5780 Y123.9940 E8.6437
G1 X116.5780 Y126.6400 E8.7387
G1 X85.2200 Y155.8470 E10.2781
G1 X85.2200 Y140.9480 E10.8133
G1 X68.2200 Y140.9480 E11.4239
G1 X67.7400 Y141.4280 F6000
G92 E0.0000
G1 X67.7400 Y83.7150 E2.0731 F3600 ; custom inner perimeter feedrate
G1 X68.1650 Y83.7150 E2.0884
G1 X68.1650 Y82.8530 E2.1193
G1 X67.7400 Y82.8530 E2.1346
G1 X67.7400 Y82.0200 E2.1645
G1 X68.1650 Y82.0200 E2.1798
G1 X68.1650 Y81.1330 E2.2116
G1 X67.7400 Y81.1330 E2.2269
G1 X67.7400 Y62.7380 E2.8877
G1 X130.6610 Y62.7380 E5.1479
G1 X130.6610 Y63.1340 E5.1621
G1 X131.5340 Y63.1340 E5.1934
G1 X131.5340 Y62.7380 E5.2076
G1 X152.2600 Y62.7380 E5.9522
G1 X152.2600 Y94.0620 E7.0773
G1 X119.6080 Y124.4740 E8.6802
G1 X117.0580 Y124.4740 E8.7718
G1 X117.0580 Y126.8490 E8.8571
G1 X84.7400 Y156.9500 E10.4435
G1 X84.7400 Y141.4280 E11.0011
G1 X67.7400 Y141.4280 E11.6118
G1 X68.1950 Y82.5650 F6000
G92 E0.0000
G1 X68.3520 Y82.4080 E0.0080 F3600 ; custom outer perimeter feedrate
G92 E0.0000
G1 E-6 F2400 ; custom retraction
;layer 31, Z = 6.200
;fan31;
G1 Z6.200 F1200
G1 X68.2200 Y140.9480 F6000
G1 E0 F2400 ; custom un-retraction/prime
G92 E0.0000
G1 X68.2200 Y84.0950 E2.0422 F3600 ; custom outer perimeter feedrate
G1 X68.6450 Y84.0950 E2.0575
G1 X68.6450 Y80.7530 E2.1775
G1 X68.2200 Y80.7530 E2.1928
G1 X68.2200 Y63.2180 E2.8227
G1 X130.1810 Y63.2180 E5.0484
G1 X130.1810 Y63.6140 E5.0626
G1 X132.0140 Y63.6140 E5.1284
G1 X132.0140 Y63.2180 E5.1426
G1 X151.7800 Y63.2180 E5.8527
G1 X151.7800 Y93.8530 E6.9531
G1 X119.4190 Y123.9940 E8.5417
G1 X116.5780 Y123.9940 E8.6437
G1 X116.5780 Y126.6400 E8.7387
G1 X85.2200 Y155.8470 E10.2781
G1 X85.2200 Y140.9480 E10.8133
G1 X68.2200 Y140.9480 E11.4239
G1 X67.7400 Y141.4280 F6000
G92 E0.0000
G1 X67.7400 Y83.6150 E2.0767 F3600 ; custom inner perimeter feedrate
G1 X68.1650 Y83.6150 E2.0920
G1 X68.1650 Y82.7540 E2.1229
G1 X67.7400 Y82.7540 E2.1381
G1 X67.7400 Y82.1170 E2.1610
G1 X68.1650 Y82.1170 E2.1763
G1 X68.1650 Y81.2330 E2.2080
G1 X67.7400 Y81.2330 E2.2233
G1 X67.7400 Y62.7380 E2.8877
G1 X130.6610 Y62.7380 E5.1479
G1 X130.6610 Y63.1340 E5.1621
G1 X131.5340 Y63.1340 E5.1934
G1 X131.5340 Y62.7380 E5.2076
G1 X152.2600 Y62.7380 E5.9522
G1 X152.2600 Y94.0620 E7.0773
G1 X119.6080 Y124.4740 E8.6802
G1 X117.0580 Y124.4740 E8.7718
G1 X117.0580 Y126.8490 E8.8571
G1 X84.7400 Y156.9500 E10.4435
G1 X84.7400 Y141.4280 E11.0011
G1 X67.7400 Y141.4280 E11.6118
G1 X68.2110 Y82.4660 F6000
G92 E0.0000
G1 X68.1500 Y82.4050 E0.0031 F3600 ; custom outer perimeter feedrate
G92 E0.0000
G1 E-6 F2400 ; custom retraction
;layer 32, Z = 6.400
;fan32;
G1 Z6.400 F1200
G1 X68.1500 Y82.7540 F6000
G1 X68.1650 Y82.7540
G1 X68.1650 Y83.6150
G1 X68.1510 Y83.6150
G1 X68.2200 Y140.9480
G1 E0 F2400 ; custom un-retraction/prime
G92 E0.0000
G1 X68.2200 Y83.9940 E2.0458 F3600 ; custom outer perimeter feedrate
G1 X68.6450 Y83.9940 E2.0611
G1 X68.6450 Y80.8540 E2.1739
G1 X68.2200 Y80.8540 E2.1892
G1 X68.2200 Y63.2180 E2.8227
G1 X130.1810 Y63.2180 E5.0484
G1 X130.1810 Y63.6140 E5.0626
G1 X132.0140 Y63.6140 E5.1284
G1 X132.0140 Y63.2180 E5.1426
G1 X151.7800 Y63.2180 E5.8527
G1 X151.7800 Y93.8530 E6.9531
G1 X119.4190 Y123.9940 E8.5417
G1 X116.5780 Y123.9940 E8.6437
G1 X116.5780 Y126.6400 E8.7387
G1 X85.2200 Y155.8470 E10.2781
G1 X85.2200 Y140.9480 E10.8133
G1 X68.2200 Y140.9480 E11.4239
G1 X67.7400 Y141.4280 F6000
G92 E0.0000
G1 X67.7400 Y83.5140 E2.0803 F3600 ; custom inner perimeter feedrate
G1 X68.1650 Y83.5140 E2.0956
G1 X68.1650 Y82.6560 E2.1264
G1 X67.7400 Y82.6560 E2.1417
G1 X67.7400 Y82.2140 E2.1576
G1 X68.1650 Y82.2140 E2.1728
G1 X68.1650 Y81.3340 E2.2044
G1 X67.7400 Y81.3340 E2.2197
G1 X67.7400 Y62.7380 E2.8877
G1 X130.6610 Y62.7380 E5.1479
G1 X130.6610 Y63.1340 E5.1621
G1 X131.5340 Y63.1340 E5.1934
G1 X131.5340 Y62.7380 E5.2076
G1 X152.2600 Y62.7380 E5.9522
G1 X152.2600 Y94.0620 E7.0773
G1 X119.6080 Y124.4740 E8.6802
G1 X117.0580 Y124.4740 E8.7718
G1 X117.0580 Y126.8490 E8.8571
G1 X84.7400 Y156.9500 E10.4435
G1 X84.7400 Y141.4280 E11.0011
G1 X67.7400 Y141.4280 E11.6118
G92 E0.0000
G1 E-6 F2400 ; custom retraction
;layer 33, Z = 6.600
;fan33;
G1 Z6.600 F1200
G1 X68.2200 Y140.9480 F6000
G1 E0 F2400 ; custom un-retraction/prime
G92 E0.0000
G1 X68.2200 Y83.8930 E2.0495 F3600 ; custom outer perimeter feedrate
G1 X68.6450 Y83.8930 E2.0647
G1 X68.6450 Y80.9540 E2.1703
G1 X68.2200 Y80.9540 E2.1856
G1 X68.2200 Y63.2180 E2.8227
G1 X130.1810 Y63.2180 E5.0484
G1 X130.1810 Y63.6140 E5.0626
G1 X132.0140 Y63.6140 E5.1284
G1 X132.0140 Y63.2180 E5.1426
G1 X151.7800 Y63.2180 E5.8527
G1 X151.7800 Y93.8530 E6.9531
G1 X119.4190 Y123.9940 E8.5417
G1 X116.5780 Y123.9940 E8.6437
G1 X116.5780 Y126.6400 E8.7387
G1 X85.2200 Y155.8470 E10.2781
G1 X85.2200 Y140.9480 E10.8133
G1 X68.2200 Y140.9480 E11.4239
G1 X67.7400 Y141.4280 F6000
G92 E0.0000
G1 X67.7400 Y83.4130 E2.0840 F3600 ; custom inner perimeter feedrate
G1 X68.1650 Y83.4130 E2.0992
G1 X68.1650 Y82.5570 E2.1300
G1 X67.7400 Y82.5570 E2.1452
G1 X67.7400 Y82.3110 E2.1541
G1 X68.1650 Y82.3110 E2.1693
G1 X68.1650 Y81.4340 E2.2008
G1 X67.7400 Y81.4340 E2.2161
G1 X67.7400 Y62.7380 E2.8877
G1 X130.6610 Y62.7380 E5.1479
G1 X130.6610 Y63.1340 E5.1621
G1 X131.5340 Y63.1340 E5.1934
G1 X131.5340 Y62.7380 E5.2076
G1 X152.2600 Y62.7380 E5.9522
G1 X152.2600 Y94.0620 E7.0773
G1 X119.6080 Y124.4740 E8.6802
G1 X117.0580 Y124.4740 E8.7718
G1 X117.0580 Y126.8490 E8.8571
G1 X84.7400 Y156.9500 E10.4435
G1 X84.7400 Y141.4280 E11.0011
G1 X67.7400 Y141.4280 E11.6118
G92 E0.0000
G1 E-6 F2400 ; custom retraction
;layer 34, Z = 6.800
;fan34;
G1 Z6.800 F1200
G1 X68.2200 Y140.9480 F6000
G1 E0 F2400 ; custom un-retraction/prime
G92 E0.0000
G1 X68.2200 Y83.7920 E2.0531 F3600 ; custom outer perimeter feedrate
G1 X68.6450 Y83.7920 E2.0684
G1 X68.6450 Y81.0550 E2.1667
G1 X68.2200 Y81.0550 E2.1820
G1 X68.2200 Y63.2180 E2.8227
G1 X130.1810 Y63.2180 E5.0484
G1 X130.1810 Y63.6140 E5.0626
G1 X132.0140 Y63.6140 E5.1284
G1 X132.0140 Y63.2180 E5.1426
G1 X151.7800 Y63.2180 E5.8527
G1 X151.7800 Y93.8530 E6.9531
G1 X119.4190 Y123.9940 E8.5417
G1 X116.5780 Y123.9940 E8.6437
G1 X116.5780 Y126.6400 E8.7387
G1 X85.2200 Y155.8470 E10.2781
G1 X85.2200 Y140.9480 E10.8133
G1 X68.2200 Y140.9480 E11.4239
G1 X67.7400 Y141.4280 F6000
G92 E0.0000
G1 X67.7400 Y83.3120 E2.0876 F3600 ; custom inner perimeter feedrate
G1 X68.1650 Y83.3120 E2.1028
G1 X68.1650 Y82.4590 E2.1335
G1 X67.7400 Y82.4590 E2.1488
G1 X67.7400 Y82.4070 E2.1506
G1 X68.1650 Y82.4070 E2.1659
G1 X68.1650 Y81.5350 E2.1972
G1 X67.7400 Y81.5350 E2.2125
G1 X67.7400 Y62.7380 E2.8877
G1 X130.6610 Y62.7380 E5.1479
G1 X130.6610 Y63.1340 E5.1621
G1 X131.5340 Y63.1340 E5.1934
G1 X131.5340 Y62.7380 E5.2076
G1 X152.2600 Y62.7380 E5.9522
G1 X152.2600 Y94.0620 E7.0773
G1 X119.6080 Y124.4740 E8.6802
G1 X117.0580 Y124.4740 E8.7718
G1 X117.0580 Y126.8490 E8.8571
G1 X84.7400 Y156.9500 E10.4435
G1 X84.7400 Y141.4280 E11.0011
G1 X67.7400 Y141.4280 E11.6118
G92 E0.0000
G1 E-6 F2400 ; custom retraction
;layer 35, Z = 7.000
;fan35;
G1 Z7.000 F1200
G1 X68.2200 Y140.9480 F6000
G1 E0 F2400 ; custom un-retraction/prime
G92 E0.0000
G1 X68.2200 Y83.6920 E2.0567 F3600 ; custom outer perimeter feedrate
G1 X68.6450 Y83.6920 E2.0720
G1 X68.6450 Y81.1550 E2.1631
G1 X68.2200 Y81.1550 E2.1784
G1 X68.2200 Y63.2180 E2.8227
G1 X130.1810 Y63.2180 E5.0484
G1 X130.1810 Y63.6140 E5.0626
G1 X132.0140 Y63.6140 E5.1284
G1 X132.0140 Y63.2180 E5.1426
G1 X151.7800 Y63.2180 E5.8527
G1 X151.7800 Y93.8530 E6.9531
G1 X119.4190 Y123.9940 E8.5417
G1 X116.5780 Y123.9940 E8.6437
G1 X116.5780 Y126.6400 E8.7387
G1 X85.2200 Y155.8470 E10.2781
G1 X85.2200 Y140.9480 E10.8133
G1 X68.2200 Y140.9480 E11.4239
G1 X67.7400 Y141.4280 F6000
G92 E0.0000
G1 X67.7400 Y83.2120 E2.0912 F3600 ; custom inner perimeter feedrate
G1 X68.1650 Y83.2120 E2.1065
G1 X68.1650 Y81.6350 E2.1631
G1 X67.7400 Y81.6350 E2.1784
G1 X67.7400 Y62.7380 E2.8572
G1 X130.6610 Y62.7380 E5.1173
G1 X130.6610 Y63.1340 E5.1315
G1 X131.5340 Y63.1340 E5.1629
G1 X131.5340 Y62.7380 E5.1771
G1 X152.2600 Y62.7380 E5.9216
G1 X152.2600 Y94.0620 E7.0468
G1 X119.6080 Y124.4740 E8.6497
G1 X117.0580 Y124.4740 E8.7412
G1 X117.0580 Y126.8490 E8.8266
G1 X84.7400 Y156.9500 E10.4130
G1 X84.7400 Y141.4280 E10.9706
G1 X67.7400 Y141.4280 E11.5812
G92 E0.0000
G1 E-6 F2400 ; custom retraction
;layer 36, Z = 7.200
;fan36;
G1 Z7.200 F1200
G1 X68.2200 Y140.9480 F6000
G1 E0 F2400 ; custom un-retraction/prime
G92 E0.0000
G1 X68.2200 Y83.5910 E2.0603 F3600 ; custom outer perimeter feedrate
G1 X68.6450 Y83.5910 E2.0756
G1 X68.6450 Y81.2550 E2.1595
G1 X68.2200 Y81.2550 E2.1748
G1 X68.2200 Y63.2180 E2.8227
G1 X130.1360 Y63.2180 E5.0468
G1 X130.1360 Y63.6140 E5.0610
G1 X132.0480 Y63.6140 E5.1297
G1 X132.0480 Y63.2180 E5.1439
G1 X151.7800 Y63.2180 E5.8527
G1 X151.7800 Y93.8530 E6.9531
G1 X119.4190 Y123.9940 E8.5417
G1 X116.5780 Y123.9940 E8.6437
G1 X116.5780 Y126.6400 E8.7387
G1 X85.2200 Y155.8470 E10.2781
G1 X85.2200 Y140.9480 E10.8133
G1 X68.2200 Y140.9480 E11.4239
G1 X67.7400 Y141.4280 F6000
G92 E0.0000
G1 X67.7400 Y83.1110 E2.0948 F3600 ; custom inner perimeter feedrate
G1 X68.1650 Y83.1110 E2.1101
G1 X68.1650 Y81.7350 E2.1595
G1 X67.7400 Y81.7350 E2.1748
G1 X67.7400 Y62.7380 E2.8572
G1 X130.6160 Y62.7380 E5.1157
G1 X130.6160 Y63.1340 E5.1300
G1 X131.5680 Y63.1340 E5.1641
G1 X131.5680 Y62.7380 E5.1784
G1 X152.2600 Y62.7380 E5.9216
G1 X152.2600 Y94.0620 E7.0468
G1 X119.6080 Y124.4740 E8.6497
G1 X117.0580 Y124.4740 E8.7412
G1 X117.0580 Y126.8490 E8.8266
G1 X84.7400 Y156.9500 E10.4130
G1 X84.7400 Y141.4280 E10.9706
G1 X67.7400 Y141.4280 E11.5812
G92 E0.0000
G1 E-6 F2400 ; custom retraction
;layer 37, Z = 7.400
;fan37;
G1 Z7.400 F1200
G1 X68.2200 Y140.9480 F6000
G1 E0 F2400 ; custom un-retraction/prime
G92 E0.0000
G1 X68.2200 Y83.4900 E2.0639 F3600 ; custom outer perimeter feedrate
G1 X68.6450 Y83.4900 E2.0792
G1 X68.6450 Y81.3560 E2.1559
G1 X68.2200 Y81.3560 E2.1711
G1 X68.2200 Y63.2180 E2.8227
G1 X130.0450 Y63.2180 E5.0435
G1 X130.0450 Y63.6140 E5.0577
G1 X132.1410 Y63.6140 E5.1330
G1 X132.1410 Y63.2180 E5.1472
G1 X151.7800 Y63.2180 E5.8527
G1 X151.7800 Y93.8530 E6.9531
G1 X119.4190 Y123.9940 E8.5417
G1 X116.5780 Y123.9940 E8.6437
G1 X116.5780 Y126.6400 E8.7387
G1 X85.2200 Y155.8470 E10.2781
G1 X85.2200 Y140.9480 E10.8133
G1 X68.2200 Y140.9480 E11.4239
G1 X67.7400 Y141.4280 F6000
G92 E0.0000
G1 X67.7400 Y83.0100 E2.0984 F3600 ; custom inner perimeter feedrate
G1 X68.1650 Y83.0100 E2.1137
G1 X68.1650 Y81.8360 E2.1559
G1 X67.7400 Y81.8360 E2.1711
G1 X67.7400 Y62.7380 E2.8572
G1 X130.5250 Y62.7380 E5.1124
G1 X130.5250 Y63.1340 E5.1267
G1 X131.6610 Y63.1340 E5.1675
G1 X131.6610 Y62.7380 E5.1817
G1 X152.2600 Y62.7380 E5.9216
G1 X152.2600 Y94.0620 E7.0468
G1 X119.6080 Y124.4740 E8.6497
G1 X117.0580 Y124.4740 E8.7412
G1 X117.0580 Y126.8490 E8.8266
G1 X84.7400 Y156.9500 E10.4130
G1 X84.7400 Y141.4280 E10.9706
G1 X67.7400 Y141.4280 E11.5812
G92 E0.0000
G1 E-6 F2400 ; custom retraction
;layer 38, Z = 7.600
;fan38;
G1 Z7.600 F1200
G1 X68.2200 Y140.9480 F6000
G1 E0 F2400 ; custom un-retraction/prime
G92 E0.0000
G1 X68.2200 Y83.3890 E2.0676 F3600 ; custom outer perimeter feedrate
G1 X68.6450 Y83.3890 E2.0828
G1 X68.6450 Y81.4560 E2.1523
G1 X68.2200 Y81.4560 E2.1675
G1 X68.2200 Y63.2180 E2.8227
G1 X129.9530 Y63.2180 E5.0402
G1 X129.9530 Y63.6140 E5.0544
G1 X132.2340 Y63.6140 E5.1363
G1 X132.2340 Y63.2180 E5.1505
G1 X151.7800 Y63.2180 E5.8527
G1 X151.7800 Y93.8530 E6.9531
G1 X119.4190 Y123.9940 E8.5417
G1 X116.5780 Y123.9940 E8.6437
G1 X116.5780 Y126.6400 E8.7387
G1 X85.2200 Y155.8470 E10.2781
G1 X85.2200 Y140.9480 E10.8133
G1 X68.2200 Y140.9480 E11.4239
G1 X67.7400 Y141.4280 F6000
G92 E0.0000
G1 X67.7400 Y82.9090 E2.1020 F3600 ; custom inner perimeter feedrate
G1 X68.1650 Y82.9090 E2.1173
G1 X68.1650 Y81.9360 E2.1523
G1 X67.7400 Y81.9360 E2.1675
G1 X67.7400 Y62.7380 E2.8572
G1 X130.4330 Y62.7380 E5.1091
G1 X130.4330 Y63.1340 E5.1234
G1 X131.7540 Y63.1340 E5.1708
G1 X131.7540 Y62.7380 E5.1850
G1 X152.2600 Y62.7380 E5.9216
G1 X152.2600 Y94.0620 E7.0468
G1 X119.6080 Y124.4740 E8.6497
G1 X117.0580 Y124.4740 E8.7412
G1 X117.0580 Y126.8490 E8.8266
G1 X84.7400 Y156.9500 E10.4130
G1 X84.7400 Y141.4280 E10.9706
G1 X67.7400 Y141.4280 E11.5812
G92 E0.0000
G1 E-6 F2400 ; custom retraction
;layer 39, Z = 7.800
;fan39;
G1 Z7.800 F1200
G1 X68.2200 Y140.9480 F6000
G1 E0 F2400 ; custom un-retraction/prime
G92 E0.0000
G1 X68.2200 Y83.4180 E2.0665 F3600 ; custom outer perimeter feedrate
G1 X68.6450 Y83.4180 E2.0818
G1 X68.6450 Y81.4430 E2.1528
G1 X68.2200 Y81.4430 E2.1680
G1 X68.2200 Y63.2180 E2.8227
G1 X129.8610 Y63.2180 E5.0369
G1 X129.8610 Y63.6140 E5.0511
G1 X132.3260 Y63.6140 E5.1396
G1 X132.3260 Y63.2180 E5.1539
G1 X151.7800 Y63.2180 E5.8527
G1 X151.7800 Y93.8530 E6.9531
G1 X119.4190 Y123.9940 E8.5417
G1 X116.5780 Y123.9940 E8.6437
G1 X116.5780 Y126.6400 E8.7387
G1 X85.2200 Y155.8470 E10.2781
G1 X85.2200 Y140.9480 E10.8133
G1 X68.2200 Y140.9480 E11.4239
G1 X67.7400 Y141.4280 F6000
G92 E0.0000
G1 X67.7400 Y82.9380 E2.1010 F3600 ; custom inner perimeter feedrate
G1 X68.1650 Y82.9380 E2.1163
G1 X68.1650 Y81.9230 E2.1528
G1 X67.7400 Y81.9230 E2.1680
G1 X67.7400 Y62.7380 E2.8572
G1 X130.3410 Y62.7380 E5.1059
G1 X130.3410 Y63.1340 E5.1201
G1 X131.8460 Y63.1340 E5.1741
G1 X131.8460 Y62.7380 E5.1883
G1 X152.2600 Y62.7380 E5.9216
G1 X152.2600 Y94.0620 E7.0468
G1 X119.6080 Y124.4740 E8.6497
G1 X117.0580 Y124.4740 E8.7412
G1 X117.0580 Y126.8490 E8.8266
G1 X84.7400 Y156.9500 E10.4130
G1 X84.7400 Y141.4280 E10.9706
G1 X67.7400 Y141.4280 E11.5812
G92 E0.0000
G1 E-6 F2400 ; custom retraction
;layer 40, Z = 8.000
;fan40;
G1 Z8.000 F1200
G1 X68.2200 Y140.9480 F6000
G1 E0 F2400 ; custom un-retraction/prime
G92 E0.0000
G1 X68.2200 Y83.5210 E2.0628 F3600 ; custom outer perimeter feedrate
G1 X68.6450 Y83.5210 E2.0781
G1 X68.6450 Y81.3390 E2.1565
G1 X68.2200 Y81.3390 E2.1717
G1 X68.2200 Y63.2180 E2.8227
G1 X129.7700 Y63.2180 E5.0336
G1 X129.7700 Y63.6140 E5.0478
G1 X132.4190 Y63.6140 E5.1430
G1 X132.4190 Y63.2180 E5.1572
G1 X151.7800 Y63.2180 E5.8527
G1 X151.7800 Y93.8530 E6.9531
G1 X119.4190 Y123.9940 E8.5417
G1 X116.5780 Y123.9940 E8.6437
G1 X116.5780 Y126.6400 E8.7387
G1 X85.2200 Y155.8470 E10.2781
G1 X85.2200 Y140.9480 E10.8133
G1 X68.2200 Y140.9480 E11.4239
G1 X67.7400 Y141.4280 F6000
G92 E0.0000
G1 X67.7400 Y83.0410 E2.0973 F3600 ; custom inner perimeter feedrate
G1 X68.1650 Y83.0410 E2.1126
G1 X68.1650 Y81.8190 E2.1565
G1 X67.7400 Y81.8190 E2.1717
G1 X67.7400 Y62.7380 E2.8572
G1 X130.2500 Y62.7380 E5.1026
G1 X130.2500 Y63.1340 E5.1168
G1 X131.9390 Y63.1340 E5.1775
G1 X131.9390 Y62.7380 E5.1917
G1 X152.2600 Y62.7380 E5.9216
G1 X152.2600 Y94.0620 E7.0468
G1 X119.6080 Y124.4740 E8.6497
G1 X117.0580 Y124.4740 E8.7412
G1 X117.0580 Y126.8490 E8.8266
G1 X84.7400 Y156.9500 E10.4130
G1 X84.7400 Y141.4280 E10.9706
G1 X67.7400 Y141.4280 E11.5812
G92 E0.0000
G1 E-6 F2400 ; custom retraction
;layer 41, Z = 8.200
;fan41;
G1 Z8.200 F1200
G1 X68.2200 Y140.9480 F6000
G1 E0 F2400 ; custom un-retraction/prime
G92 E0.0000
G1 X68.2200 Y83.6240 E2.0591 F3600 ; custom outer perimeter feedrate
G1 X68.6450 Y83.6240 E2.0744
G1 X68.6450 Y81.2360 E2.1602
G1 X68.2200 Y81.2360 E2.1755
G1 X68.2200 Y63.2180 E2.8227
G1 X129.6780 Y63.2180 E5.0303
G1 X129.6780 Y63.6140 E5.0445
G1 X132.5120 Y63.6140 E5.1463
G1 X132.5120 Y63.2180 E5.1605
G1 X151.7800 Y63.2180 E5.8527
G1 X151.7800 Y93.8530 E6.9531
G1 X119.4190 Y123.9940 E8.5417
G1 X116.5780 Y123.9940 E8.6437
G1 X116.5780 Y126.6400 E8.7387
G1 X85.2200 Y155.8470 E10.2781
G1 X85.2200 Y140.9480 E10.8133
G1 X68.2200 Y140.9480 E11.4239
G1 X67.7400 Y141.4280 F6000
G92 E0.0000
G1 X67.7400 Y83.1440 E2.0936 F3600 ; custom inner perimeter feedrate
G1 X68.1650 Y83.1440 E2.1089
G1 X68.1650 Y81.7160 E2.1602
G1 X67.7400 Y81.7160 E2.1755
G1 X67.7400 Y62.7380 E2.8572
G1 X130.1580 Y62.7380 E5.0993
G1 X130.1580 Y63.1340 E5.1135
G1 X131.0520 Y63.1340 E5.1456
G1 X131.0520 Y62.7380 E5.1598
G1 X131.1450 Y62.7380 E5.1631
G1 X131.1450 Y63.1340 E5.1774
G1 X132.0320 Y63.1340 E5.2092
G1 X132.0320 Y62.7380 E5.2234
G1 X152.2600 Y62.7380 E5.9501
G1 X152.2600 Y94.0620 E7.0752
G1 X119.6080 Y124.4740 E8.6781
G1 X117.0580 Y124.4740 E8.7697
G1 X117.0580 Y126.8490 E8.8550
G1 X84.7400 Y156.9500 E10.4414
G1 X84.7400 Y141.4280 E10.9990
G1 X67.7400 Y141.4280 E11.6097
G92 E0.0000
G1 E-6 F2400 ; custom retraction
;layer 42, Z = 8.400
;fan42;
G1 Z8.400 F1200
G1 X68.2200 Y140.9480 F6000
G1 E0 F2400 ; custom un-retraction/prime
G92 E0.0000
G1 X68.2200 Y83.7260 E2.0555 F3600 ; custom outer perimeter feedrate
G1 X68.6450 Y83.7260 E2.0707
G1 X68.6450 Y81.1320 E2.1639
G1 X68.2200 Y81.1320 E2.1792
G1 X68.2200 Y63.2180 E2.8227
G1 X129.5860 Y63.2180 E5.0270
G1 X129.5860 Y63.6140 E5.0412
G1 X132.6040 Y63.6140 E5.1496
G1 X132.6040 Y63.2180 E5.1639
G1 X151.7800 Y63.2180 E5.8527
G1 X151.7800 Y93.8530 E6.9531
G1 X119.4190 Y123.9940 E8.5417
G1 X116.5780 Y123.9940 E8.6437
G1 X116.5780 Y126.6400 E8.7387
G1 X85.2200 Y155.8470 E10.2781
G1 X85.2200 Y140.9480 E10.8133
G1 X68.2200 Y140.9480 E11.4239
G1 X67.7400 Y141.4280 F6000
G92 E0.0000
G1 X67.7400 Y83.2460 E2.0899 F3600 ; custom inner perimeter feedrate
G1 X68.1650 Y83.2460 E2.1052
G1 X68.1650 Y81.6120 E2.1639
G1 X67.7400 Y81.6120 E2.1792
G1 X67.7400 Y62.7380 E2.8572
G1 X130.0660 Y62.7380 E5.0960
G1 X130.0660 Y63.1340 E5.1102
G1 X130.9620 Y63.1340 E5.1424
G1 X130.9620 Y62.7380 E5.1566
G1 X131.2350 Y62.7380 E5.1664
G1 X131.2350 Y63.1340 E5.1806
G1 X132.1240 Y63.1340 E5.2126
G1 X132.1240 Y62.7380 E5.2268
G1 X152.2600 Y62.7380 E5.9501
G1 X152.2600 Y94.0620 E7.0752
G1 X119.6080 Y124.4740 E8.6781
G1 X117.0580 Y124.4740 E8.7697
G1 X117.0580 Y126.8490 E8.8550
G1 X84.7400 Y156.9500 E10.4414
G1 X84.7400 Y141.4280 E10.9990
G1 X67.7400 Y141.4280 E11.6097
G92 E0.0000
G1 E-6 F2400 ; custom retraction
;layer 43, Z = 8.600
;fan43;
G1 Z8.600 F1200
G1 X68.2200 Y140.9480 F6000
G1 E0 F2400 ; custom un-retraction/prime
G92 E0.0000
G1 X68.2200 Y83.8290 E2.0518 F3600 ; custom outer perimeter feedrate
G1 X68.6450 Y83.8290 E2.0670
G1 X68.6450 Y81.0280 E2.1676
G1 X68.2200 Y81.0280 E2.1829
G1 X68.2200 Y63.2180 E2.8227
G1 X129.4950 Y63.2180 E5.0237
G1 X129.4950 Y63.6140 E5.0379
G1 X132.6970 Y63.6140 E5.1530
G1 X132.6970 Y63.2180 E5.1672
G1 X151.7800 Y63.2180 E5.8527
G1 X151.7800 Y93.8530 E6.9531
G1 X119.4190 Y123.9940 E8.5417
G1 X116.5780 Y123.9940 E8.6437
G1 X116.5780 Y126.6400 E8.7387
G1 X85.2200 Y155.8470 E10.2781
G1 X85.2200 Y140.9480 E10.8133
G1 X68.2200 Y140.9480 E11.4239
G1 X67.7400 Y141.4280 F6000
G92 E0.0000
G1 X67.7400 Y83.3490 E2.0862 F3600 ; custom inner perimeter feedrate
G1 X68.1650 Y83.3490 E2.1015
G1 X68.1650 Y82.4830 E2.1326
G1 X67.7400 Y82.4830 E2.1479
G1 X67.7400 Y82.3600 E2.1523
G1 X68.1650 Y82.3600 E2.1676
G1 X68.1650 Y81.5080 E2.1982
G1 X67.7400 Y81.5080 E2.2134
G1 X67.7400 Y62.7380 E2.8877
G1 X129.9750 Y62.7380 E5.1232
G1 X129.9750 Y63.1340 E5.1374
G1 X130.8720 Y63.1340 E5.1697
G1 X130.8720 Y62.7380 E5.1839
G1 X131.3260 Y62.7380 E5.2002
G1 X131.3260 Y63.1340 E5.2144
G1 X132.2170 Y63.1340 E5.2464
G1 X132.2170 Y62.7380 E5.2606
G1 X152.2600 Y62.7380 E5.9806
G1 X152.2600 Y94.0620 E7.1058
G1 X119.6080 Y124.4740 E8.7086
G1 X117.0580 Y124.4740 E8.8002
G1 X117.0580 Y126.8490 E8.8855
G1 X84.7400 Y156.9500 E10.4720
G1 X84.7400 Y141.4280 E11.0296
G1 X67.7400 Y141.4280 E11.6402
G92 E0.0000
G1 E-6 F2400 ; custom retraction
;layer 44, Z = 8.800
;fan44;
G1 Z8.800 F1200
G1 X68.2200 Y140.9480 F6000
G1 E0 F2400 ; custom un-retraction/prime
G92 E0.0000
G1 X68.2200 Y83.9320 E2.0481 F3600 ; custom outer perimeter feedrate
G1 X68.6450 Y83.9320 E2.0633
G1 X68.6450 Y80.9250 E2.1714
G1 X68.2200 Y80.9250 E2.1866
G1 X68.2200 Y63.2180 E2.8227
G1 X129.4030 Y63.2180 E5.0204
G1 X129.4030 Y63.6140 E5.0346
G1 X132.7900 Y63.6140 E5.1563
G1 X132.7900 Y63.2180 E5.1705
G1 X151.7800 Y63.2180 E5.8527
G1 X151.7800 Y93.8530 E6.9531
G1 X119.4190 Y123.9940 E8.5417
G1 X116.5780 Y123.9940 E8.6437
G1 X116.5780 Y126.6400 E8.7387
G1 X85.2200 Y155.8470 E10.2781
G1 X85.2200 Y140.9480 E10.8133
G1 X68.2200 Y140.9480 E11.4239
G1 X67.7400 Y141.4280 F6000
G92 E0.0000
G1 X67.7400 Y83.4520 E2.0825 F3600 ; custom inner perimeter feedrate
G1 X68.1650 Y83.4520 E2.0978
G1 X68.1650 Y82.5820 E2.1291
G1 X67.7400 Y82.5820 E2.1443
G1 X67.7400 Y82.2600 E2.1559
G1 X68.1650 Y82.2600 E2.1712
G1 X68.1650 Y81.4050 E2.2019
G1 X67.7400 Y81.4050 E2.2172
G1 X67.7400 Y62.7380 E2.8877
G1 X129.8830 Y62.7380 E5.1199
G1 X129.8830 Y63.1340 E5.1341
G1 X130.7820 Y63.1340 E5.1664
G1 X130.7820 Y62.7380 E5.1806
G1 X131.4170 Y62.7380 E5.2034
G1 X131.4170 Y63.1340 E5.2177
G1 X132.3100 Y63.1340 E5.2497
G1 X132.3100 Y62.7380 E5.2640
G1 X152.2600 Y62.7380 E5.9806
G1 X152.2600 Y94.0620 E7.1058
G1 X119.6080 Y124.4740 E8.7086
G1 X117.0580 Y124.4740 E8.8002
G1 X117.0580 Y126.8490 E8.8855
G1 X84.7400 Y156.9500 E10.4720
G1 X84.7400 Y141.4280 E11.0296
G1 X67.7400 Y141.4280 E11.6402
G1 X131.0700 Y63.1350 F6000
G92 E0.0000
G1 X131.1290 Y63.0760 E0.0030 F3600 ; custom outer perimeter feedrate
G92 E0.0000
G1 E-6 F2400 ; custom retraction
;layer 45, Z = 9.000
;fan45;
G1 Z9.000 F1200
G1 X68.2200 Y140.9480 F6000
G1 E0 F2400 ; custom un-retraction/prime
G92 E0.0000
G1 X68.2200 Y84.0350 E2.0444 F3600 ; custom outer perimeter feedrate
G1 X68.6450 Y84.0350 E2.0596
G1 X68.6450 Y80.8210 E2.1751
G1 X68.2200 Y80.8210 E2.1903
G1 X68.2200 Y63.2180 E2.8227
G1 X129.3110 Y63.2180 E5.0171
G1 X129.3110 Y63.6140 E5.0313
G1 X132.8820 Y63.6140 E5.1596
G1 X132.8820 Y63.2180 E5.1738
G1 X151.7800 Y63.2180 E5.8527
G1 X151.7800 Y93.8530 E6.9531
G1 X119.4190 Y123.9940 E8.5417
G1 X116.5780 Y123.9940 E8.6437
G1 X116.5780 Y126.6400 E8.7387
G1 X85.2200 Y155.8470 E10.2781
G1 X85.2200 Y140.9480 E10.8133
G1 X68.2200 Y140.9480 E11.4239
G1 X67.7400 Y141.4280 F6000
G92 E0.0000
G1 X67.7400 Y83.5550 E2.0789 F3600 ; custom inner perimeter feedrate
G1 X68.1650 Y83.5550 E2.0941
G1 X68.1650 Y82.6810 E2.1255
G1 X67.7400 Y82.6810 E2.1408
G1 X67.7400 Y82.1600 E2.1595
G1 X68.1650 Y82.1600 E2.1748
G1 X68.1650 Y81.3010 E2.2056
G1 X67.7400 Y81.3010 E2.2209
G1 X67.7400 Y62.7380 E2.8877
G1 X129.7910 Y62.7380 E5.1166
G1 X129.7910 Y63.1340 E5.1308
G1 X130.6920 Y63.1340 E5.1632
G1 X130.6920 Y62.7380 E5.1774
G1 X131.5070 Y62.7380 E5.2067
G1 X131.5070 Y63.1340 E5.2209
G1 X132.4020 Y63.1340 E5.2531
G1 X132.4020 Y62.7380 E5.2673
G1 X152.2600 Y62.7380 E5.9806
G1 X152.2600 Y94.0620 E7.1058
G1 X119.6080 Y124.4740 E8.7086
G1 X117.0580 Y124.4740 E8.8002
G1 X117.0580 Y126.8490 E8.8855
G1 X84.7400 Y156.9500 E10.4720
G1 X84.7400 Y141.4280 E11.0296
G1 X67.7400 Y141.4280 E11.6402
G1 X131.2030 Y63.3210 F6000
G92 E0.0000
G1 X130.9800 Y63.0980 E0.0113 F3600 ; custom outer perimeter feedrate
G92 E0.0000
G1 E-6 F2400 ; custom retraction
;layer 46, Z = 9.200
;fan46;
G1 Z9.200 F1200
G1 X68.2200 Y140.9480 F6000
G1 E0 F2400 ; custom un-retraction/prime
G92 E0.0000
G1 X68.2200 Y84.1380 E2.0407 F3600 ; custom outer perimeter feedrate
G1 X68.6450 Y84.1380 E2.0559
G1 X68.6450 Y80.7180 E2.1788
G1 X68.2200 Y80.7180 E2.1941
G1 X68.2200 Y63.2180 E2.8227
G1 X129.2200 Y63.2180 E5.0138
G1 X129.2200 Y63.6140 E5.0280
G1 X132.9750 Y63.6140 E5.1630
G1 X132.9750 Y63.2180 E5.1772
G1 X151.7800 Y63.2180 E5.8527
G1 X151.7800 Y93.8530 E6.9531
G1 X119.4190 Y123.9940 E8.5417
G1 X116.5780 Y123.9940 E8.6437
G1 X116.5780 Y126.6400 E8.7387
G1 X85.2200 Y155.8470 E10.2781
G1 X85.2200 Y140.9480 E10.8133
G1 X68.2200 Y140.9480 E11.4239
G1 X67.7400 Y141.4280 F6000
G92 E0.0000
G1 X67.7400 Y83.6580 E2.0752 F3600 ; custom inner perimeter feedrate
G1 X68.1650 Y83.6580 E2.0904
G1 X68.1650 Y82.7800 E2.1220
G1 X67.7400 Y82.7800 E2.1372
G1 X67.7400 Y82.0590 E2.1631
G1 X68.1650 Y82.0590 E2.1784
G1 X68.1650 Y81.1980 E2.2093
G1 X67.7400 Y81.1980 E2.2246
G1 X67.7400 Y62.7380 E2.8877
G1 X129.7000 Y62.7380 E5.1133
G1 X129.7000 Y63.1340 E5.1275
G1 X130.6020 Y63.1340 E5.1600
G1 X130.6020 Y62.7380 E5.1742
G1 X131.5980 Y62.7380 E5.2100
G1 X131.5980 Y63.1340 E5.2242
G1 X132.4950 Y63.1340 E5.2564
G1 X132.4950 Y62.7380 E5.2706
G1 X152.2600 Y62.7380 E5.9806
G1 X152.2600 Y94.0620 E7.1058
G1 X119.6080 Y124.4740 E8.7086
G1 X117.0580 Y124.4740 E8.8002
G1 X117.0580 Y126.8490 E8.8855
G1 X84.7400 Y156.9500 E10.4720
G1 X84.7400 Y141.4280 E11.0296
G1 X67.7400 Y141.4280 E11.6402
G1 X68.2680 Y82.4920 F6000
G92 E0.0000
G1 X68.3520 Y82.4080 E0.0043 F3600 ; custom outer perimeter feedrate
G1 X130.8900 Y63.3150 F6000
G92 E0.0000
G1 X131.1790 Y63.0260 E0.0147 F3600 ; custom outer perimeter feedrate
G92 E0.0000
G1 E-6 F2400 ; custom retraction
;layer 47, Z = 9.400
;fan47;
G1 Z9.400 F1200
G1 X68.2200 Y140.9480 F6000
G1 E0 F2400 ; custom un-retraction/prime
G92 E0.0000
G1 X68.2200 Y84.2400 E2.0370 F3600 ; custom outer perimeter feedrate
G1 X68.6450 Y84.2400 E2.0523
G1 X68.6450 Y80.6140 E2.1825
G1 X68.2200 Y80.6140 E2.1978
G1 X68.2200 Y63.2180 E2.8227
G1 X129.1280 Y63.2180 E5.0105
G1 X129.1280 Y63.6140 E5.0248
G1 X133.0680 Y63.6140 E5.1663
G1 X133.0680 Y63.2180 E5.1805
G1 X151.7800 Y63.2180 E5.8527
G1 X151.7800 Y93.8530 E6.9531
G1 X119.4190 Y123.9940 E8.5417
G1 X116.5780 Y123.9940 E8.6437
G1 X116.5780 Y126.6400 E8.7387
G1 X85.2200 Y155.8470 E10.2781
G1 X85.2200 Y140.9480 E10.8133
G1 X68.2200 Y140.9480 E11.4239
G1 X67.7400 Y141.4280 F6000
G92 E0.0000
G1 X67.7400 Y83.7610 E2.0715 F3600 ; custom inner perimeter feedrate
G1 X68.1650 Y83.7610 E2.0867
G1 X68.1650 Y82.8790 E2.1184
G1 X67.7400 Y82.8790 E2.1337
G1 X67.7400 Y81.9590 E2.1667
G1 X68.1650 Y81.9590 E2.1820
G1 X68.1650 Y81.0940 E2.2131
G1 X67.7400 Y81.0940 E2.2283
G1 X67.7400 Y62.7380 E2.8877
G1 X129.6080 Y62.7380 E5.1100
G1 X129.6080 Y63.1340 E5.1243
G1 X130.5120 Y63.1340 E5.1567
G1 X130.5120 Y62.7380 E5.1709
G1 X131.6880 Y62.7380 E5.2132
G1 X131.6880 Y63.1340 E5.2274
G1 X132.5880 Y63.1340 E5.2597
G1 X132.5880 Y62.7380 E5.2740
G1 X152.2600 Y62.7380 E5.9806
G1 X152.2600 Y94.0620 E7.1058
G1 X119.6080 Y124.4740 E8.7086
G1 X117.0580 Y124.4740 E8.8002
G1 X117.0580 Y126.8490 E8.8855
G1 X84.7400 Y156.9500 E10.4720
G1 X84.7400 Y141.4280 E11.0296
G1 X67.7400 Y141.4280 E11.6402
G1 X68.3360 Y82.5910 F6000
G92 E0.0000
G1 X68.0280 Y82.2830 E0.0157 F3600 ; custom outer perimeter feedrate
G1 X130.9080 Y63.0260 F6000
G92 E0.0000
G1 X131.2030 Y63.3210 E0.0150 F3600 ; custom outer perimeter feedrate
G92 E0.0000
G1 E-6 F2400 ; custom retraction
;layer 48, Z = 9.600
;fan48;
G1 Z9.600 F1200
G1 X68.2200 Y140.9480 F6000
G1 E0 F2400 ; custom un-retraction/prime
G92 E0.0000
G1 X68.2200 Y63.2180 E2.7921 F3600 ; custom outer perimeter feedrate
G1 X151.7800 Y63.2180 E5.7937
G1 X151.7800 Y93.8530 E6.8941
G1 X119.4190 Y123.9940 E8.4827
G1 X116.5780 Y123.9940 E8.5847
G1 X116.5780 Y126.6400 E8.6798
G1 X85.2200 Y155.8470 E10.2191
G1 X85.2200 Y140.9480 E10.7543
G1 X68.2200 Y140.9480 E11.3650
G1 X67.7400 Y141.4280 F6000
G92 E0.0000
G1 X67.7400 Y62.7380 E2.8266 F3600 ; custom inner perimeter feedrate
G1 X152.2600 Y62.7380 E5.8627
G1 X152.2600 Y94.0620 E6.9878
G1 X119.6080 Y124.4740 E8.5907
G1 X117.0580 Y124.4740 E8.6823
G1 X117.0580 Y126.8490 E8.7676
G1 X84.7400 Y156.9500 E10.3540
G1 X84.7400 Y141.4280 E10.9116
G1 X67.7400 Y141.4280 E11.5223
G92 E0.0000
G1 E-6 F2400 ; custom retraction
;layer 49, Z = 9.800
;fan49;
G1 Z9.800 F1200
G1 X68.2200 Y140.9480 F6000
G1 E0 F2400 ; custom un-retraction/prime
G92 E0.0000
G1 X68.2200 Y63.2180 E2.7921 F3600 ; custom outer perimeter feedrate
G1 X151.6100 Y63.2180 E5.7876
G1 X151.6100 Y94.0110 E6.8937
G1 X119.4190 Y123.9940 E8.4739
G1 X116.5780 Y123.9940 E8.5760
G1 X116.5780 Y126.6400 E8.6710
G1 X85.2200 Y155.8470 E10.2103
G1 X85.2200 Y140.9480 E10.7455
G1 X68.2200 Y140.9480 E11.3562
G1 X67.7400 Y141.4280 F6000
G92 E0.0000
G1 X67.7400 Y62.7380 E2.8266 F3600 ; custom inner perimeter feedrate
G1 X152.0900 Y62.7380 E5.8566
G1 X152.0900 Y94.2200 E6.9874
G1 X119.6080 Y124.4740 E8.5819
G1 X117.0580 Y124.4740 E8.6735
G1 X117.0580 Y126.8490 E8.7588
G1 X84.7400 Y156.9500 E10.3453
G1 X84.7400 Y141.4280 E10.9028
G1 X67.7400 Y141.4280 E11.5135
G92 E0.0000
G1 E-6 F2400 ; custom retraction
;layer 50, Z = 10.000
;fan50;
G1 Z10.000 F1200
G1 X68.2200 Y140.9480 F6000
G1 E0 F2400 ; custom un-retraction/prime
G92 E0.0000
G1 X68.2200 Y63.2180 E2.7921 F3600 ; custom outer perimeter feedrate
G1 X151.4400 Y63.2180 E5.7815
G1 X151.4400 Y94.1690 E6.8933
G1 X119.4190 Y123.9940 E8.4652
G1 X116.5780 Y123.9940 E8.5672
G1 X116.5780 Y126.6400 E8.6622
G1 X85.2200 Y155.8470 E10.2016
G1 X85.2200 Y140.9480 E10.7368
G1 X68.2200 Y140.9480 E11.3474
G1 X67.7400 Y141.4280 F6000
G92 E0.0000
G1 X67.7400 Y62.7380 E2.8266 F3600 ; custom inner perimeter feedrate
G1 X151.9200 Y62.7380 E5.8504
G1 X151.9200 Y94.3780 E6.9870
G1 X119.6080 Y124.4740 E8.5732
G1 X117.0580 Y124.4740 E8.6648
G1 X117.0580 Y126.8490 E8.7501
G1 X84.7400 Y156.9500 E10.3365
G1 X84.7400 Y141.4280 E10.8941
G1 X67.7400 Y141.4280 E11.5047
G92 E0.0000
G1 E-6 F2400 ; custom retraction
M204 P2000 T2000 ; custom acceleration - C
M205 X8 Y8 ; custom jerk - C
;layer 51, Z = 10.200
;fan51;
G1 Z10.200 F1200
G1 X68.2200 Y140.9480 F6000
G1 E0 F2400 ; custom un-retraction/prime
G92 E0.0000
G1 X68.2200 Y63.2180 E2.7921 F3600 ; custom outer perimeter feedrate
G1 X151.7800 Y63.2180 E5.7937
G1 X151.7800 Y93.8530 E6.8941
G1 X119.4190 Y123.9940 E8.4827
G1 X116.5780 Y123.9940 E8.5847
G1 X116.5780 Y126.6400 E8.6798
G1 X85.2200 Y155.8470 E10.2191
G1 X85.2200 Y140.9480 E10.7543
G1 X68.2200 Y140.9480 E11.3650
G1 X67.7400 Y141.4280 F6000
G92 E0.0000
G1 X67.7400 Y62.7380 E2.8266 F3600 ; custom inner perimeter feedrate
G1 X152.2600 Y62.7380 E5.8627
G1 X152.2600 Y94.0620 E6.9878
G1 X119.6080 Y124.4740 E8.5907
G1 X117.0580 Y124.4740 E8.6823
G1 X117.0580 Y126.8490 E8.7676
G1 X84.7400 Y156.9500 E10.3540
G1 X84.7400 Y141.4280 E10.9116
G1 X67.7400 Y141.4280 E11.5223
G92 E0.0000
G1 E-6 F2400 ; custom retraction
;layer 52, Z = 10.400
;fan52;
G1 Z10.400 F1200
G1 X68.2200 Y140.9480 F6000
G1 E0 F2400 ; custom un-retraction/prime
G92 E0.0000
G1 X68.2200 Y63.2180 E2.7921 F3600 ; custom outer perimeter feedrate
G1 X151.7800 Y63.2180 E5.7937
G1 X151.7800 Y93.8530 E6.8941
G1 X119.4190 Y123.9940 E8.4827
G1 X116.5780 Y123.9940 E8.5847
G1 X116.5780 Y126.6400 E8.6798
G1 X85.2200 Y155.8470 E10.2191
G1 X85.2200 Y140.9480 E10.7543
G1 X68.2200 Y140.9480 E11.3650
G1 X67.7400 Y141.4280 F6000
G92 E0.0000
G1 X67.7400 Y62.7380 E2.8266 F3600 ; custom inner perimeter feedrate
G1 X152.2600 Y62.7380 E5.8627
G1 X152.2600 Y94.0620 E6.9878
G1 X119.6080 Y124.4740 E8.5907
G1 X117.0580 Y124.4740 E8.6823
G1 X117.0580 Y126.8490 E8.7676
G1 X84.7400 Y156.9500 E10.3540
G1 X84.7400 Y141.4280 E10.9116
G1 X67.7400 Y141.4280 E11.5223
G92 E0.0000
G1 E-6 F2400 ; custom retraction
;layer 53, Z = 10.600
;fan53;
G1 Z10.600 F1200
G1 X68.2200 Y140.9480 F6000
G1 E0 F2400 ; custom un-retraction/prime
G92 E0.0000
G1 X68.2200 Y84.3970 E2.0314 F3600 ; custom outer perimeter feedrate
G1 X68.6450 Y84.3970 E2.0466
G1 X68.6450 Y80.4520 E2.1883
G1 X68.2200 Y80.4520 E2.2036
G1 X68.2200 Y63.2180 E2.8227
G1 X130.1810 Y63.2180 E5.0484
G1 X130.1810 Y63.6140 E5.0626
G1 X132.0140 Y63.6140 E5.1284
G1 X132.0140 Y63.2180 E5.1426
G1 X151.7800 Y63.2180 E5.8527
G1 X151.7800 Y93.8530 E6.9531
G1 X119.4190 Y123.9940 E8.5417
G1 X116.5780 Y123.9940 E8.6437
G1 X116.5780 Y126.6400 E8.7387
G1 X85.2200 Y155.8470 E10.2781
G1 X85.2200 Y140.9480 E10.8133
G1 X68.2200 Y140.9480 E11.4239
G1 X67.7400 Y141.4280 F6000
G92 E0.0000
G1 X67.7400 Y83.9170 E2.0659 F3600 ; custom inner perimeter feedrate
G1 X68.1650 Y83.9170 E2.0811
G1 X68.1650 Y83.0500 E2.1123
G1 X67.7400 Y83.0500 E2.1275
G1 X67.7400 Y81.8270 E2.1715
G1 X68.1650 Y81.8270 E2.1867
G1 X68.1650 Y80.9320 E2.2189
G1 X67.7400 Y80.9320 E2.2341
G1 X67.7400 Y62.7380 E2.8877
G1 X130.6610 Y62.7380 E5.1479
G1 X130.6610 Y63.1340 E5.1621
G1 X131.5340 Y63.1340 E5.1934
G1 X131.5340 Y62.7380 E5.2076
G1 X152.2600 Y62.7380 E5.9522
G1 X152.2600 Y94.0620 E7.0773
G1 X119.6080 Y124.4740 E8.6802
G1 X117.0580 Y124.4740 E8.7718
G1 X117.0580 Y126.8490 E8.8571
G1 X84.7400 Y156.9500 E10.4435
G1 X84.7400 Y141.4280 E11.0011
G1 X67.7400 Y141.4280 E11.6118
G1 X68.3520 Y82.6070 F6000
G92 E0.0000
G1 X68.0280 Y82.2830 E0.0165 F3600 ; custom outer perimeter feedrate
G92 E0.0000
G1 E-6 F2400 ; custom retraction
;layer 54, Z = 10.800
;fan54;
G1 Z10.800 F1200
G1 X68.0310 Y83.0500 F6000
G1 X68.1650 Y83.0500
G1 X68.1650 Y83.9170
G1 X68.0330 Y83.9170
G1 X68.2200 Y140.9480
G1 E0 F2400 ; custom un-retraction/prime
G92 E0.0000
G1 X68.2200 Y84.2960 E2.0350 F3600 ; custom outer perimeter feedrate
G1 X68.6450 Y84.2960 E2.0503
G1 X68.6450 Y80.5530 E2.1847
G1 X68.2200 Y80.5530 E2.2000
G1 X68.2200 Y63.2180 E2.8227
G1 X130.1810 Y63.2180 E5.0484
G1 X130.1810 Y63.6140 E5.0626
G1 X132.0140 Y63.6140 E5.1284
G1 X132.0140 Y63.2180 E5.1426
G1 X151.7800 Y63.2180 E5.8527
G1 X151.7800 Y93.8530 E6.9531
G1 X119.4190 Y123.9940 E8.5417
G1 X116.5780 Y123.9940 E8.6437
G1 X116.5780 Y126.6400 E8.7387
G1 X85.2200 Y155.8470 E10.2781
G1 X85.2200 Y140.9480 E10.8133
G1 X68.2200 Y140.9480 E11.4239
G1 X67.7400 Y141.4280 F6000
G92 E0.0000
G1 X67.7400 Y83.8160 E2.0695 F3600 ; custom inner perimeter feedrate
G1 X68.1650 Y83.8160 E2.0847
G1 X68.1650 Y82.9510 E2.1158
G1 X67.7400 Y82.9510 E2.1311
G1 X67.7400 Y81.9240 E2.1680
G1 X68.1650 Y81.9240 E2.1833
G1 X68.1650 Y81.0330 E2.2153
G1 X67.7400 Y81.0330 E2.2305
G1 X67.7400 Y62.7380 E2.8877
G1 X130.6610 Y62.7380 E5.1479
G1 X130.6610 Y63.1340 E5.1621
G1 X131.5340 Y63.1340 E5.1934
G1 X131.5340 Y62.7380 E5.2076
G1 X152.2600 Y62.7380 E5.9522
G1 X152.2600 Y94.0620 E7.0773
G1 X119.6080 Y124.4740 E8.6802
G1 X117.0580 Y124.4740 E8.7718
G1 X117.0580 Y126.8490 E8.8571
G1 X84.7400 Y156.9500 E10.4435
G1 X84.7400 Y141.4280 E11.0011
G1 X67.7400 Y141.4280 E11.6118
G1 X68.0900 Y83.8160 F6000
G1 X68.1650 Y83.8160
G1 X68.1650 Y82.9510
G1 X68.0950 Y82.9510
G1 X68.0970 Y82.6630
G92 E0.0000
G1 X68.3520 Y82.4080 E0.0130 F3600 ; custom outer perimeter feedrate
G92 E0.0000
G1 E-6 F2400 ; custom retraction
;layer 55, Z = 11.000
;fan55;
G1 Z11.000 F1200
G1 X68.2200 Y140.9480 F6000
G1 E0 F2400 ; custom un-retraction/prime
G92 E0.0000
G1 X68.2200 Y84.1950 E2.0386 F3600 ; custom outer perimeter feedrate
G1 X68.6450 Y84.1950 E2.0539
G1 X68.6450 Y80.6530 E2.1811
G1 X68.2200 Y80.6530 E2.1964
G1 X68.2200 Y63.2180 E2.8227
G1 X130.1810 Y63.2180 E5.0484
G1 X130.1810 Y63.6140 E5.0626
G1 X132.0140 Y63.6140 E5.1284
G1 X132.0140 Y63.2180 E5.1426
G1 X151.7800 Y63.2180 E5.8527
G1 X151.7800 Y93.8530 E6.9531
G1 X119.4190 Y123.9940 E8.5417
G1 X116.5780 Y123.9940 E8.6437
G1 X116.5780 Y126.6400 E8.7387
G1 X85.2200 Y155.8470 E10.2781
G1 X85.2200 Y140.9480 E10.8133
G1 X68.2200 Y140.9480 E11.4239
G1 X67.7400 Y141.4280 F6000
G92 E0.0000
G1 X67.7400 Y83.7150 E2.0731 F3600 ; custom inner perimeter feedrate
G1 X68.1650 Y83.7150 E2.0884
G1 X68.1650 Y82.8530 E2.1193
G1 X67.7400 Y82.8530 E2.1346
G1 X67.7400 Y82.0200 E2.1645
G1 X68.1650 Y82.0200 E2.1798
G1 X68.1650 Y81.1330 E2.2116
G1 X67.7400 Y81.1330 E2.2269
G1 X67.7400 Y62.7380 E2.8877
G1 X130.6610 Y62.7380 E5.1479
G1 X130.6610 Y63.1340 E5.1621
G1 X131.5340 Y63.1340 E5.1934
G1 X131.5340 Y62.7380 E5.2076
G1 X152.2600 Y62.7380 E5.9522
G1 X152.2600 Y94.0620 E7.0773
G1 X119.6080 Y124.4740 E8.6802
G1 X117.0580 Y124.4740 E8.7718
G1 X117.0580 Y126.8490 E8.8571
G1 X84.7400 Y156.9500 E10.4435
G1 X84.7400 Y141.4280 E11.0011
G1 X67.7400 Y141.4280 E11.6118
G1 X68.3090 Y82.5650 F6000
G92 E0.0000
G1 X68.0530 Y82.3080 E0.0130 F3600 ; custom outer perimeter feedrate
G92 E0.0000
G1 E-6 F2400 ; custom retraction
;layer 56, Z = 11.200
;fan56;
G1 Z11.200 F1200
G1 X68.0550 Y82.8530 F6000
G1 X68.1650 Y82.8530
G1 X68.1650 Y83.7150
G1 X68.0570 Y83.7150
G1 X68.2200 Y140.9480
G1 E0 F2400 ; custom un-retraction/prime
G92 E0.0000
G1 X68.2200 Y84.0950 E2.0422 F3600 ; custom outer perimeter feedrate
G1 X68.6450 Y84.0950 E2.0575
G1 X68.6450 Y80.7530 E2.1775
G1 X68.2200 Y80.7530 E2.1928
G1 X68.2200 Y63.2180 E2.8227
G1 X130.1810 Y63.2180 E5.0484
G1 X130.1810 Y63.6140 E5.0626
G1 X132.0140 Y63.6140 E5.1284
G1 X132.0140 Y63.2180 E5.1426
G1 X151.7800 Y63.2180 E5.8527
G1 X151.7800 Y93.8530 E6.9531
G1 X119.4190 Y123.9940 E8.5417
G1 X116.5780 Y123.9940 E8.6437
G1 X116.5780 Y126.6400 E8.7387
G1 X85.2200 Y155.8470 E10.2781
G1 X85.2200 Y140.9480 E10.8133
G1 X68.2200 Y140.9480 E11.4239
G1 X67.7400 Y141.4280 F6000
G92 E0.0000
G1 X67.7400 Y83.6150 E2.0767 F3600 ; custom inner perimeter feedrate
G1 X68.1650 Y83.6150 E2.0920
G1 X68.1650 Y82.7540 E2.1229
G1 X67.7400 Y82.7540 E2.1381
G1 X67.7400 Y82.1170 E2.1610
G1 X68.1650 Y82.1170 E2.1763
G1 X68.1650 Y81.2330 E2.2080
G1 X67.7400 Y81.2330 E2.2233
G1 X67.7400 Y62.7380 E2.8877
G1 X130.6610 Y62.7380 E5.1479
G1 X130.6610 Y63.1340 E5.1621
G1 X131.5340 Y63.1340 E5.1934
G1 X131.5340 Y62.7380 E5.2076
G1 X152.2600 Y62.7380 E5.9522
G1 X152.2600 Y94.0620 E7.0773
G1 X119.6080 Y124.4740 E8.6802
G1 X117.0580 Y124.4740 E8.7718
G1 X117.0580 Y126.8490 E8.8571
G1 X84.7400 Y156.9500 E10.4435
G1 X84.7400 Y141.4280 E11.0011
G1 X67.7400 Y141.4280 E11.6118
G1 X68.2940 Y82.4660 F6000
G92 E0.0000
G1 X68.3520 Y82.4080 E0.0030 F3600 ; custom outer perimeter feedrate
G92 E0.0000
G1 E-6 F2400 ; custom retraction
;layer 57, Z = 11.400
;fan57;
G1 Z11.400 F1200
G1 X68.2200 Y140.9480 F6000
G1 E0 F2400 ; custom un-retraction/prime
G92 E0.0000
G1 X68.2200 Y83.9940 E2.0458 F3600 ; custom outer perimeter feedrate
G1 X68.6450 Y83.9940 E2.0611
G1 X68.6450 Y80.8540 E2.1739
G1 X68.2200 Y80.8540 E2.1892
G1 X68.2200 Y63.2180 E2.8227
G1 X130.1810 Y63.2180 E5.0484
G1 X130.1810 Y63.6140 E5.0626
G1 X132.0140 Y63.6140 E5.1284
G1 X132.0140 Y63.2180 E5.1426
G1 X151.7800 Y63.2180 E5.8527
G1 X151.7800 Y93.8530 E6.9531
G1 X119.4190 Y123.9940 E8.5417
G1 X116.5780 Y123.9940 E8.6437
G1 X116.5780 Y126.6400 E8.7387
G1 X85.2200 Y155.8470 E10.2781
G1 X85.2200 Y140.9480 E10.8133
G1 X68.2200 Y140.9480 E11.4239
G1 X67.7400 Y141.4280 F6000
G92 E0.0000
G1 X67.7400 Y83.5140 E2.0803 F3600 ; custom inner perimeter feedrate
G1 X68.1650 Y83.5140 E2.0956
G1 X68.1650 Y82.6560 E2.1264
G1 X67.7400 Y82.6560 E2.1417
G1 X67.7400 Y82.2140 E2.1576
G1 X68.1650 Y82.2140 E2.1728
G1 X68.1650 Y81.3340 E2.2044
G1 X67.7400 Y81.3340 E2.2197
G1 X67.7400 Y62.7380 E2.8877
G1 X130.6610 Y62.7380 E5.1479
G1 X130.6610 Y63.1340 E5.1621
G1 X131.5340 Y63.1340 E5.1934
G1 X131.5340 Y62.7380 E5.2076
G1 X152.2600 Y62.7380 E5.9522
G1 X152.2600 Y94.0620 E7.0773
G1 X119.6080 Y124.4740 E8.6802
G1 X117.0580 Y124.4740 E8.7718
G1 X117.0580 Y126.8490 E8.8571
G1 X84.7400 Y156.9500 E10.4435
G1 X84.7400 Y141.4280 E11.0011
G1 X67.7400 Y141.4280 E11.6118
G92 E0.0000
G1 E-6 F2400 ; custom retraction
;layer 58, Z = 11.600
;fan58;
G1 Z11.600 F1200
G1 X68.2200 Y140.9480 F6000
G1 E0 F2400 ; custom un-retraction/prime
G92 E0.0000
G1 X68.2200 Y83.8930 E2.0495 F3600 ; custom outer perimeter feedrate
G1 X68.6450 Y83.8930 E2.0647
G1 X68.6450 Y80.9540 E2.1703
G1 X68.2200 Y80.9540 E2.1856
G1 X68.2200 Y63.2180 E2.8227
G1 X130.1810 Y63.2180 E5.0484
G1 X130.1810 Y63.6140 E5.0626
G1 X132.0140 Y63.6140 E5.1284
G1 X132.0140 Y63.2180 E5.1426
G1 X151.7800 Y63.2180 E5.8527
G1 X151.7800 Y93.8530 E6.9531
G1 X119.4190 Y123.9940 E8.5417
G1 X116.5780 Y123.9940 E8.6437
G1 X116.5780 Y126.6400 E8.7387
G1 X85.2200 Y155.8470 E10.2781
G1 X85.2200 Y140.9480 E10.8133
G1 X68.2200 Y140.9480 E11.4239
G1 X67.7400 Y141.4280 F6000
G92 E0.0000
G1 X67.7400 Y83.4130 E2.0840 F3600 ; custom inner perimeter feedrate
G1 X68.1650 Y83.4130 E2.0992
G1 X68.1650 Y82.5570 E2.1300
G1 X67.7400 Y82.5570 E2.1452
G1 X67.7400 Y82.3110 E2.1541
G1 X68.1650 Y82.3110 E2.1693
G1 X68.1650 Y81.4340 E2.2008
G1 X67.7400 Y81.4340 E2.2161
G1 X67.7400 Y62.7380 E2.8877
G1 X130.6610 Y62.7380 E5.1479
G1 X130.6610 Y63.1340 E5.1621
G1 X131.5340 Y63.1340 E5.1934
G1 X131.5340 Y62.7380 E5.2076
G1 X152.2600 Y62.7380 E5.9522
G1 X152.2600 Y94.0620 E7.0773
G1 X119.6080 Y124.4740 E8.6802
G1 X117.0580 Y124.4740 E8.7718
G1 X117.0580 Y126.8490 E8.8571
G1 X84.7400 Y156.9500 E10.4435
G1 X84.7400 Y141.4280 E11.0011
G1 X67.7400 Y141.4280 E11.6118
G92 E0.0000
G1 E-6 F2400 ; custom retraction
;layer 59, Z = 11.800
;fan59;
G1 Z11.800 F1200
G1 X68.2200 Y140.9480 F6000
G1 E0 F2400 ; custom un-retraction/prime
G92 E0.0000
G1 X68.2200 Y83.7920 E2.0531 F3600 ; custom outer perimeter feedrate
G1 X68.6450 Y83.7920 E2.0684
G1 X68.6450 Y81.0550 E2.1667
G1 X68.2200 Y81.0550 E2.1820
G1 X68.2200 Y63.2180 E2.8227
G1 X130.1810 Y63.2180 E5.0484
G1 X130.1810 Y63.6140 E5.0626
G1 X132.0140 Y63.6140 E5.1284
G1 X132.0140 Y63.2180 E5.1426
G1 X151.7800 Y63.2180 E5.8527
G1 X151.7800 Y93.8530 E6.9531
G1 X119.4190 Y123.9940 E8.5417
G1 X116.5780 Y123.9940 E8.6437
G1 X116.5780 Y126.6400 E8.7387
G1 X85.2200 Y155.8470 E10.2781
G1 X85.2200 Y140.9480 E10.8133
G1 X68.2200 Y140.9480 E11.4239
G1 X67.7400 Y141.4280 F6000
G92 E0.0000
G1 X67.7400 Y83.3120 E2.0876 F3600 ; custom inner perimeter feedrate
G1 X68.1650 Y83.3120 E2.1028
G1 X68.1650 Y82.4590 E2.1335
G1 X67.7400 Y82.4590 E2.1488
G1 X67.7400 Y82.4070 E2.1506
G1 X68.1650 Y82.4070 E2.1659
G1 X68.1650 Y81.5350 E2.1972
G1 X67.7400 Y81.5350 E2.2125
G1 X67.7400 Y62.7380 E2.8877
G1 X130.6610 Y62.7380 E5.1479
G1 X130.6610 Y63.1340 E5.1621
G1 X131.5340 Y63.1340 E5.1934
G1 X131.5340 Y62.7380 E5.2076
G1 X152.2600 Y62.7380 E5.9522
G1 X152.2600 Y94.0620 E7.0773
G1 X119.6080 Y124.4740 E8.6802
G1 X117.0580 Y124.4740 E8.7718
G1 X117.0580 Y126.8490 E8.8571
G1 X84.7400 Y156.9500 E10.4435
G1 X84.7400 Y141.4280 E11.0011
G1 X67.7400 Y141.4280 E11.6118
G92 E0.0000
G1 E-6 F2400 ; custom retraction
;layer 60, Z = 12.000
;fan60;
G1 Z12.000 F1200
G1 X68.2200 Y140.9480 F6000
G1 E0 F2400 ; custom un-retraction/prime
G92 E0.0000
G1 X68.2200 Y83.6920 E2.0567 F3600 ; custom outer perimeter feedrate
G1 X68.6450 Y83.6920 E2.0720
G1 X68.6450 Y81.1550 E2.1631
G1 X68.2200 Y81.1550 E2.1784
G1 X68.2200 Y63.2180 E2.8227
G1 X130.1810 Y63.2180 E5.0484
G1 X130.1810 Y63.6140 E5.0626
G1 X132.0140 Y63.6140 E5.1284
G1 X132.0140 Y63.2180 E5.1426
G1 X151.7800 Y63.2180 E5.8527
G1 X151.7800 Y93.8530 E6.9531
G1 X119.4190 Y123.9940 E8.5417
G1 X116.5780 Y123.9940 E8.6437
G1 X116.5780 Y126.6400 E8.7387
G1 X85.2200 Y155.8470 E10.2781
G1 X85.2200 Y140.9480 E10.8133
G1 X68.2200 Y140.9480 E11.4239
G1 X67.7400 Y141.4280 F6000
G92 E0.0000
G1 X67.7400 Y83.2120 E2.0912 F3600 ; custom inner perimeter feedrate
G1 X68.1650 Y83.2120 E2.1065
G1 X68.1650 Y81.6350 E2.1631
G1 X67.7400 Y81.6350 E2.1784
G1 X67.7400 Y62.7380 E2.8572
G1 X130.6610 Y62.7380 E5.1173
G1 X130.6610 Y63.1340 E5.1315
G1 X131.5340 Y63.1340 E5.1629
G1 X131.5340 Y62.7380 E5.1771
G1 X152.2600 Y62.7380 E5.9216
G1 X152.2600 Y94.0620 E7.0468
G1 X119.6080 Y124.4740 E8.6497
G1 X117.0580 Y124.4740 E8.7412
G1 X117.0580 Y126.8490 E8.8266
G1 X84.7400 Y156.9500 E10.4130
G1 X84.7400 Y141.4280 E10.9706
G1 X67.7400 Y141.4280 E11.5812
G92 E0.0000
G1 E-6 F2400 ; custom retraction
;layer 61, Z = 12.200
;fan61;
G1 Z12.200 F1200
G1 X68.2200 Y140.9480 F6000
G1 E0 F2400 ; custom un-retraction/prime
G92 E0.0000
G1 X68.2200 Y83.5910 E2.0603 F3600 ; custom outer perimeter feedrate
G1 X68.6450 Y83.5910 E2.0756
G1 X68.6450 Y81.2550 E2.1595
G1 X68.2200 Y81.2550 E2.1748
G1 X68.2200 Y63.2180 E2.8227
G1 X130.1360 Y63.2180 E5.0468
G1 X130.1360 Y63.6140 E5.0610
G1 X132.0480 Y63.6140 E5.1297
G1 X132.0480 Y63.2180 E5.1439
G1 X151.7800 Y63.2180 E5.8527
G1 X151.7800 Y93.8530 E6.9531
G1 X119.4190 Y123.9940 E8.5417
G1 X116.5780 Y123.9940 E8.6437
G1 X116.5780 Y126.6400 E8.7387
G1 X85.2200 Y155.8470 E10.2781
G1 X85.2200 Y140.9480 E10.8133
G1 X68.2200 Y140.9480 E11.4239
G1 X67.7400 Y141.4280 F6000
G92 E0.0000
G1 X67.7400 Y83.1110 E2.0948 F3600 ; custom inner perimeter feedrate
G1 X68.1650 Y83.1110 E2.1101
G1 X68.1650 Y81.7350 E2.1595
G1 X67.7400 Y81.7350 E2.1748
G1 X67.7400 Y62.7380 E2.8572
G1 X130.6160 Y62.7380 E5.1157
G1 X130.6160 Y63.1340 E5.1300
G1 X131.5680 Y63.1340 E5.1641
G1 X131.5680 Y62.7380 E5.1784
G1 X152.2600 Y62.7380 E5.9216
G1 X152.2600 Y94.0620 E7.0468
G1 X119.6080 Y124.4740 E8.6497
G1 X117.0580 Y124.4740 E8.7412
G1 X117.0580 Y126.8490 E8.8266
G1 X84.7400 Y156.9500 E10.4130
G1 X84.7400 Y141.4280 E10.9706
G1 X67.7400 Y141.4280 E11.5812
G92 E0.0000
G1 E-6 F2400 ; custom retraction
;layer 62, Z = 12.400
;fan62;
G1 Z12.400 F1200
G1 X68.2200 Y140.9480 F6000
G1 E0 F2400 ; custom un-retraction/prime
G92 E0.0000
G1 X68.2200 Y83.4900 E2.0639 F3600 ; custom outer perimeter feedrate
G1 X68.6450 Y83.4900 E2.0792
G1 X68.6450 Y81.3560 E2.1559
G1 X68.2200 Y81.3560 E2.1711
G1 X68.2200 Y63.2180 E2.8227
G1 X130.0450 Y63.2180 E5.0435
G1 X130.0450 Y63.6140 E5.0577
G1 X132.1410 Y63.6140 E5.1330
G1 X132.1410 Y63.2180 E5.1472
G1 X151.7800 Y63.2180 E5.8527
G1 X151.7800 Y93.8530 E6.9531
G1 X119.4190 Y123.9940 E8.5417
G1 X116.5780 Y123.9940 E8.6437
G1 X116.5780 Y126.6400 E8.7387
G1 X85.2200 Y155.8470 E10.2781
G1 X85.2200 Y140.9480 E10.8133
G1 X68.2200 Y140.9480 E11.4239
G1 X67.7400 Y141.4280 F6000
G92 E0.0000
G1 X67.7400 Y83.0100 E2.0984 F3600 ; custom inner perimeter feedrate
G1 X68.1650 Y83.0100 E2.1137
G1 X68.1650 Y81.8360 E2.1559
G1 X67.7400 Y81.8360 E2.1711
G1 X67.7400 Y62.7380 E2.8572
G1 X130.5250 Y62.7380 E5.1124
G1 X130.5250 Y63.1340 E5.1267
G1 X131.6610 Y63.1340 E5.1675
G1 X131.6610 Y62.7380 E5.1817
G1 X152.2600 Y62.7380 E5.9216
G1 X152.2600 Y94.0620 E7.0468
G1 X119.6080 Y124.4740 E8.6497
G1 X117.0580 Y124.4740 E8.7412
G1 X117.0580 Y126.8490 E8.8266
G1 X84.7400 Y156.9500 E10.4130
G1 X84.7400 Y141.4280 E10.9706
G1 X67.7400 Y141.4280 E11.5812
G92 E0.0000
G1 E-6 F2400 ; custom retraction
;layer 63, Z = 12.600
;fan63;
G1 Z12.600 F1200
G1 X68.2200 Y140.9480 F6000
G1 E0 F2400 ; custom un-retraction/prime
G92 E0.0000
G1 X68.2200 Y83.3890 E2.0676 F3600 ; custom outer perimeter feedrate
G1 X68.6450 Y83.3890 E2.0828
G1 X68.6450 Y81.4560 E2.1523
G1 X68.2200 Y81.4560 E2.1675
G1 X68.2200 Y63.2180 E2.8227
G1 X129.9530 Y63.2180 E5.0402
G1 X129.9530 Y63.6140 E5.0544
G1 X132.2340 Y63.6140 E5.1363
G1 X132.2340 Y63.2180 E5.1505
G1 X151.7800 Y63.2180 E5.8527
G1 X151.7800 Y93.8530 E6.9531
G1 X119.4190 Y123.9940 E8.5417
G1 X116.5780 Y123.9940 E8.6437
G1 X116.5780 Y126.6400 E8.7387
G1 X85.2200 Y155.8470 E10.2781
G1 X85.2200 Y140.9480 E10.8133
G1 X68.2200 Y140.9480 E11.4239
G1 X67.7400 Y141.4280 F6000
G92 E0.0000
G1 X67.7400 Y82.9090 E2.1020 F3600 ; custom inner perimeter feedrate
G1 X68.1650 Y82.9090 E2.1173
G1 X68.1650 Y81.9360 E2.1523
G1 X67.7400 Y81.9360 E2.1675
G1 X67.7400 Y62.7380 E2.8572
G1 X130.4330 Y62.7380 E5.1091
G1 X130.4330 Y63.1340 E5.1234
G1 X131.7540 Y63.1340 E5.1708
G1 X131.7540 Y62.7380 E5.1850
G1 X152.2600 Y62.7380 E5.9216
G1 X152.2600 Y94.0620 E7.0468
G1 X119.6080 Y124.4740 E8.6497
G1 X117.0580 Y124.4740 E8.7412
G1 X117.0580 Y126.8490 E8.8266
G1 X84.7400 Y156.9500 E10.4130
G1 X84.7400 Y141.4280 E10.9706
G1 X67.7400 Y141.4280 E11.5812
G92 E0.0000
G1 E-6 F2400 ; custom retraction
;layer 64, Z = 12.800
;fan64;
G1 Z12.800 F1200
G1 X68.2200 Y140.9480 F6000
G1 E0 F2400 ; custom un-retraction/prime
G92 E0.0000
G1 X68.2200 Y83.4180 E2.0665 F3600 ; custom outer perimeter feedrate
G1 X68.6450 Y83.4180 E2.0818
G1 X68.6450 Y81.4430 E2.1528
G1 X68.2200 Y81.4430 E2.1680
G1 X68.2200 Y63.2180 E2.8227
G1 X129.8610 Y63.2180 E5.0369
G1 X129.8610 Y63.6140 E5.0511
G1 X132.3260 Y63.6140 E5.1396
G1 X132.3260 Y63.2180 E5.1539
G1 X151.7800 Y63.2180 E5.8527
G1 X151.7800 Y93.8530 E6.9531
G1 X119.4190 Y123.9940 E8.5417
G1 X116.5780 Y123.9940 E8.6437
G1 X116.5780 Y126.6400 E8.7387
G1 X85.2200 Y155.8470 E10.2781
G1 X85.2200 Y140.9480 E10.8133
G1 X68.2200 Y140.9480 E11.4239
G1 X67.7400 Y141.4280 F6000
G92 E0.0000
G1 X67.7400 Y82.9380 E2.1010 F3600 ; custom inner perimeter feedrate
G1 X68.1650 Y82.9380 E2.1163
G1 X68.1650 Y81.9230 E2.1528
G1 X67.7400 Y81.9230 E2.1680
G1 X67.7400 Y62.7380 E2.8572
G1 X130.3410 Y62.7380 E5.1059
G1 X130.3410 Y63.1340 E5.1201
G1 X131.8460 Y63.1340 E5.1741
G1 X131.8460 Y62.7380 E5.1883
G1 X152.2600 Y62.7380 E5.9216
G1 X152.2600 Y94.0620 E7.0468
G1 X119.6080 Y124.4740 E8.6497
G1 X117.0580 Y124.4740 E8.7412
G1 X117.0580 Y126.8490 E8.8266
G1 X84.7400 Y156.9500 E10.4130
G1 X84.7400 Y141.4280 E10.9706
G1 X67.7400 Y141.4280 E11.5812
G92 E0.0000
G1 E-6 F2400 ; custom retraction
;layer 65, Z = 13.000
;fan65;
G1 Z13.000 F1200
G1 X68.2200 Y140.9480 F6000
G1 E0 F2400 ; custom un-retraction/prime
G92 E0.0000
G1 X68.2200 Y83.5210 E2.0628 F3600 ; custom outer perimeter feedrate
G1 X68.6450 Y83.5210 E2.0781
G1 X68.6450 Y81.3390 E2.1565
G1 X68.2200 Y81.3390 E2.1717
G1 X68.2200 Y63.2180 E2.8227
G1 X129.7700 Y63.2180 E5.0336
G1 X129.7700 Y63.6140 E5.0478
G1 X132.4190 Y63.6140 E5.1430
G1 X132.4190 Y63.2180 E5.1572
G1 X151.7800 Y63.2180 E5.8527
G1 X151.7800 Y93.8530 E6.9531
G1 X119.4190 Y123.9940 E8.5417
G1 X116.5780 Y123.9940 E8.6437
G1 X116.5780 Y126.6400 E8.7387
G1 X85.2200 Y155.8470 E10.2781
G1 X85.2200 Y140.9480 E10.8133
G1 X68.2200 Y140.9480 E11.4239
G1 X67.7400 Y141.4280 F6000
G92 E0.0000
G1 X67.7400 Y83.0410 E2.0973 F3600 ; custom inner perimeter feedrate
G1 X68.1650 Y83.0410 E2.1126
G1 X68.1650 Y81.8190 E2.1565
G1 X67.7400 Y81.8190 E2.1717
G1 X67.7400 Y62.7380 E2.8572
G1 X130.2500 Y62.7380 E5.1026
G1 X130.2500 Y63.1340 E5.1168
G1 X131.9390 Y63.1340 E5.1775
G1 X131.9390 Y62.7380 E5.1917
G1 X152.2600 Y62.7380 E5.9216
G1 X152.2600 Y94.0620 E7.0468
G1 X119.6080 Y124.4740 E8.6497
G1 X117.0580 Y124.4740 E8.7412
G1 X117.0580 Y126.8490 E8.8266
G1 X84.7400 Y156.9500 E10.4130
G1 X84.7400 Y141.4280 E10.9706
G1 X67.7400 Y141.4280 E11.5812
G92 E0.0000
G1 E-6 F2400 ; custom retraction
;layer 66, Z = 13.200
;fan66;
G1 Z13.200 F1200
G1 X68.2200 Y140.9480 F6000
G1 E0 F2400 ; custom un-retraction/prime
G92 E0.0000
G1 X68.2200 Y83.6240 E2.0591 F3600 ; custom outer perimeter feedrate
G1 X68.6450 Y83.6240 E2.0744
G1 X68.6450 Y81.2360 E2.1602
G1 X68.2200 Y81.2360 E2.1755
G1 X68.2200 Y63.2180 E2.8227
G1 X129.6780 Y63.2180 E5.0303
G1 X129.6780 Y63.6140 E5.0445
G1 X132.5120 Y63.6140 E5.1463
G1 X132.5120 Y63.2180 E5.1605
G1 X151.7800 Y63.2180 E5.8527
G1 X151.7800 Y93.8530 E6.9531
G1 X119.4190 Y123.9940 E8.5417
G1 X116.5780 Y123.9940 E8.6437
G1 X116.5780 Y126.6400 E8.7387
G1 X85.2200 Y155.8470 E10.2781
G1 X85.2200 Y140.9480 E10.8133
G1 X68.2200 Y140.9480 E11.4239
G1 X67.7400 Y141.4280 F6000
G92 E0.0000
G1 X67.7400 Y83.1440 E2.0936 F3600 ; custom inner perimeter feedrate
G1 X68.1650 Y83.1440 E2.1089
G1 X68.1650 Y81.7160 E2.1602
G1 X67.7400 Y81.7160 E2.1755
G1 X67.7400 Y62.7380 E2.8572
G1 X130.1580 Y62.7380 E5.0993
G1 X130.1580 Y63.1340 E5.1135
G1 X131.0520 Y63.1340 E5.1456
G1 X131.0520 Y62.7380 E5.1598
G1 X131.1450 Y62.7380 E5.1631
G1 X131.1450 Y63.1340 E5.1774
G1 X132.0320 Y63.1340 E5.2092
G1 X132.0320 Y62.7380 E5.2234
G1 X152.2600 Y62.7380 E5.9501
G1 X152.2600 Y94.0620 E7.0752
G1 X119.6080 Y124.4740 E8.6781
G1 X117.0580 Y124.4740 E8.7697
G1 X117.0580 Y126.8490 E8.8550
G1 X84.7400 Y156.9500 E10.4414
G1 X84.7400 Y141.4280 E10.9990
G1 X67.7400 Y141.4280 E11.6097
G92 E0.0000
G1 E-6 F2400 ; custom retraction
;layer 67, Z = 13.400
;fan67;
G1 Z13.400 F1200
G1 X68.2200 Y140.9480 F6000
G1 E0 F2400 ; custom un-retraction/prime
G92 E0.0000
G1 X68.2200 Y83.7270 E2.0555 F3600 ; custom outer perimeter feedrate
G1 X68.6450 Y83.7270 E2.0707
G1 X68.6450 Y81.1320 E2.1639
G1 X68.2200 Y81.1320 E2.1792
G1 X68.2200 Y63.2180 E2.8227
G1 X129.5860 Y63.2180 E5.0270
G1 X129.5860 Y63.6140 E5.0412
G1 X132.6040 Y63.6140 E5.1496
G1 X132.6040 Y63.2180 E5.1639
G1 X151.7800 Y63.2180 E5.8527
G1 X151.7800 Y93.8530 E6.9531
G1 X119.4190 Y123.9940 E8.5417
G1 X116.5780 Y123.9940 E8.6437
G1 X116.5780 Y126.6400 E8.7387
G1 X85.2200 Y155.8470 E10.2781
G1 X85.2200 Y140.9480 E10.8133
G1 X68.2200 Y140.9480 E11.4239
G1 X67.7400 Y141.4280 F6000
G92 E0.0000
G1 X67.7400 Y83.2460 E2.0899 F3600 ; custom inner perimeter feedrate
G1 X68.1650 Y83.2460 E2.1052
G1 X68.1650 Y81.6120 E2.1639
G1 X67.7400 Y81.6120 E2.1792
G1 X67.7400 Y62.7380 E2.8572
G1 X130.0660 Y62.7380 E5.0960
G1 X130.0660 Y63.1340 E5.1102
G1 X130.9620 Y63.1340 E5.1424
G1 X130.9620 Y62.7380 E5.1566
G1 X131.2350 Y62.7380 E5.1664
G1 X131.2350 Y63.1340 E5.1806
G1 X132.1240 Y63.1340 E5.2126
G1 X132.1240 Y62.7380 E5.2268
G1 X152.2600 Y62.7380 E5.9501
G1 X152.2600 Y94.0620 E7.0752
G1 X119.6080 Y124.4740 E8.6781
G1 X117.0580 Y124.4740 E8.7697
G1 X117.0580 Y126.8490 E8.8550
G1 X84.7400 Y156.9500 E10.4414
G1 X84.7400 Y141.4280 E10.9990
G1 X67.7400 Y141.4280 E11.6097
G92 E0.0000
G1 E-6 F2400 ; custom retraction
;layer 68, Z = 13.600
;fan68;
G1 Z13.600 F1200
G1 X68.2200 Y140.9480 F6000
G1 E0 F2400 ; custom un-retraction/prime
G92 E0.0000
G1 X68.2200 Y83.8290 E2.0518 F3600 ; custom outer perimeter feedrate
G1 X68.6450 Y83.8290 E2.0670
G1 X68.6450 Y81.0280 E2.1676
G1 X68.2200 Y81.0280 E2.1829
G1 X68.2200 Y63.2180 E2.8227
G1 X129.4950 Y63.2180 E5.0237
G1 X129.4950 Y63.6140 E5.0379
G1 X132.6970 Y63.6140 E5.1530
G1 X132.6970 Y63.2180 E5.1672
G1 X151.7800 Y63.2180 E5.8527
G1 X151.7800 Y93.8530 E6.9531
G1 X119.4190 Y123.9940 E8.5417
G1 X116.5780 Y123.9940 E8.6437
G1 X116.5780 Y126.6400 E8.7387
G1 X85.2200 Y155.8470 E10.2781
G1 X85.2200 Y140.9480 E10.8133
G1 X68.2200 Y140.9480 E11.4239
G1 X67.7400 Y141.4280 F6000
G92 E0.0000
G1 X67.7400 Y83.3490 E2.0862 F3600 ; custom inner perimeter feedrate
G1 X68.1650 Y83.3490 E2.1015
G1 X68.1650 Y82.4830 E2.1326
G1 X67.7400 Y82.4830 E2.1479
G1 X67.7400 Y82.3600 E2.1523
G1 X68.1650 Y82.3600 E2.1676
G1 X68.1650 Y81.5080 E2.1982
G1 X67.7400 Y81.5080 E2.2134
G1 X67.7400 Y62.7380 E2.8877
G1 X129.9750 Y62.7380 E5.1232
G1 X129.9750 Y63.1340 E5.1374
G1 X130.8720 Y63.1340 E5.1697
G1 X130.8720 Y62.7380 E5.1839
G1 X131.3260 Y62.7380 E5.2002
G1 X131.3260 Y63.1340 E5.2144
G1 X132.2170 Y63.1340 E5.2464
G1 X132.2170 Y62.7380 E5.2606
G1 X152.2600 Y62.7380 E5.9806
G1 X152.2600 Y94.0620 E7.1058
G1 X119.6080 Y124.4740 E8.7086
G1 X117.0580 Y124.4740 E8.8002
G1 X117.0580 Y126.8490 E8.8855
G1 X84.7400 Y156.9500 E10.4720
G1 X84.7400 Y141.4280 E11.0296
G1 X67.7400 Y141.4280 E11.6402
G92 E0.0000
G1 E-6 F2400 ; custom retraction
;layer 69, Z = 13.800
;fan69;
G1 Z13.800 F1200
G1 X68.2200 Y140.9480 F6000
G1 E0 F2400 ; custom un-retraction/prime
G92 E0.0000
G1 X68.2200 Y83.9320 E2.0481 F3600 ; custom outer perimeter feedrate
G1 X68.6450 Y83.9320 E2.0633
G1 X68.6450 Y80.9250 E2.1714
G1 X68.2200 Y80.9250 E2.1866
G1 X68.2200 Y63.2180 E2.8227
G1 X129.4030 Y63.2180 E5.0204
G1 X129.4030 Y63.6140 E5.0346
G1 X132.7900 Y63.6140 E5.1563
G1 X132.7900 Y63.2180 E5.1705
G1 X151.7800 Y63.2180 E5.8527
G1 X151.7800 Y93.8530 E6.9531
G1 X119.4190 Y123.9940 E8.5417
G1 X116.5780 Y123.9940 E8.6437
G1 X116.5780 Y126.6400 E8.7387
G1 X85.2200 Y155.8470 E10.2781
G1 X85.2200 Y140.9480 E10.8133
G1 X68.2200 Y140.9480 E11.4239
G1 X67.7400 Y141.4280 F6000
G92 E0.0000
G1 X67.7400 Y83.4520 E2.0825 F3600 ; custom inner perimeter feedrate
G1 X68.1650 Y83.4520 E2.0978
G1 X68.1650 Y82.5820 E2.1291
G1 X67.7400 Y82.5820 E2.1443
G1 X67.7400 Y82.2600 E2.1559
G1 X68.1650 Y82.2600 E2.1712
G1 X68.1650 Y81.4050 E2.2019
G1 X67.7400 Y81.4050 E2.2172
G1 X67.7400 Y62.7380 E2.8877
G1 X129.8830 Y62.7380 E5.1199
G1 X129.8830 Y63.1340 E5.1341
G1 X130.7820 Y63.1340 E5.1664
G1 X130.7820 Y62.7380 E5.1806
G1 X131.4170 Y62.7380 E5.2034
G1 X131.4170 Y63.1340 E5.2177
G1 X132.3100 Y63.1340 E5.2497
G1 X132.3100 Y62.7380 E5.2640
G1 X152.2600 Y62.7380 E5.9806
G1 X152.2600 Y94.0620 E7.1058
G1 X119.6080 Y124.4740 E8.7086
G1 X117.0580 Y124.4740 E8.8002
G1 X117.0580 Y126.8490 E8.8855
G1 X84.7400 Y156.9500 E10.4720
G1 X84.7400 Y141.4280 E11.0296
G1 X67.7400 Y141.4280 E11.6402
G1 X131.1290 Y63.2460 F6000
G92 E0.0000
G1 X131.0700 Y63.1880 E0.0030 F3600 ; custom outer perimeter feedrate
G92 E0.0000
G1 E-6 F2400 ; custom retraction
;layer 70, Z = 14.000
;fan70;
G1 Z14.000 F1200
G1 X68.2200 Y140.9480 F6000
G1 E0 F2400 ; custom un-retraction/prime
G92 E0.0000
G1 X68.2200 Y84.0350 E2.0444 F3600 ; custom outer perimeter feedrate
G1 X68.6450 Y84.0350 E2.0596
G1 X68.6450 Y80.8210 E2.1751
G1 X68.2200 Y80.8210 E2.1903
G1 X68.2200 Y63.2180 E2.8227
G1 X129.3110 Y63.2180 E5.0171
G1 X129.3110 Y63.6140 E5.0313
G1 X132.8820 Y63.6140 E5.1596
G1 X132.8820 Y63.2180 E5.1738
G1 X151.7800 Y63.2180 E5.8527
G1 X151.7800 Y93.8530 E6.9531
G1 X119.4190 Y123.9940 E8.5417
G1 X116.5780 Y123.9940 E8.6437
G1 X116.5780 Y126.6400 E8.7387
G1 X85.2200 Y155.8470 E10.2781
G1 X85.2200 Y140.9480 E10.8133
G1 X68.2200 Y140.9480 E11.4239
G1 X67.7400 Y141.4280 F6000
G92 E0.0000
G1 X67.7400 Y83.5550 E2.0789 F3600 ; custom inner perimeter feedrate
G1 X68.1650 Y83.5550 E2.0941
G1 X68.1650 Y82.6810 E2.1255
G1 X67.7400 Y82.6810 E2.1408
G1 X67.7400 Y82.1600 E2.1595
G1 X68.1650 Y82.1600 E2.1748
G1 X68.1650 Y81.3010 E2.2056
G1 X67.7400 Y81.3010 E2.2209
G1 X67.7400 Y62.7380 E2.8877
G1 X129.7910 Y62.7380 E5.1166
G1 X129.7910 Y63.1340 E5.1308
G1 X130.6920 Y63.1340 E5.1632
G1 X130.6920 Y62.7380 E5.1774
G1 X131.5070 Y62.7380 E5.2067
G1 X131.5070 Y63.1340 E5.2209
G1 X132.4020 Y63.1340 E5.2531
G1 X132.4020 Y62.7380 E5.2673
G1 X152.2600 Y62.7380 E5.9806
G1 X152.2600 Y94.0620 E7.1058
G1 X119.6080 Y124.4740 E8.7086
G1 X117.0580 Y124.4740 E8.8002
