; HEADER_BLOCK_START
; generated by OrcaSlicer 2.2.0 on 2024-11-14 at 18:20:33
; total layer number: 75
; filament_density: 1.27
; filament_diameter: 1.75
; max_z_height: 15.00
; HEADER_BLOCK_END

; external perimeters extrusion width = 0.45mm
; perimeters extrusion width = 0.45mm
; infill extrusion width = 0.45mm
; solid infill extrusion width = 0.45mm
; top infill extrusion width = 0.40mm
; first layer extrusion width = 0.42mm

; EXECUTABLE_BLOCK_START
M73 P0 R14
M201 X500 Y500 Z100 E5000
M203 X500 Y500 Z10 E60
M204 P500 R1000 T500
M205 X8.00 Y8.00 Z0.40 E5.00 ; sets the jerk limits, mm/sec
;TYPE:Custom
G90 ; use absolute coordinates
M83 ; extruder relative mode
M140 S80 ; set final bed temp
M104 S150 ; set temporary nozzle temp to prevent oozing during homing
G4 S10 ; allow partial nozzle warmup
M401 ; deploy probe (workaround)
G28 ; home all axis
G29 ; mesh bed
G1 Z50 F240
G1 X2 Y10 F3000
M73 P1 R14
M104 S255 ; set final nozzle temp
M190 S80 ; wait for bed temp to stabilize
M109 S255 ; wait for nozzle temp to stabilize
M73 P1 R14
G1 Z0.28 F240
G92 E0
G1 Y140 E10 F1500 ; prime the nozzle
M73 P2 R14
M73 P2 R14
G1 X2.3 F5000
M73 P3 R14
G92 E0
M73 P3 R14
G1 Y10 E10 F1200 ; prime the nozzle
G92 E0
G90
G21
M83 ; use relative distances for extrusion
; filament start gcode
M106 S0
;LAYER_CHANGE
;Z:0.2
;HEIGHT:0.2
;BEFORE_LAYER_CHANGE
;0.2
G92 E0

G1 E-4 F3600
M73 P4 R13
;_SET_FAN_SPEED_CHANGING_LAYER
M73 P4 R13
G1 Z.6 F9000
G1 X99.847 Y97.968
G1 Z.6
G1 Z.2
G1 E4 F2400
;TYPE:Skirt
;WIDTH:0.42
G1 F3000
G1 X100.061 Y97.29 E.02118
G1 X100.619 Y96.406 E.03112
G1 X101.383 Y95.694 E.03112
G1 X102.304 Y95.2 E.03112
G1 X103.389 Y94.952 E.03315
G1 X116.58 Y94.947 E.39291
G1 X117.601 Y95.165 E.03112
G1 X118.844 Y95.869 E.04253
G1 X119.556 Y96.633 E.03112
G1 X119.895 Y97.199 E.01964
G1 X120.239 Y98.218 E.03205
G1 X120.324 Y99 E.02342
G1 X120.324 Y109 E.29787
G1 X120.253 Y109.714 E.02137
G1 X119.939 Y110.71 E.03112
G1 X119.301 Y111.696 E.03497
G1 X109.301 Y123.696 E.46528
G1 X108.617 Y124.306 E.02731
G1 X107.696 Y124.8 E.03112
G1 X107.032 Y124.989 E.02058
G1 X106.25 Y125.074 E.02342
G1 X103.42 Y125.053 E.08429
G1 X102.04 Y124.689 E.04253
G1 X101.156 Y124.131 E.03112
G1 X100.444 Y123.367 E.03112
G1 X99.95 Y122.446 E.03112
G1 X99.702 Y121.361 E.03315
G1 X99.676 Y99 E.66606
G1 X99.747 Y98.286 E.02137
G1 X99.835 Y98.006 E.00875
G1 X100.19 Y98.12 F9000
G1 F3000
G1 X100.41 Y97.432 E.02152
G1 X100.92 Y96.632 E.02824
G1 X101.617 Y95.99 E.02824
G1 X102.455 Y95.545 E.02824
G1 X103.442 Y95.325 E.03013
G1 X116.531 Y95.321 E.38988
G1 X117.459 Y95.514 E.02824
G1 X118.618 Y96.17 E.03965
G1 X119.26 Y96.867 E.02824
G1 X119.55 Y97.349 E.01675
G1 X119.865 Y98.272 E.02903
G1 X119.947 Y99 E.02184
G1 X119.947 Y109 E.29787
G1 X119.879 Y109.666 E.01993
G1 X119.59 Y110.568 E.02824
G1 X119.011 Y111.454 E.03152
G1 X108.687 Y123.77 E.47869
G1 X107.545 Y124.455 E.03965
G1 X106.558 Y124.675 E.03013
G1 X103.469 Y124.679 E.09202
G1 X102.182 Y124.34 E.03965
G1 X101.382 Y123.83 E.02824
G1 X100.74 Y123.133 E.02824
G1 X100.295 Y122.295 E.02824
G1 X100.135 Y121.728 E.01755
G1 X100.053 Y121 E.02184
G1 X100.053 Y99 E.6553
G1 X100.121 Y98.334 E.01993
G1 X100.178 Y98.158 E.00553
; printing object OpenSCAD Model id:133909887073056 copy 0
G1 E-2.8 F3600
;WIPE_START
G1 F3000
G1 X100.41 Y97.432 E-.91482
G1 X100.538 Y97.231 E-.28518
;WIPE_END
G1 Z.6 F9000
G1 X102.475 Y98.664 Z.6
G1 Z.2
G1 E4 F2400
;TYPE:Brim
G1 F900
G1 X102.603 Y98.35 E.01009
G1 X102.806 Y98.08 E.01009
G1 X103.072 Y97.869 E.01009
G1 X103.381 Y97.735 E.01005
G1 X103.763 Y97.68 E.01149
G1 X116.238 Y97.68 E.37157
G1 X116.586 Y97.725 E.01045
M73 P5 R13
M73 P5 R13
G1 X116.9 Y97.853 E.01009
G1 X117.17 Y98.056 E.01009
G1 X117.381 Y98.322 E.01009
G1 X117.515 Y98.631 E.01005
G1 X117.57 Y99.013 E.01149
G1 X117.57 Y108.988 E.29711
G1 X117.525 Y109.336 E.01045
G1 X117.397 Y109.65 E.01009
G1 X117.194 Y109.92 E.01009
G1 X116.928 Y110.131 E.01009
G1 X116.619 Y110.265 E.01005
G1 X116.237 Y110.32 E.01149
G1 X113.762 Y110.32 E.07371
G1 X113.414 Y110.275 E.01045
G1 X113.1 Y110.147 E.01009
G1 X112.83 Y109.944 E.01009
G1 X112.619 Y109.678 E.01009
G1 X112.485 Y109.369 E.01005
G1 X112.43 Y108.987 E.01149
G1 X112.43 Y103.008 E.17807
G1 X112.382 Y102.882 E.00402
G1 X112.242 Y102.82 E.00457
G1 X107.758 Y102.82 E.13354
G1 X107.632 Y102.868 E.00402
G1 X107.57 Y103.008 E.00457
G1 X107.57 Y120.988 E.53555
G1 X107.525 Y121.336 E.01045
G1 X107.397 Y121.65 E.01009
G1 X107.194 Y121.92 E.01009
G1 X106.928 Y122.131 E.01009
G1 X106.619 Y122.265 E.01005
G1 X106.237 Y122.32 E.01149
G1 X103.762 Y122.32 E.07371
G1 X103.414 Y122.275 E.01045
G1 X103.1 Y122.147 E.01009
G1 X102.83 Y121.944 E.01009
G1 X102.619 Y121.678 E.01009
G1 X102.485 Y121.369 E.01005
G1 X102.43 Y120.987 E.01149
G1 X102.43 Y99.012 E.65455
G1 X102.47 Y98.704 E.00926
G1 X102.841 Y98.776 F9000
G1 F900
G1 X102.928 Y98.551 E.00717
G1 X103.09 Y98.336 E.00802
G1 X103.281 Y98.19 E.00717
G1 X103.5 Y98.098 E.00708
G1 X103.798 Y98.057 E.00895
G1 X116.221 Y98.058 E.37003
G1 X116.503 Y98.099 E.00848
G1 X116.724 Y98.193 E.00717
G1 X116.914 Y98.34 E.00717
G1 X117.045 Y98.506 E.00631
G1 X117.143 Y98.721 E.00704
G1 X117.192 Y99.032 E.00937
G1 X117.193 Y108.956 E.29561
G1 X117.159 Y109.224 E.00805
G1 X117.072 Y109.449 E.00717
G1 X116.91 Y109.664 E.00802
G1 X116.719 Y109.81 E.00717
G1 X116.5 Y109.902 E.00708
G1 X116.202 Y109.943 E.00895
G1 X113.794 Y109.943 E.07173
G1 X113.526 Y109.909 E.00805
G1 X113.276 Y109.807 E.00802
G1 X113.086 Y109.66 E.00717
G1 X112.955 Y109.494 E.00631
G1 X112.848 Y109.25 E.00794
G1 X112.807 Y108.952 E.00895
G1 X112.807 Y103.019 E.17673
G1 X112.739 Y102.759 E.008
G1 X112.635 Y102.606 E.0055
G1 X112.406 Y102.48 E.00779
G1 X112.23 Y102.443 E.00537
G1 X107.769 Y102.443 E.13288
G1 X107.509 Y102.511 E.00799
G1 X107.356 Y102.615 E.0055
G1 X107.23 Y102.844 E.00779
G1 X107.193 Y103.02 E.00537
G1 X107.193 Y120.956 E.53425
G1 X107.159 Y121.224 E.00805
M73 P6 R13
M73 P6 R13
G1 X107.072 Y121.449 E.00717
G1 X106.93 Y121.643 E.00717
G1 X106.744 Y121.795 E.00717
G1 X106.5 Y121.902 E.00794
G1 X106.202 Y121.943 E.00895
G1 X103.794 Y121.943 E.07173
G1 X103.526 Y121.909 E.00805
G1 X103.301 Y121.822 E.00717
G1 X103.086 Y121.66 E.00802
G1 X102.94 Y121.469 E.00717
G1 X102.848 Y121.25 E.00708
G1 X102.807 Y120.952 E.00895
G1 X102.807 Y99.044 E.65257
G1 X102.836 Y98.815 E.00686
G1 X103.21 Y98.914 F9000
G1 F900
G1 X103.253 Y98.751 E.00503
G1 X103.356 Y98.598 E.0055
G1 X103.586 Y98.472 E.00779
G1 X103.762 Y98.434 E.00537
G1 X116.24 Y98.434 E.37167
G1 X116.499 Y98.503 E.00799
G1 X116.652 Y98.606 E.0055
G1 X116.778 Y98.836 E.00779
G1 X116.816 Y99.012 E.00537
G1 X116.816 Y108.99 E.2972
G1 X116.747 Y109.249 E.008
G1 X116.644 Y109.402 E.0055
G1 X116.414 Y109.528 E.00779
G1 X116.238 Y109.566 E.00537
G1 X113.76 Y109.566 E.0738
G1 X113.501 Y109.497 E.008
G1 X113.348 Y109.394 E.0055
G1 X113.222 Y109.164 E.00779
G1 X113.184 Y108.988 E.00537
G1 X113.184 Y102.179 E.20283
G1 X113.137 Y102.087 E.00308
G1 X113.071 Y102.066 E.00206
G1 X106.929 Y102.066 E.18296
G1 X106.837 Y102.113 E.00308
G1 X106.816 Y102.179 E.00206
G1 X106.816 Y120.99 E.56031
G1 X106.747 Y121.249 E.008
G1 X106.644 Y121.402 E.0055
G1 X106.414 Y121.528 E.00779
G1 X106.238 Y121.566 E.00537
G1 X103.76 Y121.566 E.0738
G1 X103.605 Y121.537 E.0047
G1 X103.501 Y121.497 E.00333
G1 X103.348 Y121.394 E.0055
G1 X103.222 Y121.164 E.00779
G1 X103.184 Y120.988 E.00537
G1 X103.184 Y99.01 E.65464
G1 X103.2 Y98.953 E.00177
G1 X103.561 Y99 F9000
G1 F900
G1 X103.61 Y98.874 E.00402
G1 X103.75 Y98.811 E.00457
G1 X116.25 Y98.811 E.37233
G1 X116.376 Y98.86 E.00402
M73 P7 R13
M73 P7 R13
G1 X116.439 Y99 E.00457
G1 X116.439 Y109 E.29787
G1 X116.39 Y109.126 E.00402
G1 X116.25 Y109.189 E.00457
G1 X113.75 Y109.189 E.07447
G1 X113.624 Y109.14 E.00402
G1 X113.561 Y109 E.00457
G1 X113.561 Y101.689 E.21778
G1 X106.439 Y101.689 E.21217
G1 X106.439 Y121 E.57522
G1 X106.39 Y121.126 E.00402
G1 X106.25 Y121.189 E.00457
G1 X103.75 Y121.189 E.07447
G1 X103.624 Y121.14 E.00402
G1 X103.561 Y121 E.00457
G1 X103.561 Y99.04 E.65411
G1 E-2.8 F3600
;WIPE_START
G1 F900
G1 X103.61 Y98.874 E-.20755
G1 X103.75 Y98.811 E-.18419
G1 X104.424 Y98.811 E-.80827
;WIPE_END
G1 Z.6 F9000
G1 X105.712 Y101.018 Z.6
G1 Z.2
G1 E4 F2400
;TYPE:Inner wall
;WIDTH:0.419999
G1 F900
G1 X105.563 Y101.379 E.01162
G1 X105.563 Y120.313 E.56399
G1 X104.437 Y120.313 E.03353
G1 X104.437 Y99.687 E.61437
G1 X115.563 Y99.687 E.3314
M73 P8 R13
M73 P8 R13
G1 X115.563 Y108.313 E.25693
G1 X114.437 Y108.313 E.03353
G1 X114.437 Y101.379 E.20655
G1 X114.271 Y100.979 E.01289
G1 X113.871 Y100.813 E.01289
G1 X106.047 Y100.813 E.23306
G1 X105.729 Y100.979 E.0107
G1 X105.728 Y100.981 E.00008
G1 X105.995 Y101.245 F9000
;TYPE:Outer wall
G1 F900
G1 X105.94 Y101.379 E.0043
G1 X105.94 Y120.69 E.57522
G1 X104.06 Y120.69 E.056
G1 X104.06 Y99.31 E.63684
G1 X115.94 Y99.31 E.35386
G1 X115.94 Y108.69 E.2794
G1 X114.06 Y108.69 E.056
G1 X114.06 Y101.379 E.21778
G1 X114.005 Y101.245 E.0043
G1 X113.871 Y101.19 E.0043
G1 X106.129 Y101.19 E.23063
G1 X106.032 Y101.23 E.00311
G1 E-2.8 F3600
;WIPE_START
G1 F900
G1 X105.94 Y101.379 E-.20987
G1 X105.94 Y102.204 E-.99013
;WIPE_END
G1 Z.6 F9000
G1 X115.45 Y100.574
G1 Z.6
G1 Z.2
G1 E4 F2400
M73 P9 R13
;TYPE:Bottom surface
;WIDTH:0.425423
M73 P9 R13
G1 F2100
G1 X114.846 Y99.97 E.02581
G1 X114.305 Y99.97 E.01634
G1 X115.28 Y100.945 E.04168
G1 X115.28 Y101.486 E.01634
G1 X113.764 Y99.97 E.06479
G1 X113.223 Y99.97 E.01634
G1 X113.783 Y100.53 E.02394
G1 X113.89 Y100.53 E.00324
G1 X114.477 Y100.773 E.01919
G1 X114.72 Y101.36 E.01919
G1 X114.72 Y101.467 E.00324
G1 X115.28 Y102.027 E.02394
G1 X115.28 Y102.568 E.01634
G1 X114.72 Y102.008 E.02394
G1 X114.72 Y102.549 E.01634
G1 X115.28 Y103.109 E.02394
G1 X115.28 Y103.65 E.01634
G1 X114.72 Y103.09 E.02394
G1 X114.72 Y103.631 E.01634
G1 X115.28 Y104.191 E.02394
G1 X115.28 Y104.732 E.01634
G1 X114.72 Y104.172 E.02394
G1 X114.72 Y104.713 E.01634
G1 X115.28 Y105.273 E.02394
G1 X115.28 Y105.814 E.01634
G1 X114.72 Y105.253 E.02394
G1 X114.72 Y105.794 E.01634
G1 X115.28 Y106.355 E.02394
G1 X115.28 Y106.896 E.01634
G1 X114.72 Y106.335 E.02394
G1 X114.72 Y106.876 E.01634
G1 X115.28 Y107.437 E.02394
G1 X115.28 Y107.977 E.01634
G1 X114.72 Y107.417 E.02394
G1 X114.72 Y107.958 E.01634
G1 X114.962 Y108.2 E.01032
G1 E-2.8 F3600
;WIPE_START
G1 F2100
G1 X114.72 Y107.958 E-.41004
G1 X114.72 Y107.417 E-.64913
G1 X114.803 Y107.5 E-.14083
;WIPE_END
G1 Z.6 F9000
G1 X113.412 Y100.7 Z.6
G1 Z.2
G1 E4 F2400
G1 F2100
G1 X112.682 Y99.97 E.03119
G1 X112.141 Y99.97 E.01634
G1 X112.701 Y100.53 E.02394
G1 X112.16 Y100.53 E.01634
G1 X111.6 Y99.97 E.02394
G1 X111.059 Y99.97 E.01634
G1 X111.619 Y100.53 E.02394
G1 X111.078 Y100.53 E.01634
G1 X110.518 Y99.97 E.02394
G1 X109.977 Y99.97 E.01634
G1 X110.537 Y100.53 E.02394
G1 X109.997 Y100.53 E.01634
G1 X109.436 Y99.97 E.02394
G1 X108.895 Y99.97 E.01634
G1 X109.456 Y100.53 E.02394
G1 X108.915 Y100.53 E.01634
G1 X108.354 Y99.97 E.02394
G1 X107.813 Y99.97 E.01634
G1 X108.374 Y100.53 E.02394
G1 X107.833 Y100.53 E.01634
G1 X107.273 Y99.97 E.02394
G1 X106.732 Y99.97 E.01634
G1 X107.292 Y100.53 E.02394
G1 X106.751 Y100.53 E.01634
G1 X106.191 Y99.97 E.02394
G1 X105.65 Y99.97 E.01634
G1 X106.21 Y100.53 E.02394
G1 X105.971 Y100.543 E.00722
G1 X105.781 Y100.642 E.00648
G1 X105.109 Y99.97 E.02873
G1 X104.72 Y99.97 E.01175
G1 X104.72 Y100.122 E.00459
G1 X105.479 Y100.881 E.03242
G1 X105.32 Y101.263 E.01251
G1 X104.72 Y100.663 E.02565
G1 X104.72 Y101.204 E.01634
G1 X105.28 Y101.764 E.02394
G1 X105.28 Y102.305 E.01634
G1 X104.72 Y101.745 E.02394
G1 X104.72 Y102.286 E.01634
G1 X105.28 Y102.846 E.02394
G1 X105.28 Y103.387 E.01634
G1 X104.72 Y102.827 E.02394
G1 X104.72 Y103.368 E.01634
G1 X105.28 Y103.928 E.02394
G1 X105.28 Y104.469 E.01634
G1 X104.72 Y103.909 E.02394
G1 X104.72 Y104.449 E.01634
G1 X105.28 Y105.01 E.02394
G1 X105.28 Y105.551 E.01634
G1 X104.72 Y104.99 E.02394
G1 X104.72 Y105.531 E.01634
G1 X105.28 Y106.092 E.02394
G1 X105.28 Y106.633 E.01634
G1 X104.72 Y106.072 E.02394
G1 X104.72 Y106.613 E.01634
G1 X105.28 Y107.173 E.02394
G1 X105.28 Y107.714 E.01634
G1 X104.72 Y107.154 E.02394
G1 X104.72 Y107.695 E.01634
G1 X105.28 Y108.255 E.02394
G1 X105.28 Y108.796 E.01634
G1 X104.72 Y108.236 E.02394
G1 X104.72 Y108.777 E.01634
G1 X105.28 Y109.337 E.02394
G1 X105.28 Y109.878 E.01634
G1 X104.72 Y109.318 E.02394
G1 X104.72 Y109.859 E.01634
G1 X105.28 Y110.419 E.02394
G1 X105.28 Y110.96 E.01634
G1 X104.72 Y110.4 E.02394
G1 X104.72 Y110.941 E.01634
G1 X105.28 Y111.501 E.02394
G1 X105.28 Y112.042 E.01634
G1 X104.72 Y111.482 E.02394
G1 X104.72 Y112.023 E.01634
G1 X105.28 Y112.583 E.02394
G1 X105.28 Y113.124 E.01634
G1 X104.72 Y112.564 E.02394
G1 X104.72 Y113.105 E.01634
G1 X105.28 Y113.665 E.02394
G1 X105.28 Y114.206 E.01634
G1 X104.72 Y113.645 E.02394
G1 X104.72 Y114.186 E.01634
G1 X105.28 Y114.747 E.02394
G1 X105.28 Y115.288 E.01634
G1 X104.72 Y114.727 E.02394
G1 X104.72 Y115.268 E.01634
G1 X105.28 Y115.829 E.02394
G1 X105.28 Y116.369 E.01634
G1 X104.72 Y115.809 E.02394
G1 X104.72 Y116.35 E.01634
G1 X105.28 Y116.91 E.02394
G1 X105.28 Y117.451 E.01634
G1 X104.72 Y116.891 E.02394
G1 X104.72 Y117.432 E.01634
G1 X105.28 Y117.992 E.02394
G1 X105.28 Y118.533 E.01634
G1 X104.72 Y117.973 E.02394
G1 X104.72 Y118.514 E.01634
G1 X105.28 Y119.074 E.02394
G1 X105.28 Y119.615 E.01634
G1 X104.72 Y119.055 E.02394
G1 X104.72 Y119.596 E.01634
G1 X105.324 Y120.2 E.02581
; stop printing object OpenSCAD Model id:133909887073056 copy 0
;LAYER_CHANGE
;Z:0.4
;HEIGHT:0.2
;BEFORE_LAYER_CHANGE
;0.4
G92 E0

G1 E-2.8 F3600
;WIPE_START
G1 F2100
G1 X104.72 Y119.596 E-1.025
G1 X104.72 Y119.45 E-.175
;WIPE_END
;_SET_FAN_SPEED_CHANGING_LAYER
G1 Z.8 F9000
G1 X100.053 Y119.45 Z.8
G1 Z.4
G1 E4 F2400
;TYPE:Skirt
;WIDTH:0.42
G1 F3000
G1 X100.053 Y121 E.04617
G1 X100.135 Y121.728 E.02184
G1 X100.295 Y122.295 E.01755
G1 X100.74 Y123.133 E.02824
G1 X101.382 Y123.83 E.02824
G1 X102.182 Y124.34 E.02824
G1 X103.469 Y124.679 E.03965
G1 X106.558 Y124.675 E.09202
G1 X107.545 Y124.455 E.03013
G1 X108.687 Y123.77 E.03965
G1 X119.011 Y111.454 E.47869
G1 X119.59 Y110.568 E.03152
G1 X119.879 Y109.666 E.02824
G1 X119.947 Y109 E.01993
G1 X119.947 Y99 E.29787
G1 X119.865 Y98.272 E.02184
G1 X119.55 Y97.349 E.02903
G1 X119.26 Y96.867 E.01675
M73 P10 R13
M73 P10 R13
G1 X118.618 Y96.17 E.02824
G1 X117.459 Y95.514 E.03965
G1 X116.531 Y95.321 E.02824
G1 X103.442 Y95.325 E.38988
G1 X102.455 Y95.545 E.03013
G1 X101.617 Y95.99 E.02824
G1 X100.92 Y96.632 E.02824
G1 X100.41 Y97.432 E.02824
G1 X100.121 Y98.334 E.02824
G1 X100.053 Y99 E.01993
G1 X100.053 Y119.41 E.60794
; printing object OpenSCAD Model id:133909887073056 copy 0
G1 E-2.8 F3600
;WIPE_START
G1 F3000
G1 X100.053 Y120.41 E-1.2
;WIPE_END
G1 Z.8 F9000
G1 X105.779 Y101.089 Z.8
G1 Z.4
G1 E4 F2400
;TYPE:Inner wall
;WIDTH:0.449999
G1 X105.618 Y101.479 E.01354
G1 X105.618 Y120.368 E.60741
G1 X104.382 Y120.368 E.03974
G1 X104.382 Y99.632 E.66679
G1 X115.618 Y99.632 E.3613
G1 X115.618 Y108.368 E.28091
G1 X114.382 Y108.368 E.03974
G1 X114.382 Y101.479 E.22154
G1 X114.203 Y101.047 E.01503
G1 X113.771 Y100.868 E.01503
G1 X106.141 Y100.868 E.24538
G1 X105.797 Y101.047 E.01247
G1 X105.794 Y101.053 E.0002
G1 X106.085 Y101.335 F9000
;TYPE:Outer wall
G1 F2400
G1 X106.025 Y101.479 E.00501
G1 X106.025 Y120.775 E.6205
G1 X103.975 Y120.775 E.06592
G1 X103.975 Y99.225 E.69297
G1 X116.025 Y99.225 E.38748
G1 X116.025 Y108.775 E.30709
G1 X113.975 Y108.775 E.06592
G1 X113.975 Y101.479 E.23463
G1 X113.915 Y101.335 E.00501
G1 X113.771 Y101.275 E.00501
G1 X106.229 Y101.275 E.24255
G1 X106.122 Y101.319 E.00372
G1 E-2.8 F3600
;WIPE_START
G1 F2400
G1 X106.025 Y101.479 E-.22347
G1 X106.025 Y102.292 E-.97653
;WIPE_END
G1 Z.8 F9000
G1 X105.238 Y100.414
G1 Z.8
G1 Z.4
G1 E4 F2400
;TYPE:Internal solid infill
;WIDTH:0.479096
G1 F3000
G1 X105.184 Y100.414 E.00188
G1 X105.156 Y100.461 E.00188
G1 X105.184 Y100.508 E.00188
G1 X105.245 Y100.495 E.00217
G1 X114.816 Y100.414 F9000
G1 F3000
G1 X114.762 Y100.414 E.00188
G1 X114.735 Y100.461 E.00188
G1 X114.762 Y100.508 E.00188
G1 X114.824 Y100.495 E.00217
