; generated by PrusaSlicer 2.7.1 on 2024-01-29 at 12:26:29 UTC

; 

; external perimeters extrusion width = 0.42mm
; perimeters extrusion width = 0.44mm
; infill extrusion width = 0.44mm
; solid infill extrusion width = 0.44mm
; top infill extrusion width = 0.40mm
; first layer extrusion width = 0.42mm

M201 X500 Y500 Z100 E5000 ; sets maximum accelerations, mm/sec^2
M203 X500 Y500 Z10 E60 ; sets maximum feedrates, mm / sec
M204 P500 R1000 T500 ; sets acceleration (P, T) and retract acceleration (R), mm/sec^2
M205 X8.00 Y8.00 Z0.40 E5.00 ; sets the jerk limits, mm/sec
M205 S0 T0 ; sets the minimum extruding and travel feed rate, mm/sec

; printing object Tool_Drawer_Creality.stl id:0 copy 0
; stop printing object Tool_Drawer_Creality.stl id:0 copy 0

;TYPE:Custom
G90 ; use absolute coordinates
M83 ; extruder relative mode
M104 S150 ; set temporary nozzle temp to prevent oozing during homing
M140 S60 ; set final bed temp
G4 S30 ; allow partial nozzle warmup
G28 ; home all axis
G1 Z50 F240
G1 X2.0 Y10 F3000
M104 S200 ; set final nozzle temp
M190 S60 ; wait for bed temp to stabilize
M109 S200 ; wait for nozzle temp to stabilize
G1 Z0.28 F240
G92 E0
G1 X2.0 Y140 E10 F1500 ; prime the nozzle
G1 X2.3 Y140 F5000
G92 E0
G1 X2.3 Y10 E10 F1200 ; prime the nozzle
G92 E0
G21 ; set units to millimeters
G90 ; use absolute coordinates
M83 ; use relative distances for extrusion
; Filament gcode
M107
;LAYER_CHANGE
;Z:0.2
;HEIGHT:0.2
;BEFORE_LAYER_CHANGE
G92 E0
;0.2


G1 E-5 F3600
G1 Z.2 F12000
;AFTER_LAYER_CHANGE
;0.2
G1 X75.784 Y48.906
G1 Z.2
G1 E5 F2400
M204 P500
;TYPE:Skirt/Brim
;WIDTH:0.42
G1 F1200
G1 X76.364 Y48.201 E.02862
G1 X77.076 Y47.635 E.02852
G1 X78.124 Y47.174 E.0359
G1 X79.248 Y46.998 E.03567
G1 X139.248 Y46.998 E1.88126
G1 X140.063 Y47.098 E.02575
G1 X141.42 Y47.635 E.04576
G1 X142.133 Y48.201 E.02854
G1 X142.749 Y48.966 E.0308
G1 X142.983 Y49.42 E.01601
G1 X143.248 Y50.242 E.02708
G1 X153.318 Y97.487 E1.51461
G1 X153.571 Y99.644 E.06809
G1 X153.571 Y123.356 E.74347
G1 X153.372 Y125.195 E.058
G1 X143.286 Y180.572 E1.76487
G1 X142.91 Y181.723 E.03797
G1 X142.168 Y182.766 E.04013
G1 X141.591 Y183.251 E.02363
G1 X141.071 Y183.562 E.019
G1 X140.441 Y183.811 E.02124
G1 X139.248 Y184.002 E.03788
G1 X79.248 Y184.002 E1.88126
G1 X78.436 Y183.911 E.02562
G1 X77.425 Y183.562 E.03353
G1 X76.383 Y182.82 E.04011
G1 X75.897 Y182.243 E.02365
G1 X75.586 Y181.723 E.019
G1 X75.337 Y181.093 E.02124
G1 X75.146 Y179.9 E.03788
G1 X75.146 Y51.1 E4.03843
G1 X75.235 Y50.305 E.02508
G1 X75.532 Y49.377 E.03055
G1 X75.756 Y48.959 E.01487
; printing object Tool_Drawer_Creality.stl id:0 copy 0
G1 E-3.5 F3600
;WIPE_START
G1 F9600
G1 X75.784 Y48.906 E-.02135
G1 X76.364 Y48.201 E-.32523
G1 X77.076 Y47.635 E-.32403
G1 X78.124 Y47.174 E-.40788
G1 X79.248 Y46.998 E-.4053
G1 X79.294 Y46.998 E-.01621
;WIPE_END
G1 X79.877 Y51.729 F12000
G1 E5 F2400
;TYPE:Perimeter
;WIDTH:0.419999
G1 F1200
G1 X138.619 Y51.729 E1.84181
G1 X138.614 Y91.766 E1.25533
G1 X138.687 Y92.13 E.01164
G1 X138.877 Y92.42 E.01087
G1 X139.234 Y92.652 E.01335
G1 X145.758 Y95.026 E.21768
G1 X146.882 Y95.599 E.03956
G1 X147.79 Y96.389 E.03774
G1 X148.479 Y97.372 E.03764
G1 X148.909 Y98.493 E.03765
G1 X149.064 Y99.793 E.04105
G1 X149.064 Y123.252 E.73554
G1 X148.91 Y124.505 E.03958
G1 X148.479 Y125.628 E.03771
G1 X147.79 Y126.611 E.03764
G1 X146.884 Y127.399 E.03765
G1 X145.755 Y127.975 E.03974
G1 X139.234 Y130.348 E.21758
G1 X138.877 Y130.58 E.01335
G1 X138.687 Y130.87 E.01087
G1 X138.614 Y131.234 E.01164
G1 X138.619 Y179.271 E1.50616
G1 X79.877 Y179.271 E1.84181
G1 X79.877 Y51.789 E3.9971
G1 X79.5 Y51.352 F12000
G1 F1200
G1 X138.996 Y51.352 E1.86545
G1 X138.991 Y91.766 E1.26715
G1 X139.01 Y91.912 E.00462
G1 X139.149 Y92.158 E.00886
G1 X139.363 Y92.298 E.00802
G1 X145.908 Y94.68 E.21838
G1 X147.095 Y95.284 E.04176
G1 X148.073 Y96.134 E.04063
G1 X148.814 Y97.194 E.04055
G1 X149.278 Y98.401 E.04054
G1 X149.441 Y99.793 E.04394
G1 X149.441 Y123.275 E.73626
G1 X149.279 Y124.597 E.04176
G1 X148.815 Y125.806 E.0406
G1 X148.073 Y126.866 E.04057
G1 X147.096 Y127.714 E.04056
G1 X145.906 Y128.321 E.04189
G1 X140.122 Y130.426 E.19299
G1 X139.232 Y130.771 E.02993
G1 X139.048 Y130.986 E.00887
G1 X138.991 Y131.234 E.00798
G1 X138.996 Y179.648 E1.51798
G1 X79.5 Y179.648 E1.86545
G1 X79.5 Y51.412 E4.02074
G1 X79.123 Y51.212 F12000
;TYPE:External perimeter
G1 F1200
G1 X79.173 Y51.034 E.0058
G1 X79.311 Y50.975 E.00471
G1 X139.136 Y50.975 E1.87577
G1 X139.324 Y51.034 E.00618
G1 X139.373 Y51.159 E.00421
G1 X139.377 Y91.825 E1.27505
G1 X139.492 Y91.943 E.00517
G1 X146.059 Y94.334 E.21913
G1 X147.307 Y94.969 E.0439
G1 X148.355 Y95.88 E.04354
G1 X149.15 Y97.016 E.04347
G1 X149.647 Y98.309 E.04343
G1 X149.818 Y99.793 E.04684
G1 X149.818 Y123.298 E.73698
G1 X149.647 Y124.689 E.04394
G1 X149.15 Y125.984 E.04349
G1 X148.355 Y127.12 E.04347
G1 X147.309 Y128.029 E.04345
G1 X146.056 Y128.667 E.04409
G1 X140.251 Y130.78 E.19369
G1 X139.421 Y131.103 E.02793
G1 X139.368 Y131.234 E.00443
G1 X139.373 Y179.765 E1.52165
G1 X139.321 Y179.949 E.006
G1 X139.178 Y180.025 E.00508
G1 X79.384 Y180.025 E1.8748
G1 X79.199 Y179.973 E.00603
G1 X79.123 Y179.83 E.00508
G1 X79.123 Y51.272 E4.03084
G1 E-3.5 F3600
;WIPE_START
G1 F9600
G1 X79.123 Y51.212 E-.02137
G1 X79.173 Y51.034 E-.06587
G1 X79.311 Y50.975 E-.05347
G1 X83.127 Y50.975 E-1.35929
;WIPE_END
G1 X139.42 Y127.57 F12000
G1 E5 F2400
;TYPE:Perimeter
G1 F1200
G1 X139.234 Y127.537 E.00592
G1 X138.877 Y127.305 E.01335
G1 X138.687 Y127.015 E.01087
G1 X138.623 Y126.783 E.00755
G1 X138.614 Y96.349 E.95424
G1 X138.687 Y95.985 E.01164
G1 X138.877 Y95.695 E.01087
G1 X139.234 Y95.463 E.01335
G1 X139.556 Y95.406 E.01025
G1 X141.24 Y95.412 E.0528
G1 X142.596 Y95.565 E.04279
G1 X142.802 Y95.612 E.00662
G1 X144.096 Y96.064 E.04298
G1 X145.447 Y96.885 E.04957
G1 X146.35 Y97.755 E.03932
G1 X146.713 Y98.151 E.01684
G1 X147.442 Y99.312 E.04298
G1 X147.987 Y100.796 E.04957
G1 X148.034 Y101.002 E.00662
G1 X148.192 Y102.463 E.04608
G1 X148.186 Y120.642 E.56999
G1 X148.033 Y121.998 E.04279
G1 X147.534 Y123.498 E.04957
G1 X146.825 Y124.67 E.04295
G1 X146.597 Y124.99 E.01232
G1 X145.614 Y125.981 E.04377
G1 X144.941 Y126.432 E.0254
G1 X144.286 Y126.844 E.02426
G1 X144.095 Y126.936 E.00665
G1 X142.802 Y127.389 E.04296
G1 X142.596 Y127.436 E.00662
G1 X141.135 Y127.594 E.04608
G1 X139.556 Y127.594 E.04951
G1 X139.479 Y127.58 E.00245
G1 X139.488 Y127.205 F12000
G1 F1200
G1 X139.363 Y127.183 E.00398
G1 X139.149 Y127.044 E.008
G1 X139.01 Y126.797 E.00889
G1 X138.996 Y126.73 E.00215
G1 X138.991 Y96.349 E.95257
G1 X139.048 Y96.101 E.00798
G1 X139.231 Y95.886 E.00885
G1 X139.363 Y95.817 E.00467
G1 X139.556 Y95.783 E.00614
G1 X141.198 Y95.786 E.05148
G1 X142.554 Y95.939 E.04279
G1 X142.677 Y95.967 E.00396
G1 X143.971 Y96.42 E.04299
G1 X145.246 Y97.205 E.04695
G1 X146.083 Y98.022 E.03667
G1 X146.394 Y98.352 E.01422
G1 X147.123 Y99.513 E.04298
G1 X147.631 Y100.921 E.04693
G1 X147.659 Y101.044 E.00396
G1 X147.815 Y102.463 E.04476
G1 X147.812 Y120.6 E.56867
G1 X147.659 Y121.956 E.04279
G1 X147.178 Y123.373 E.04692
G1 X146.506 Y124.47 E.04034
G1 X146.33 Y124.724 E.00969
G1 X145.347 Y125.715 E.04377
G1 X144.085 Y126.525 E.04702
G1 X143.971 Y126.58 E.00397
G1 X142.677 Y127.033 E.04299
G1 X142.554 Y127.061 E.00396
G1 X141.135 Y127.217 E.04476
G1 X139.556 Y127.217 E.04951
G1 X139.547 Y127.215 E.00029
G1 X139.556 Y126.84 F12000
;TYPE:External perimeter
G1 F1200
G1 X139.42 Y126.782 E.00464
G1 X139.37 Y126.678 E.00362
G1 X139.368 Y96.349 E.95094
G1 X139.42 Y96.218 E.00442
G1 X139.556 Y96.16 E.00464
G1 X141.156 Y96.161 E.05017
G1 X142.553 Y96.323 E.0441
G1 X143.849 Y96.777 E.04306
G1 X145.046 Y97.524 E.04424
G1 X146.074 Y98.553 E.04561
G1 X146.804 Y99.714 E.043
G1 X147.275 Y101.045 E.04427
G1 X147.438 Y102.463 E.04475
G1 X147.437 Y120.558 E.56736
G1 X147.284 Y121.914 E.04279
G1 X146.822 Y123.249 E.04429
G1 X146.062 Y124.459 E.0448
G1 X145.079 Y125.45 E.04377
G1 X143.884 Y126.206 E.04434
G1 X142.511 Y126.686 E.0456
G1 X141.135 Y126.84 E.04341
G1 X139.616 Y126.84 E.04763
G1 E-3.5 F3600
;WIPE_START
G1 F9600
G1 X139.556 Y126.84 E-.02138
G1 X139.42 Y126.782 E-.05267
G1 X139.37 Y126.678 E-.04111
G1 X139.37 Y122.791 E-1.38484
;WIPE_END
G1 X138.498 Y52.613 F12000
G1 E5 F2400
;TYPE:Solid infill
;WIDTH:0.420607
G1 F1200
G1 X137.905 Y52.019 E.02636
G1 X137.371 Y52.019 E.01677
G1 X138.329 Y52.977 E.04255
G1 X138.329 Y53.511 E.01677
G1 X136.836 Y52.019 E.06629
G1 X136.302 Y52.019 E.01677
G1 X138.329 Y54.045 E.09
G1 X138.328 Y54.579 E.01677
G1 X135.768 Y52.019 E.1137
G1 X135.234 Y52.019 E.01677
G1 X138.328 Y55.114 E.13744
G1 X138.328 Y55.648 E.01677
G1 X134.7 Y52.019 E.16115
G1 X134.166 Y52.019 E.01677
G1 X138.328 Y56.182 E.18487
G1 X138.328 Y56.716 E.01677
G1 X133.632 Y52.019 E.20859
G1 X133.097 Y52.019 E.0168
G1 X138.328 Y57.25 E.23232
G1 X138.328 Y57.784 E.01677
G1 X132.563 Y52.019 E.25604
G1 X132.029 Y52.019 E.01677
G1 X138.328 Y58.318 E.27976
G1 X138.328 Y58.852 E.01677
G1 X131.495 Y52.019 E.30347
G1 X130.961 Y52.019 E.01677
G1 X138.328 Y59.386 E.32719
G1 X138.328 Y59.92 E.01677
G1 X130.427 Y52.019 E.35091
G1 X129.893 Y52.019 E.01677
G1 X138.328 Y60.454 E.37462
G1 X138.328 Y60.988 E.01677
G1 X129.359 Y52.019 E.39834
G1 X128.824 Y52.019 E.0168
G1 X138.328 Y61.522 E.42208
G1 X138.328 Y62.056 E.01677
G1 X128.29 Y52.019 E.4458
G1 X127.756 Y52.019 E.01677
G1 X138.327 Y62.59 E.46949
G1 X138.327 Y63.124 E.01677
G1 X127.222 Y52.019 E.49321
G1 X126.688 Y52.019 E.01677
G1 X138.327 Y63.659 E.51695
G1 X138.327 Y64.193 E.01677
G1 X126.154 Y52.019 E.54066
G1 X125.62 Y52.019 E.01677
G1 X138.327 Y64.727 E.56438
G1 X138.327 Y65.261 E.01677
G1 X125.086 Y52.019 E.5881
G1 X124.551 Y52.019 E.0168
G1 X138.327 Y65.795 E.61183
G1 X138.327 Y66.329 E.01677
G1 X124.017 Y52.019 E.63555
G1 X123.483 Y52.019 E.01677
G1 X138.327 Y66.863 E.65927
G1 X138.327 Y67.397 E.01677
G1 X122.949 Y52.019 E.68298
G1 X122.415 Y52.019 E.01677
G1 X138.327 Y67.931 E.7067
G1 X138.327 Y68.465 E.01677
G1 X121.881 Y52.019 E.73042
G1 X121.347 Y52.019 E.01677
G1 X138.327 Y68.999 E.75413
G1 X138.327 Y69.533 E.01677
G1 X120.813 Y52.019 E.77785
G1 X120.278 Y52.019 E.0168
G1 X138.326 Y70.067 E.80157
G1 X138.326 Y70.601 E.01677
G1 X119.744 Y52.019 E.82528
G1 X119.21 Y52.019 E.01677
G1 X138.326 Y71.135 E.849
G1 X138.326 Y71.669 E.01677
G1 X118.676 Y52.019 E.87272
G1 X118.142 Y52.019 E.01677
G1 X138.326 Y72.203 E.89643
G1 X138.326 Y72.738 E.0168
G1 X117.608 Y52.019 E.92017
G1 X117.074 Y52.019 E.01677
G1 X138.326 Y73.272 E.94389
G1 X138.326 Y73.806 E.01677
G1 X116.539 Y52.019 E.96763
G1 X116.005 Y52.019 E.01677
G1 X138.326 Y74.34 E.99134
G1 X138.326 Y74.874 E.01677
G1 X115.471 Y52.019 E1.01506
G1 X114.937 Y52.019 E.01677
G1 X138.326 Y75.408 E1.03878
G1 X138.326 Y75.942 E.01677
G1 X114.403 Y52.019 E1.06249
G1 X113.869 Y52.019 E.01677
G1 X138.326 Y76.476 E1.08621
G1 X138.326 Y77.01 E.01677
G1 X113.335 Y52.019 E1.10993
G1 X112.801 Y52.019 E.01677
G1 X138.326 Y77.544 E1.13364
G1 X138.325 Y78.078 E.01677
G1 X112.266 Y52.019 E1.15736
G1 X111.732 Y52.019 E.01677
G1 X138.325 Y78.612 E1.18108
G1 X138.325 Y79.146 E.01677
G1 X111.198 Y52.019 E1.20479
G1 X110.664 Y52.019 E.01677
G1 X138.325 Y79.68 E1.22851
G1 X138.325 Y80.214 E.01677
G1 X110.13 Y52.019 E1.25223
G1 X109.596 Y52.019 E.01677
G1 X138.325 Y80.748 E1.27594
G1 X138.325 Y81.283 E.0168
G1 X109.062 Y52.019 E1.29968
G1 X108.528 Y52.019 E.01677
G1 X138.325 Y81.817 E1.3234
G1 X138.325 Y82.351 E.01677
G1 X107.993 Y52.019 E1.34714
G1 X107.459 Y52.019 E.01677
G1 X138.325 Y82.885 E1.37085
G1 X138.325 Y83.419 E.01677
G1 X106.925 Y52.019 E1.39457
G1 X106.391 Y52.019 E.01677
G1 X138.325 Y83.953 E1.41829
G1 X138.325 Y84.487 E.01677
G1 X105.857 Y52.019 E1.442
G1 X105.323 Y52.019 E.01677
G1 X138.325 Y85.021 E1.46572
G1 X138.325 Y85.555 E.01677
G1 X104.789 Y52.019 E1.48944
G1 X104.254 Y52.019 E.0168
G1 X138.325 Y86.089 E1.51318
G1 X138.325 Y86.623 E.01677
G1 X103.72 Y52.019 E1.53689
G1 X103.186 Y52.019 E.01677
G1 X138.324 Y87.157 E1.56059
G1 X138.324 Y87.691 E.01677
G1 X102.652 Y52.019 E1.5843
G1 X102.118 Y52.019 E.01677
G1 X138.324 Y88.226 E1.60804
G1 X138.324 Y88.76 E.01677
G1 X101.584 Y52.019 E1.63176
G1 X101.05 Y52.019 E.01677
G1 X138.324 Y89.294 E1.65548
G1 X138.324 Y89.828 E.01677
G1 X100.516 Y52.019 E1.67919
G1 X99.981 Y52.019 E.0168
G1 X138.324 Y90.362 E1.70293
G1 X138.324 Y90.896 E.01677
G1 X99.447 Y52.019 E1.72665
G1 X98.913 Y52.019 E.01677
G1 X138.494 Y91.6 E1.75791
G1 E-3.5 F3600
;WIPE_START
G1 F9600
G1 X135.517 Y88.623 E-1.5
;WIPE_END
G1 X145.833 Y95.2 F12000
G1 E5 F2400
G1 F1200
G1 X148.269 Y97.637 E.10821
G1 X148.602 Y98.503 E.02914
G1 X145.249 Y95.15 E.14892
G1 X144.409 Y94.845 E.02807
G1 X148.695 Y99.13 E.19033
G1 X148.77 Y99.739 E.01927
G1 X143.569 Y94.539 E.23097
G1 X142.73 Y94.233 E.02805
G1 X144.373 Y95.876 E.07297
G1 X145.689 Y96.699 E.04875
G1 X146.79 Y97.784 E.04854
G1 X146.924 Y97.944 E.00655
G1 X147.721 Y99.225 E.04738
G1 X148.943 Y100.447 E.05427
G1 X147.768 Y99.805 F12000
G1 F1200
G1 X148.774 Y100.811 E.04468
G1 X148.774 Y101.345 E.01677
G1 X148.301 Y100.872 E.02101
G1 X148.38 Y101.486 E.01944
G1 X148.774 Y101.879 E.01748
G1 X148.774 Y102.414 E.0168
G1 X148.448 Y102.088 E.01448
G1 X148.475 Y102.331 E.00768
G1 X148.476 Y102.65 E.01002
G1 X148.774 Y102.948 E.01324
G1 X148.774 Y103.482 E.01677
G1 X148.476 Y103.184 E.01324
G1 X148.476 Y103.718 E.01677
G1 X148.774 Y104.016 E.01324
G1 X148.774 Y104.55 E.01677
G1 X148.476 Y104.253 E.01321
G1 X148.476 Y104.787 E.01677
G1 X148.774 Y105.084 E.01321
G1 X148.774 Y105.618 E.01677
G1 X148.477 Y105.321 E.01319
G1 X148.477 Y105.856 E.0168
G1 X148.774 Y106.153 E.01319
G1 X148.774 Y106.687 E.01677
G1 X148.477 Y106.39 E.01319
G1 X148.477 Y106.924 E.01677
G1 X148.774 Y107.221 E.01319
G1 X148.774 Y107.755 E.01677
G1 X148.477 Y107.459 E.01317
G1 X148.478 Y107.993 E.01677
G1 X148.774 Y108.289 E.01315
G1 X148.774 Y108.823 E.01677
G1 X148.478 Y108.528 E.01312
G1 X148.478 Y109.062 E.01677
G1 X148.774 Y109.357 E.01312
G1 X148.774 Y109.891 E.01677
G1 X148.478 Y109.596 E.01312
G1 X148.478 Y110.131 E.0168
G1 X148.774 Y110.426 E.01312
G1 X148.774 Y110.96 E.01677
G1 X148.479 Y110.665 E.0131
G1 X148.479 Y111.199 E.01677
G1 X148.774 Y111.494 E.0131
G1 X148.774 Y112.028 E.01677
G1 X148.479 Y111.734 E.01308
G1 X148.479 Y112.268 E.01677
G1 X148.774 Y112.562 E.01308
G1 X148.774 Y113.096 E.01677
G1 X148.48 Y112.802 E.01306
G1 X148.48 Y113.337 E.0168
G1 X148.774 Y113.63 E.01304
G1 X148.774 Y114.164 E.01677
G1 X148.48 Y113.871 E.01304
G1 X148.48 Y114.405 E.01677
G1 X148.774 Y114.699 E.01306
G1 X148.774 Y115.233 E.01677
G1 X148.48 Y114.94 E.01304
G1 X148.481 Y115.474 E.01677
G1 X148.774 Y115.767 E.01301
G1 X148.774 Y116.301 E.01677
G1 X148.481 Y116.008 E.01301
G1 X148.481 Y116.543 E.0168
G1 X148.774 Y116.835 E.01299
G1 X148.774 Y117.369 E.01677
G1 X148.481 Y117.077 E.01299
G1 X148.481 Y117.611 E.01677
G1 X148.774 Y117.903 E.01299
G1 X148.774 Y118.438 E.0168
G1 X148.482 Y118.146 E.01297
G1 X148.482 Y118.68 E.01677
G1 X148.774 Y118.972 E.01297
G1 X148.774 Y119.506 E.01677
G1 X148.482 Y119.214 E.01297
G1 X148.482 Y119.749 E.0168
G1 X148.774 Y120.04 E.01295
G1 X148.774 Y120.574 E.01677
G1 X148.482 Y120.283 E.01295
G1 X148.483 Y120.542 E.00813
G1 X148.456 Y120.79 E.00783
G1 X148.774 Y121.108 E.01412
G1 X148.774 Y121.642 E.01677
G1 X148.404 Y121.273 E.01641
G1 X148.352 Y121.755 E.01522
G1 X148.774 Y122.176 E.01872
G1 X148.774 Y122.711 E.0168
G1 X148.28 Y122.217 E.02194
G1 X148.149 Y122.62 E.01331
G1 X148.772 Y123.244 E.02769
G1 X148.714 Y123.719 E.01503
G1 X148.01 Y123.015 E.03127
G1 X147.872 Y123.411 E.01317
G1 X148.656 Y124.195 E.03482
G1 X148.626 Y124.434 E.00756
G1 X148.553 Y124.626 E.00645
G1 X147.715 Y123.788 E.03722
G1 X147.513 Y124.121 E.01223
G1 X148.404 Y125.012 E.03957
G1 X148.256 Y125.398 E.01298
G1 X147.307 Y124.449 E.04215
G1 X147.101 Y124.777 E.01216
G1 X148.053 Y125.729 E.04228
G1 X147.833 Y126.044 E.01207
G1 X146.884 Y125.094 E.04217
G1 X146.627 Y125.372 E.01189
G1 X147.614 Y126.358 E.04381
G1 X147.573 Y126.416 E.00223
G1 X147.34 Y126.618 E.00968
G1 X146.361 Y125.64 E.04346
